!!!!SEGMENT: pl-wumfc--n26880--010_paderewski-ignacy-jan--manru-erster-akt-viii-scene-chore.krn
!!!cenid: 18xx:4336
!!!COM: Paderewski, Ignacy Jan
!!!COM-rismID: pe30029943
!!!CDT: 1860/11/18-1941/06/29
!!!CNT: Polish
!!!GTL: Manru
!!!OTL: Erster Akt. VIII. Scene. Chöre
!!!OMV: 010
!!!PDT: 1901
!!!AGN:
!!!SMS-siglum: PL-Wumfc
!!!SMS-shelfmark: N26880
!!!SMS-shelfwork: 001-010 G
!!!SMS-variant:
!!!SMS-altvar:
!!!NIFC-rismSourceID: 1001177281
!!!NIFC-rismChildID: 1001177281
!!!NIFC-islandoraID: pl-wumfc:8766
!!!URL-pdf-islandora: https://repozytorium.nifc.pl/islandora/object/pl-wumfc:8766/datastream/PDF/view
!!!URL-scan: https://polish.musicsources.pl/pl/lokalizacje/galeria/druki-muzyczne/11969/94 @EN{Scan on Polish Music Sources Website} @PL{Skany w portalu Dziedzictwo Muzyki Polskiej w otwartym dostępie}
!!!ONB-nifc: UWAGA: skan 94 (s. 183) – 97
!!!AIN: 1 alto 2 barit 1 bass 1 cangl 1 cbass 1 cello 1 clarb 1 clars 2 cor 1 fagot 1 flt 1 mezzo 1 oboe 1 picco 2 soprn 2 tenor 1 timpa 2 tromp 2 tromt 1 tuba 1 viola 2 violn
!!!key:
**kern	**dynam	**kern	**dynam	**kern	**dynam	**kern	**dynam	**kern	**dynam	**kern	**kern	**text	**kern	**text	**kern	**text	**kern	**text	**kern	**text	**kern	**text	**kern	**text	**kern	**text	**kern	**dynam	**kern	**dynam	**kern	**dynam	**kern	**dynam	**kern	**dynam	**kern	**dynam	**kern	**dynam	**kern	**dynam	**kern	**dynam	**kern	**dynam	**kern	**dynam	**kern	**dynam	**kern	**dynam	**kern	**dynam
*part28	*part28	*part27	*part27	*part26	*part26	*part25	*part25	*part24	*part24	*part23	*part22	*part22	*part21	*part21	*part20	*part20	*part19	*part19	*part18	*part18	*part17	*part17	*part16	*part16	*part15	*part15	*part14	*part14	*part13	*part13	*part12	*part12	*part11	*part11	*part10	*part10	*part9	*part9	*part8	*part8	*part7	*part7	*part6	*part6	*part5	*part5	*part4	*part4	*part3	*part3	*part2	*part2	*part1	*part1
*staff28	*	*staff27	*	*staff26	*	*staff25	*	*staff24	*	*staff23	*staff22	*staff22	*staff21	*staff21	*staff20	*staff20	*staff19	*staff19	*staff18	*staff18	*staff17	*staff17	*staff16	*staff16	*staff15	*staff15	*staff14	*	*staff13	*	*staff12	*	*staff11	*	*staff10	*	*staff9	*	*staff8	*	*staff7	*	*staff6	*	*staff5	*	*staff4	*	*staff3	*	*staff2	*	*staff1	*
*I"Contrabbasso.	*	*I"Violoncello	*	*I"Viola.	*	*I"Violino II.	*	*I"Violino I.	*	*I"Männnerchor [basso]	*I"Männnerchor [bariton]	*	*I"Männnerchor [tenor]	*	*I"Mädchenchor [alt]	*	*I"Mädchenchor [mezzosopran]	*	*I"Mädchenchor [sopran]	*	*I"Urok.	*	*I"Manru	*	*I"Ulana.	*	*I"Timpani	*	*I"3. Trombone e Tuba	*	*I"1. e 2 Tromboni.	*	*I"Trombe in B 2. e 3.	*	*I"1. Tromba in B	*	*I"Corno in F 3. e 4.	*	*I"Corno in F 1. e 2.	*	*I"2 Fagotti.	*	*I"Clarinetto basso in B.	*	*I"2 Clarinetti in B.	*	*I"Corno inglese.	*	*I"2 Oboi.	*	*I"2 Flauti grandi.	*	*I"Piccolo.	*
*I'C.B.	*	*I'Vcll.	*	*I'vla	*	*I'Vl II	*	*I'Vl I	*	*I'[B]	*I'[Bariton]	*	*I'[T]	*	*I'[A]	*	*I'[Mezzo-S]	*	*I'[S]	*	*I'Urok.	*	*I'Manru	*	*I'Ulana.	*	*I'Timp	*	*I'3&tuba	*	*I'1&2 Trbone	*	*I'B.Trb 2&3	*	*I'1. B.Trb	*	*I'Cor 3&4	*	*I'Cor 1&2	*	*I'Fag	*	*I'Clar.b.B.	*	*I'Clar.B.	*	*I'Cor.ingl.	*	*I'ob 1, 2	*	*I'2 gr. Fl.	*	*I'Picc	*
*Icbass	*	*Icello	*	*Iviola	*	*Ivioln	*	*Ivioln	*	*Ibass	*Ibarit	*	*Itenor	*	*Ialto	*	*Imezzo	*	*Isoprn	*	*Ibarit	*	*Itenor	*	*Isoprn	*	*Itimpa	*	*Itromt&tuba	*	*Itromt	*	*Itromp	*	*Itromp	*	*Icor	*	*Icor	*	*Ifagot	*	*Iclarb	*	*Iclars	*	*Icangl	*	*Ioboe	*	*Iflt	*	*Ipicco	*
*ICstr	*	*ICstr	*	*ICstr	*	*ICstr	*	*ICstr	*	*ICvox	*ICvox	*	*ICvox	*	*ICvox	*	*ICvox	*	*ICvox	*	*ICvox	*	*ICvox	*	*ICvox	*	*ICidio	*	*ICbras	*	*ICbras	*	*ICbras	*	*ICbras	*	*ICbras	*	*ICbras	*	*ICww	*	*ICww	*	*ICww	*	*ICww	*	*ICww	*	*ICww	*	*ICww	*
*clefF4	*	*clefF4	*	*clefC3	*	*clefG2	*	*clefG2	*	*clefF4	*clefF4	*	*clefGv2	*	*clefG2	*	*clefG2	*	*clefG2	*	*clefF4	*	*clefGv2	*	*clefG2	*	*clefF4	*	*clefF4	*	*clefC4	*	*clefG2	*	*clefG2	*	*clefG2	*	*clefG2	*	*clefF4	*	*clefG2	*	*clefG2	*	*clefG2	*	*clefG2	*	*clefG2	*	*clefG2	*
*ITrd0c0	*	*	*	*	*	*	*	*	*	*	*	*	*	*	*	*	*	*	*	*	*	*	*	*	*	*	*	*	*	*	*	*	*ITrd1c2	*	*ITrd1c2	*	*ITrd4c7	*	*ITrd4c7	*	*	*	*ITrd1c2	*	*ITrd1c2	*	*ITrd4c7	*	*	*	*	*	*ITrd0c0	*
*k[b-e-]	*	*k[b-e-]	*	*k[b-e-]	*	*k[b-e-]	*	*k[b-e-]	*	*k[b-e-]	*k[b-e-]	*	*k[b-e-]	*	*k[b-e-]	*	*k[b-e-]	*	*k[b-e-]	*	*k[b-e-]	*	*k[b-e-]	*	*k[b-e-]	*	*k[]	*	*k[b-e-]	*	*k[b-e-]	*	*k[b-e-]	*	*k[b-e-]	*	*k[b-]	*	*k[b-]	*	*k[b-e-]	*	*k[b-e-]	*	*k[b-e-]	*	*k[b-e-]	*	*k[b-e-]	*	*k[b-e-]	*	*k[b-e-]	*
*B-:	*	*B-:	*	*B-:	*	*B-:	*	*B-:	*	*B-:	*B-:	*	*B-:	*	*B-:	*	*B-:	*	*B-:	*	*B-:	*	*B-:	*	*B-:	*	*B-:	*	*B-:	*	*B-:	*	*B-:	*	*B-:	*	*B-:	*	*B-:	*	*B-:	*	*B-:	*	*B-:	*	*B-:	*	*B-:	*	*B-:	*	*B-:	*
*M2/4	*	*M2/4	*	*M2/4	*	*M2/4	*	*M2/4	*	*M2/4	*M2/4	*	*M2/4	*	*M2/4	*	*M2/4	*	*M2/4	*	*M2/4	*	*M2/4	*	*M2/4	*	*M2/4	*	*M2/4	*	*M2/4	*	*M2/4	*	*M2/4	*	*M2/4	*	*M2/4	*	*M2/4	*	*M2/4	*	*M2/4	*	*M2/4	*	*M2/4	*	*M2/4	*	*M2/4	*
=1	=1	=1	=1	=1	=1	=1	=1	=1	=1	=1	=1	=1	=1	=1	=1	=1	=1	=1	=1	=1	=1	=1	=1	=1	=1	=1	=1	=1	=1	=1	=1	=1	=1	=1	=1	=1	=1	=1	=1	=1	=1	=1	=1	=1	=1	=1	=1	=1	=1	=1	=1	=1	=1	=1
!	!	!	!	!	!	!	!	!	!	!	!	!	!	!	!	!	!	!	!	!	!	!	!	!	!	!	!LO:TX:a:i:t=In B.F.H	!	!	!	!	!	!	!	!	!	!	!	!	!	!	!	!	!	!	!	!	!	!	!	!	!	!	!
.	.	.	.	.	.	(>8qf-X/ 8qb-	.	.	.	.	.	.	.	.	.	.	.	.	.	.	.	.	.	.	.	.	.	.	.	.	.	.	.	.	.	.	.	.	.	.	.	.	.	.	.	.	.	.	.	.	.	.	.	.
*	*	*^	*	*	*	*	*	*^	*	*	*	*	*	*	*	*	*	*	*	*	*	*	*	*	*	*	*	*	*	*	*	*	*^	*	*	*	*^	*	*^	*	*	*	*	*	*	*	*	*	*	*	*	*	*	*
*	*	*	*	*	*	*	*	*	*	*	*	*	*	*	*	*	*	*	*	*	*	*	*	*	*	*	*	*	*	*	*^	*	*	*	*	*	*	*	*	*	*	*	*	*	*	*	*	*	*	*	*	*	*	*	*	*	*	*	*
!	!	!	!	!	!	!	!	!	!	!	!	!	!	!	!	!	!	!	!	!	!	!	!	!	!	!	!	!	!	!	!LO:SLUR:hang	!LO:SLUR:hang	!	!LO:SLUR:hang	!	!LO:SLUR:hang	!	!	!LO:SLUR:hang	!	!	!	!	!	!	!	!	!	!	!	!	!	!	!	!	!	!	!	!	!
[4E-\	.	[4B-/	[4E-\	.	8g-X\L	.	8gg-X\L)	.	8ggg-X/L	8gg-X\L	.	4r	4r	.	4r	.	4g-X/	.	4b-\	Sollt	(8gg-X\L	Sollt	2r	.	2ryy	.	2r	.	2r	.	[<4E-\)	[>4G-X/)	.	[4B-\)) [4g-X	.	[4b-^/)	2r	.	[4gg-X^<\)	.	2r	2r	.	8g-X/L	2r	.	[4E-\ [4B-	.	[4g-X/	.	8g-X\L 8gg-X	.	[4b-\	.	[4gg-X\ [4bb-	.	8ggg-X\L	.	2r	.
.	.	.	.	.	8f\J	.	8ff\J	.	8fff/J	8ff\J	.	.	.	.	.	.	.	.	.	.	8ff\J)	.	.	.	.	.	.	.	.	.	.	.	.	.	.	.	.	.	.	.	.	.	.	8f/J	.	.	.	.	.	.	8f\J 8ff	.	.	.	.	.	8fff\J	.	.	.
8E-\]	.	8B-/]	8E-\]	.	4e-\	.	4ee-\	.	4eee-/	4ee-\	.	4E-\	4B-\	nach!	4g-X\	nach!	4g-/	.	4b-\	Ihr	4ee-\	Ihr	.	.	.	.	.	.	.	.	8E-\]	8G-/]	.	8B-\] 8g-]	.	8b-/]	.	.	8gg-\]	.	.	.	.	4e-X/	.	.	8E-\] 8B-]	.	8g-/]	.	4e-\ 4ee-	.	8b-\]	.	8gg-\] 8bb-]	.	4eee-\	.	.	.
8r	.	8r	8ryy	.	.	.	.	.	.	.	.	.	.	.	.	.	.	.	.	.	.	.	.	.	.	.	.	.	.	.	8r	8ryy	.	8r	.	8r	.	.	8r	.	.	.	.	.	.	.	8r	.	8r	.	.	.	8r	.	8r	.	.	.	.	.
*	*	*	*	*	*	*	*	*	*	*	*	*	*	*	*	*	*	*	*	*	*	*	*	*	*	*	*	*	*	*	*	*	*	*	*	*	*	*	*	*	*	*	*	*	*	*	*	*	*clefF4	*	*	*	*	*	*	*	*	*	*	*
*	*	*	*	*	*	*	*	*	*	*	*	*	*	*	*	*	*	*	*	*	*	*	*	*	*	*	*	*	*	*	*v	*v	*	*	*	*	*	*	*	*	*	*	*	*	*	*	*	*	*	*	*	*	*	*	*	*	*	*	*	*
=2	=2	=2	=2	=2	=2	=2	=2	=2	=2	=2	=2	=2	=2	=2	=2	=2	=2	=2	=2	=2	=2	=2	=2	=2	=2	=2	=2	=2	=2	=2	=2	=2	=2	=2	=2	=2	=2	=2	=2	=2	=2	=2	=2	=2	=2	=2	=2	=2	=2	=2	=2	=2	=2	=2	=2	=2	=2	=2	=2
*	*	*	*	*	*	*	*	*	*	*	*	*	*	*	*	*	*	*	*	*	*	*	*	*	*	*	*	*	*	*	*^	*	*	*	*	*	*	*	*	*	*	*	*	*	*	*^	*	*	*	*	*	*	*	*^	*	*	*	*	*
!	!	!	!	!	!	!	!	!	!	!	!	!	!	!	!	!	!	!	!	!	!	!	!	!	!	!	!	!	!	!	!	!	!	!	!	!	!	!	!	!	!LO:TX:a:t=III.	!	!	!	!	!	!	!	!	!	!	!	!	!	!	!	!	!	!	!	!	!
4D\	.	4B-/	4D\	.	4f\	.	4b-\ 4ff	.	4fff/	4ff\	.	2r	2r	.	4r	.	4f/	.	4b-\	uns	4ff\	uns	2r	.	2ryy	.	2r	.	2r	.	4D/	2r	.	4F/ 4B-	.	4f/	2r	.	2b-\	.	(4f/	2r	.	(4f/	2r	.	[2B-/	4D\	.	4B-\	.	4f\ 4ff	.	2b-\	.	[2bb-/	4ff\	.	4fff\	.	2r	.
4E-\	.	[4B-/	[4E-\	.	4gn\	.	4b-\ 4ggn	.	4gggn/	4ggn\	.	.	.	.	8B-\	Im-	4f/	.	4b-\	be-	4ggn\	be-	.	.	.	.	.	.	.	.	4E-/	.	.	[4G/ [4B-	.	[4g/	.	.	.	.	4g/)	.	.	4gnX/)	.	.	.	[4E-\	.	[4G\	.	4gnX\ 4ggnX	.	.	.	.	[4ggn\	.	4gggnX\	.	.	.
.	.	.	.	.	.	.	.	.	.	.	.	.	.	.	8B-\	-mer	.	.	.	.	.	.	.	.	.	.	.	.	.	.	.	.	.	.	.	.	.	.	.	.	.	.	.	.	.	.	.	.	.	.	.	.	.	.	.	.	.	.	.	.	.	.
=3	=3	=3	=3	=3	=3	=3	=3	=3	=3	=3	=3	=3	=3	=3	=3	=3	=3	=3	=3	=3	=3	=3	=3	=3	=3	=3	=3	=3	=3	=3	=3	=3	=3	=3	=3	=3	=3	=3	=3	=3	=3	=3	=3	=3	=3	=3	=3	=3	=3	=3	=3	=3	=3	=3	=3	=3	=3	=3	=3	=3	=3	=3
4C/	.	4B-/]	4E-\]	.	8e-\L	.	4g\ 4ee-	.	8eee-/L	8ee-\L	.	2r	2r	.	[4B-\	nach!	4e-/	.	4g/	-zwin-	(8ee-\L	-zwin-	2r	.	2ryy	.	2r	.	2r	.	4C/	2r	.	4G/] 4B-]	.	4g/]	2r	.	(2ee-\	.	8e-X/L	2r	.	8e-X/L	2r	.	2B-/]	2E-\]	.	4G\]	.	8e-\L 8ee-	.	4b-\	.	8bb-/L]	8gg\L]	.	8eee-\L	.	2r	.
.	.	.	.	.	8d\J	.	.	.	8ddd/J	8dd\J	.	.	.	.	.	.	.	.	.	.	8dd\J)	.	.	.	.	.	.	.	.	.	.	.	.	.	.	.	.	.	.	.	8d/J	.	.	8d/J	.	.	.	.	.	.	.	8d\J 8dd	.	.	.	8dd/J	8dd\J	.	8ddd\J	.	.	.
4E-\	.	4G-X/	4G-\	.	4c\	.	4g-X\ 4ee-	.	4ccc/	4cc\	.	.	.	.	8B-\]	.	4e-/	.	4g-X/	-gen,	4cc\	-gen,	.	.	.	.	.	.	.	.	4E-/	.	.	4G-X/ 4B-	.	4g-X/	.	.	.	.	4c/	.	.	4c/	.	.	.	.	.	4G-X\	mf	4c/ 4cc	.	4g-X\	.	4ee-/	4cc\	.	4ccc\	.	.	.
.	.	.	.	.	.	.	.	.	.	.	.	.	.	.	8r	.	.	.	.	.	.	.	.	.	.	.	.	.	.	.	.	.	.	.	.	.	.	.	.	.	.	.	.	.	.	.	.	.	.	.	.	.	.	.	.	.	.	.	.	.	.	.
*	*	*	*	*	*	*	*	*	*v	*v	*	*	*	*	*	*	*	*	*	*	*	*	*	*	*	*	*	*	*	*	*	*	*	*	*	*	*	*	*	*	*	*	*	*v	*v	*	*	*	*	*	*	*	*	*	*	*	*	*	*	*	*	*
=4	=4	=4	=4	=4	=4	=4	=4	=4	=4	=4	=4	=4	=4	=4	=4	=4	=4	=4	=4	=4	=4	=4	=4	=4	=4	=4	=4	=4	=4	=4	=4	=4	=4	=4	=4	=4	=4	=4	=4	=4	=4	=4	=4	=4	=4	=4	=4	=4	=4	=4	=4	=4	=4	=4	=4	=4	=4	=4	=4	=4
*	*	*	*	*	*	*	*	*	*	*	*	*	*	*	*	*	*	*	*	*	*	*	*	*	*	*	*	*	*	*	*	*	*^	*	*	*	*	*	*	*	*	*	*	*	*	*	*	*	*	*^	*	*	*	*	*	*	*^	*	*	*
*	*	*	*	*	*	*	*	*	*	*	*	*	*	*	*	*	*	*	*	*	*	*	*	*	*	*	*	*	*	*	*	*^	*	*	*	*	*	*	*	*	*	*	*^	*	*	*	*	*	*	*	*	*	*	*	*	*	*	*	*	*	*	*	*
!	!	!	!	!	!	!	!	!	!LO:TX:a:t=unis:rj	!	!	!	!	!	!	!LO:TX:b:t=(Die Tanzner haben sich endlich der Tanzerinnen bemachtigt, welche sich \n <.....> unter scheinberen Kampfeergebert)	!	!	!	!	!	!	!	!	!	!	!	!	!	!	!	!	!LO:DY:a	!	!	!	!	!	!	!	!	!	!	!	!LO:DY:a	!	!	!	!	!	!	!	!	!	!	!	!	!	!	!	!LO:TX:a:t=à2	!	!	!	!
!	!	!	!	!	!	!	!	!	!	!	!	!	!	!	!	!	!	!	!	!	!	!	!	!	!	!	!	!	!	!	!	!LO:DY:b:rj	!LO:DY:rj	!	!	!LO:DY:rj	!	!	!LO:DY:rj	!	!LO:DY:rj	!	!	!LO:DY:b	!	!	!	!	!	!	!	!	!	!	!	!	!	!	!	!	!	!	!	!	!
8F\	.	4B-/	4D\	.	4b-\	.	4f/ 4dd	.	4bb-\	.	4B-\	4B-\	Und	2r	.	4d/	.	4f/	Nein,	4b-\	Nein,	2r	.	2ryy	.	2r	.	2r	.	(4D/	[2FF\	p	mf	(4B-/	4F\	mf	[4f/	2r	p	[4f/)	p	(4f/	2F\	mf	f	2r	.	4D/	[2FF\	.	(<4B-\	.	((4B-/ 4b-	4ryy	.	(4f\	.	4ff/	4dd\	.	(4bb-/	4ff\	.	2r	.
4F\	.	.	.	.	.	.	.	.	.	.	.	.	.	.	.	.	.	.	.	.	.	.	.	.	.	.	.	.	.	.	.	.	.	.	.	.	.	.	.	.	.	.	.	.	.	.	.	.	.	.	.	.	.	.	.	.	.	.	.	.	.	.	.	.	.
.	.	4c/	4E-\	.	8a\L	.	4cc\	.	8aa\L	.	4c\	4c\	nun	.	.	4e-/	.	4e-/	o	(8a/L	o	.	.	.	.	.	.	.	.	4E-/	.	.	.	4c/	4r	.	8f/]	.	.	8f/]	.	8a/L)	.	.	.	.	.	4E-/	.	.	4c\	.	8a/L	8a\L	.	8a\L	.	4r	4cc\	.	4ryy	8aa\L	.	.	.
[8F\	.	.	.	.	8g\J	.	.	.	8gg\J	.	.	.	.	.	.	.	.	.	.	8g/J)	.	.	.	.	.	.	.	.	.	.	.	.	.	.	.	.	8r	.	.	8r	.	8g/J	.	.	.	.	.	.	.	.	.	.	8g/J))	8g\J	.	8gnX\J)	.	.	.	.	.	8gg\J)	.	.	.
*	*	*	*	*	*	*	*	*	*	*	*	*	*	*	*	*	*	*	*	*	*	*	*	*	*	*	*	*	*	*	*	*v	*v	*	*	*	*	*	*	*	*	*	*	*v	*v	*	*	*	*	*	*	*	*	*	*	*	*	*	*	*	*	*	*	*	*
*	*	*v	*v	*	*	*	*	*	*	*	*	*	*	*	*	*	*	*	*	*	*	*	*	*	*	*	*	*	*	*	*	*	*	*	*	*v	*v	*	*	*	*	*	*	*	*	*	*	*	*	*	*	*	*	*	*	*	*	*	*v	*v	*	*	*
=5	=5	=5	=5	=5	=5	=5	=5	=5	=5	=5	=5	=5	=5	=5	=5	=5	=5	=5	=5	=5	=5	=5	=5	=5	=5	=5	=5	=5	=5	=5	=5	=5	=5	=5	=5	=5	=5	=5	=5	=5	=5	=5	=5	=5	=5	=5	=5	=5	=5	=5	=5	=5	=5	=5	=5	=5	=5	=5	=5	=5
8F\]	.	8A\L	.	2f\	.	2ee-\	.	2ff\	.	8A\	8A\	tan-	2r	.	2e-/	.	2e-/	nein,	2f/	nein,	2r	.	2ryy	.	2r	.	2r	.	4C/)	4FF\]	.	4F/)	2r	.	2r	.	2r	.	[2f/	2r	.	2r	.	2C/	2FF\]	.	8A\L	.	2fTT/	2f\	.	2cc\	.	2r	2ee-\	.	2ffT\	.	2r	.
4F\	.	8G\J	.	.	.	.	.	.	.	8G\	8G\	-zen	.	.	.	.	.	.	.	.	.	.	.	.	.	.	.	.	.	.	.	.	.	.	.	.	.	.	.	.	.	.	.	.	.	.	8G\J	.	.	.	.	.	.	.	.	.	.	.	.	.
.	.	4F\	.	.	.	.	.	.	.	4F\	4F\	wir	.	.	.	.	.	.	.	.	.	.	.	.	.	.	.	.	4r	4ryy	.	4r	.	.	.	.	.	.	.	.	.	.	.	.	.	.	4F\)	.	.	.	.	.	.	.	.	.	.	.	.	.
[8F\	.	.	.	.	.	.	.	.	.	.	.	.	.	.	.	.	.	.	.	.	.	.	.	.	.	.	.	.	.	.	.	.	.	.	.	.	.	.	.	.	.	.	.	.	.	.	.	.	.	.	.	.	.	.	.	.	.	.	.	.
=6	=6	=6	=6	=6	=6	=6	=6	=6	=6	=6	=6	=6	=6	=6	=6	=6	=6	=6	=6	=6	=6	=6	=6	=6	=6	=6	=6	=6	=6	=6	=6	=6	=6	=6	=6	=6	=6	=6	=6	=6	=6	=6	=6	=6	=6	=6	=6	=6	=6	=6	=6	=6	=6	=6	=6	=6	=6	=6	=6	=6
*	*	*	*	*	*	*	*	*	*	*	*	*	*	*	*	*	*	*	*	*	*	*	*	*	*	*	*	*	*	*	*	*	*	*	*	*	*	*	*	*	*	*	*	*	*	*	*	*	*	*	*	*	*	*	*	*	*^	*	*	*
!	!	!	!	!	!	!	!	!	!	!	!	!	!	!	!	!	!	!	!	!	!	!	!	!	!	!	!	!	!	!	!	!	!	!	!	!	!	!	!	!	!	!	!	!	!	!	!	!	!	!	!	!	!	!	!	!	!LO:TX:a:t=à2	!	!	!	!
8F\]	.	4D\ 4B-	.	4b-\	.	4f/ 4dd	.	4bb-\	.	4B-\	4B-\	Den-	2r	.	4d/	.	4d/	nein,	4b-/	nein,	2r	.	2ryy	.	2r	.	2r	.	(4D/	[2FF\	.	(4B-/	4F\	.	2r	.	2r	.	4f/]	2F\	.	2r	.	4D/	[2FF\	.	(<4B-\	.	((4b-/	4b-\	.	(4f\	.	4ff/	4dd\	.	4bb-/	4ff\	.	2r	.
4F\	.	.	.	.	.	.	.	.	.	.	.	.	.	.	.	.	.	.	.	.	.	.	.	.	.	.	.	.	.	.	.	.	.	.	.	.	.	.	.	.	.	.	.	.	.	.	.	.	.	.	.	.	.	.	.	.	.	.	.	.	.
.	.	4E-\ 4c	.	8a\L	.	4cc\	.	8aa\L	.	4c\	4c\	-noch	.	.	4e-/	.	4e-/	o	(8a/L	o	.	.	.	.	.	.	.	.	4E-/	.	.	4c/	4r	.	.	.	.	.	8a/L	.	.	.	.	4E-/	.	.	4c\	.	8a/L	8a\L	.	8a\L	.	4r	4cc\	.	4ryy	(8aa\L	.	.	.
[8F\	.	.	.	8g\J	.	.	.	8gg\J	.	.	.	.	.	.	.	.	.	.	8g/J)	.	.	.	.	.	.	.	.	.	.	.	.	.	.	.	.	.	.	.	8g/J	.	.	.	.	.	.	.	.	.	8g/J))	8g\J	.	8g\J)	.	.	.	.	.	8gg\J	.	.	.
*	*	*	*	*	*	*	*	*	*	*	*	*	*	*	*	*	*	*	*	*	*	*	*	*	*	*	*	*	*	*	*	*	*	*	*	*	*	*	*	*	*	*	*	*	*	*	*	*	*	*	*	*	*	*	*	*	*v	*v	*	*	*
=7	=7	=7	=7	=7	=7	=7	=7	=7	=7	=7	=7	=7	=7	=7	=7	=7	=7	=7	=7	=7	=7	=7	=7	=7	=7	=7	=7	=7	=7	=7	=7	=7	=7	=7	=7	=7	=7	=7	=7	=7	=7	=7	=7	=7	=7	=7	=7	=7	=7	=7	=7	=7	=7	=7	=7	=7	=7	=7	=7	=7
8F\]	.	8A\L	.	2f\	.	2ee-\	.	2ff\	.	8A\	8A\	in	2r	.	2e-/	.	2e-/	nein!	2f/	nein!	2r	.	2ryy	.	2r	.	2r	.	4C/)	4FF\]	.	4F/)	2r	.	2r	.	2r	.	[2f/	2r	.	2r	.	2C/	2FF\]	.	8A\L	.	2fTT/	2f\	.	2cc\	.	2r	2ee-\	.	2ffTT\	.	2r	.
4F\	.	8G\J	.	.	.	.	.	.	.	8G\	8G\	ver-	.	.	.	.	.	.	.	.	.	.	.	.	.	.	.	.	.	.	.	.	.	.	.	.	.	.	.	.	.	.	.	.	.	.	8G\J	.	.	.	.	.	.	.	.	.	.	.	.	.
.	.	4F\	.	.	.	.	.	.	.	4F\	4F\	-rein	.	.	.	.	.	.	.	.	.	.	.	.	.	.	.	.	4r	4ryy	.	4r	.	.	.	.	.	.	.	.	.	.	.	.	.	.	4F\)	.	.	.	.	.	.	.	.	.	.	.	.	.
[8F\	.	.	.	.	.	.	.	.	.	.	.	.	.	.	.	.	.	.	.	.	.	.	.	.	.	.	.	.	.	.	.	.	.	.	.	.	.	.	.	.	.	.	.	.	.	.	.	.	.	.	.	.	.	.	.	.	.	.	.	.
*	*	*	*	*	*	*	*	*	*	*	*	*	*	*	*	*	*	*	*	*	*	*	*	*	*	*	*	*	*	*	*	*v	*v	*	*	*	*	*	*	*	*	*	*	*	*	*	*	*	*v	*v	*	*	*	*	*	*	*	*	*	*
=8	=8	=8	=8	=8	=8	=8	=8	=8	=8	=8	=8	=8	=8	=8	=8	=8	=8	=8	=8	=8	=8	=8	=8	=8	=8	=8	=8	=8	=8	=8	=8	=8	=8	=8	=8	=8	=8	=8	=8	=8	=8	=8	=8	=8	=8	=8	=8	=8	=8	=8	=8	=8	=8	=8	=8	=8	=8	=8
*	*	*	*	*	*	*	*	*	*	*	*	*	*	*	*	*	*	*	*	*	*	*	*	*	*	*	*	*	*	*	*	*	*	*	*	*	*	*	*	*	*	*	*	*	*	*	*	*	*	*	*	*	*	*	*^	*	*	*
*	*	*	*	*	*	*	*	*	*	*	*	*	*	*	*	*	*	*	*	*	*	*	*	*	*	*	*	*	*	*	*^	*	*	*	*	*	*	*	*	*	*	*	*	*	*	*	*	*	*	*	*	*	*	*	*	*	*	*	*
!	!	!	!	!	!	!	!	!	!	!	!	!	!LO:TX:t=P:problem:nieczytelny zapis tekstu	!	!	!	!	!	!	!	!	!	!	!	!	!	!	!	!	!	!LO:DY:a:rj	!LO:DY:rj	!	!	!	!	!	!	!	!	!	!	!	!	!	!	!	!	!	!	!	!	!	!	!	!	!	!	!	!
8F\]	.	4F\	.	4f\	.	8dd\L	.	4ff\	.	4F\	4F\	so	4f\	.	2r	.	2r	.	2r	.	2r	.	2ryy	.	2r	.	2r	.	4F/	[2FF\	mf	p	4F/ 4A	p	2r	.	2r	.	4f/]	2r	.	2r	.	4F/	2FF\	.	4F\	.	4A/ 4f	.	4f\	.	4ff/	8dd\L	.	4ff^/	8dd\L	.	2r	.
4F\	.	.	.	.	.	8cc\J	.	.	.	.	.	.	.	.	.	.	.	.	.	.	.	.	.	.	.	.	.	.	.	.	.	.	.	.	.	.	.	.	.	.	.	.	.	.	.	.	.	.	.	.	.	.	.	8cc\J	.	.	8cc\J)	.	.	.
.	.	8E-\L	.	4g\	.	4bn\	.	4gg\	.	8E-\	8E-\	muß	4gn\	so	.	.	.	.	.	.	.	.	.	.	.	.	.	.	8E-/L	.	.	.	4G/ 4Bn	.	.	.	.	.	4g/	.	.	.	.	8E-/L	.	.	4G\	.	4BX/ 4g	.	4g\	.	4gg/	4bn\	.	4gg/	4bn\	.	.	.
[8F\	.	8D\J	.	.	.	.	.	.	.	8D\	8D\	es	.	.	.	.	.	.	.	.	.	.	.	.	.	.	.	.	8D/J	.	.	.	.	.	.	.	.	.	.	.	.	.	.	8D/J	.	.	.	.	.	.	.	.	.	.	.	.	.	.	.	.
*	*	*	*	*	*	*	*	*	*	*	*	*	*	*	*	*	*	*	*	*	*	*	*	*	*	*	*	*	*	*	*v	*v	*	*	*	*	*	*	*	*	*	*	*	*	*	*	*	*	*	*	*	*	*	*	*	*	*	*	*	*
*	*	*	*	*	*	*	*	*	*	*	*	*	*	*	*	*	*	*	*	*	*	*	*	*	*	*	*	*	*	*	*	*	*	*	*	*	*	*	*	*	*	*	*v	*v	*	*	*	*	*	*	*	*v	*v	*	*	*	*	*	*
=9	=9	=9	=9	=9	=9	=9	=9	=9	=9	=9	=9	=9	=9	=9	=9	=9	=9	=9	=9	=9	=9	=9	=9	=9	=9	=9	=9	=9	=9	=9	=9	=9	=9	=9	=9	=9	=9	=9	=9	=9	=9	=9	=9	=9	=9	=9	=9	=9	=9	=9	=9	=9	=9	=9	=9	=9	=9
*	*	*	*	*	*	*	*	*	*	*	*	*	*	*	*	*	*	*	*	*	*	*	*	*	*	*	*	*	*	*	*	*	*	*	*	*	*	*	*	*	*	*	*	*	*	*	*^	*	*	*	*	*	*	*	*	*	*
8F\]	.	2C/	.	8e-\L	.	8cc/L	.	8ee-\L	.	[4C/	[4C/	sein!	8e-\	muß	2r	.	2r	.	2r	.	2r	.	2ryy	.	2r	.	2r	.	[2C/	2FF\]	.	2G\ 2e-	.	2r	.	2r	.	8e-X/L	2r	.	2r	.	2FF/ 2C	.	2G\	.	8e-/L	2e-\	.	8e-X/L	.	8cc\L 8ee-	.	8ee-/L	8ee-\L	.	2r	.
4F\	.	.	.	8d\J	.	8g/J	.	8dd\J	.	.	.	.	8d\	es	.	.	.	.	.	.	.	.	.	.	.	.	.	.	.	.	.	.	.	.	.	.	.	8d/J	.	.	.	.	.	.	.	.	8d/J	.	.	8d/J	.	8g\J 8dd	.	8dd/J	8dd\J	.	.	.
.	.	.	.	4c\	.	4g/	.	4cc\	.	8C/]	8C/]	.	4c\	sein!	.	.	.	.	.	.	.	.	.	.	.	.	.	.	.	.	.	.	.	.	.	.	.	4c/	.	.	.	.	.	.	.	.	4c/	.	.	4c/	.	4g/ 4cc	.	4cc/	4cc\	.	.	.
8F\	.	.	.	.	.	.	.	.	.	8r	8r	.	.	.	.	.	.	.	.	.	.	.	.	.	.	.	.	.	.	.	.	.	.	.	.	.	.	.	.	.	.	.	.	.	.	.	.	.	.	.	.	.	.	.	.	.	.	.
*	*	*	*	*	*	*	*	*	*	*	*	*	*	*	*	*	*	*	*	*	*	*	*	*	*	*	*	*	*	*	*	*	*	*	*	*	*	*	*	*	*	*	*	*	*	*	*v	*v	*	*	*	*	*	*v	*v	*	*	*
=10	=10	=10	=10	=10	=10	=10	=10	=10	=10	=10	=10	=10	=10	=10	=10	=10	=10	=10	=10	=10	=10	=10	=10	=10	=10	=10	=10	=10	=10	=10	=10	=10	=10	=10	=10	=10	=10	=10	=10	=10	=10	=10	=10	=10	=10	=10	=10	=10	=10	=10	=10	=10	=10	=10	=10	=10
*	*	*	*	*	*	*	*	*	*	*	*	*	*	*	*	*	*	*	*	*	*	*	*	*	*	*	*	*	*	*	*	*^	*	*	*	*	*	*	*	*	*^	*	*	*	*	*	*	*	*	*	*	*	*	*	*	*
!	!	!	!LO:HP:t=cresc&colon;	!	!	!	!	!	!	!	!	!	!	!	!	!	!	!	!	!	!	!	!	!	!	!	!	!	!	!	!	!	!	!	!	!	!	!	!	!	!	!	!	!	!	!	!	!	!	!	!	!	!	!	!	!	!	!
4F\	.	4F\	<	2c\	.	[2e-/	.	2cc\	.	2c\	2c\	so	2r	.	4r	.	4r	.	4r	.	2r	.	2ryy	.	2r	.	2r	.	2C/]	4FF\	.	2r	[2E-\	.	2r	.	2r	.	[2e-X/	2r	.	2rff	2c\	f	4FF/ 4F	<	4F\	<	2c/ 2e-	.	2c/	.	(>[2g/ 2cc	.	2r	.	2r	.
4G\	.	4G\	.	.	.	.	.	.	.	.	.	.	.	.	[4e-/	Nein,	[4e-/	Nein,	[4g/	Nein,	.	.	.	.	.	.	.	.	.	4GG\	.	.	.	.	.	.	.	.	.	.	.	.	.	.	4GG/ 4G	[[	4G\	.	.	.	.	.	.	.	.	.	.	.
=11	=11	=11	=11	=11	=11	=11	=11	=11	=11	=11	=11	=11	=11	=11	=11	=11	=11	=11	=11	=11	=11	=11	=11	=11	=11	=11	=11	=11	=11	=11	=11	=11	=11	=11	=11	=11	=11	=11	=11	=11	=11	=11	=11	=11	=11	=11	=11	=11	=11	=11	=11	=11	=11	=11	=11	=11	=11	=11
*	*	*	*	*	*	*	*	*	*	*	*	*	*	*	*	*	*	*	*	*	*	*	*	*	*	*	*	*	*	*	*	*	*	*	*	*	*	*	*	*	*	*	*	*	*	*	*	*	*	*	*	*	*^	*	*	*	*	*
8E-\L	.	8E-\L	.	4G/	.	2e-/]	.	4g/	.	4G\	4G\	muß	2r	.	4e-/]	.	4e-/]	.	4g/]	.	2r	.	2ryy	.	2r	.	2r	.	4r	8EE-\L	.	4G/	4E-\]	.	2r	.	2r	.	4e-X/]	4r	.	4rdd	2c\	.	8EE-/L 8E-	.	8E-\L	.	2c/ 2e-	.	4G/	.	4g/])	4g\	.	2r	.	2r	.
8D\J	.	8D\J	.	.	.	.	.	.	.	.	.	.	.	.	.	.	.	.	.	.	.	.	.	.	.	.	.	.	.	8DD\J	.	.	.	.	.	.	.	.	.	.	.	.	.	.	8DD/J 8D	.	8D\J	.	.	.	.	.	.	.	.	.	.	.	.
4C/	.	4C/	.	4A/	.	.	.	4a/	.	4A\	4A\	es	.	.	4e-/	o	4e-/	o	4f/	o	.	.	.	.	.	.	.	.	4FF/	4CC\	.	4A/	4F\	.	.	.	.	.	4e-/	4A\	.	4f/	.	.	4CC/ 4C	.	4C\	.	.	.	4A/	.	4a/	4f\	.	.	.	.	.
*	*	*	*	*	*	*	*	*	*	*	*	*	*	*	*	*	*	*	*	*	*	*	*	*	*	*	*	*	*	*	*	*v	*v	*	*	*	*	*	*	*	*	*	*	*	*	*	*	*	*	*	*	*	*v	*v	*	*	*	*	*
!!LO:PB:g=original
=12	=12	=12	=12	=12	=12	=12	=12	=12	=12	=12	=12	=12	=12	=12	=12	=12	=12	=12	=12	=12	=12	=12	=12	=12	=12	=12	=12	=12	=12	=12	=12	=12	=12	=12	=12	=12	=12	=12	=12	=12	=12	=12	=12	=12	=12	=12	=12	=12	=12	=12	=12	=12	=12	=12	=12	=12	=12
!!LO:TX:a:i:B:t=73
!LO:TX:b:i:B:t=73	!	!	!	!	!LO:DY:rj	!	!	!LO:TX:a:B:t=73	!	!	!	!	!	!	!	!	!	!	!	!	!	!	!	!	!	!	!LO:TX:b:t=P:problem:N:vis=2BB- (in clef F4)	!	!	!	!	!	!	!	!	!	!	!	!	!	!	!	!	!	!	!	!	!	!	!	!	!	!	!	!	!	!
!LO:TX:b:i:t=Più mosso.	!LO:DY:rj	!	!LO:DY:rj	!	!	!	!LO:DY:rj	!LO:TX:a:t=Più mosso.	!LO:DY:rj	!	!	!	!	!	!	!	!	!	!	!	!	!	!	!	!	!	!LO:TX:b:i:t=73	!	!	!	!	!	!	!	!	!	!	!	!	!	!	!	!LO:DY:a:rj	!	!	!	!	!	!	!	!	!	!	!	!	!LO:TX:a:t=Più mosso.	!
[2BB-/	ff	[2BB-/	ff	4B-/	ff	4d/	ff	4b-\	ff	4B-\	4B-\	.	4r	.	2ryy	.	4d/	.	4b-\	nein!	2r	.	2ryy	.	2r	.	2Rg-XTT</	.	[4FF/	[2BBB-\	.	[4D/ [4B-	.	2ryy	.	2ryy	.	4d/	4B-\	.	4f/	4F\	ff	[2BBB-/ [2BB-	.	[2BB-/	.	[4B-/ [4d	.	[4B-/	.	[4f/ [4b-	.	2r	.	2r	.
!	!	!	!	!	!	!	!	!	!	!	!	!	!LO:TX:a:t=(Gemeinsamer Tanz.)	!	!	!	!	!	!	!	!	!	!	!	!	!	!	!	!	!	!	!	!	!	!	!	!	!	!	!	!	!	!	!	!	!	!	!	!	!	!	!	!	!	!	!	!
.	.	.	.	(8d'\L	.	(8d'/L	.	(8d'/L	.	4r	4r	.	4f\	Juch-	.	.	4r	.	4r	.	.	.	.	.	.	.	.	.	8FF/]	.	.	8D/] 8B-]	.	.	.	.	.	4r	4ryy	.	8d/L	4r	.	.	.	.	.	8B-/] 8d]	.	8B-/]	.	8f/] 8b-]	.	.	.	.	.
.	.	.	.	8f'\J)	.	8f'/J)	.	8f'/J)	.	.	.	.	.	.	.	.	.	.	.	.	.	.	.	.	.	.	.	.	8r	.	.	8r	.	.	.	.	.	.	.	.	8f/J	.	.	.	.	.	.	8r	.	8r	.	8r	.	.	.	.	.
*	*	*	*	*	*	*	*	*	*	*	*	*	*	*	*	*	*	*	*	*	*	*	*	*	*	*	*	*	*	*	*	*	*	*	*	*	*	*v	*v	*	*	*	*	*	*	*	*	*	*	*	*	*	*	*	*	*	*
=13	=13	=13	=13	=13	=13	=13	=13	=13	=13	=13	=13	=13	=13	=13	=13	=13	=13	=13	=13	=13	=13	=13	=13	=13	=13	=13	=13	=13	=13	=13	=13	=13	=13	=13	=13	=13	=13	=13	=13	=13	=13	=13	=13	=13	=13	=13	=13	=13	=13	=13	=13	=13	=13	=13	=13	=13
2BB-/]	.	2BB-/]	.	(16en\LL	.	(16en/LL	.	(16en/LL	.	2r	2r	.	[4en\	-hei!	2ryy	.	2r	.	2r	.	2r	.	2ryy	.	2r	.	2Rg-XTTT/	.	2r	4BBB-\]	.	2r	.	2ryy	.	2ryy	.	2r	.	8enX/L	2r	.	2BBB-/] 2BB-]	.	2BB-/]	.	2r	.	2r	.	2r	.	2r	.	2r	.
.	.	.	.	16d\J	.	16d/J	.	16d/J	.	.	.	.	.	.	.	.	.	.	.	.	.	.	.	.	.	.	.	.	.	.	.	.	.	.	.	.	.	.	.	.	.	.	.	.	.	.	.	.	.	.	.	.	.	.	.	.
.	.	.	.	8c\J)	.	8c/J)	.	8c/J)	.	.	.	.	.	.	.	.	.	.	.	.	.	.	.	.	.	.	.	.	.	.	.	.	.	.	.	.	.	.	.	8c/J	.	.	.	.	.	.	.	.	.	.	.	.	.	.	.	.
.	.	.	.	(8e'\L	.	(8e'/L	.	(8e'/L	.	.	.	.	8e\]	.	.	.	.	.	.	.	.	.	.	.	.	.	.	.	.	4r	.	.	.	.	.	.	.	.	.	8e/L	.	.	.	.	.	.	.	.	.	.	.	.	.	.	.	.
.	.	.	.	8g'\J)	.	8g'/J)	.	8g'/J)	.	.	.	.	8r	.	.	.	.	.	.	.	.	.	.	.	.	.	.	.	.	.	.	.	.	.	.	.	.	.	.	8g/J	.	.	.	.	.	.	.	.	.	.	.	.	.	.	.	.
*	*	*	*	*	*	*	*	*	*	*	*	*	*	*	*	*	*	*	*	*	*	*	*	*	*	*	*	*	*v	*v	*	*	*	*	*	*	*	*	*	*	*	*	*	*	*	*	*	*	*	*	*	*	*	*	*	*
=14	=14	=14	=14	=14	=14	=14	=14	=14	=14	=14	=14	=14	=14	=14	=14	=14	=14	=14	=14	=14	=14	=14	=14	=14	=14	=14	=14	=14	=14	=14	=14	=14	=14	=14	=14	=14	=14	=14	=14	=14	=14	=14	=14	=14	=14	=14	=14	=14	=14	=14	=14	=14	=14	=14	=14
16BB-^/LL	.	16BB-^/LL	.	4f\	.	4f/	.	4f/	.	2r	2r	.	4r	.	2ryy	.	2r	.	2r	.	2r	.	2ryy	.	2r	.	2Rg-XTTT/	.	2r	.	2r	.	2ryy	.	2ryy	.	2r	.	4f/	2r	.	2r	.	2r	.	2r	.	2r	.	2r	.	2r	.	2r	.
16AA^/JJ	.	16AA^/JJ	.	.	.	.	.	.	.	.	.	.	.	.	.	.	.	.	.	.	.	.	.	.	.	.	.	.	.	.	.	.	.	.	.	.	.	.	.	.	.	.	.	.	.	.	.	.	.	.	.	.	.	.	.
[4.BB-/	.	[4.BB-/	.	.	.	.	.	.	.	.	.	.	.	.	.	.	.	.	.	.	.	.	.	.	.	.	.	.	.	.	.	.	.	.	.	.	.	.	.	.	.	.	.	.	.	.	.	.	.	.	.	.	.	.	.
.	.	.	.	(8d'\L	.	(8d'/L	.	(8d'/L	.	.	.	.	4f\	Juch-	.	.	.	.	.	.	.	.	.	.	.	.	.	.	.	.	.	.	.	.	.	.	.	.	8d/L	.	.	.	.	.	.	.	.	.	.	.	.	.	.	.	.
.	.	.	.	8f'\J)	.	8f'/J)	.	8f'/J)	.	.	.	.	.	.	.	.	.	.	.	.	.	.	.	.	.	.	.	.	.	.	.	.	.	.	.	.	.	.	8f/J	.	.	.	.	.	.	.	.	.	.	.	.	.	.	.	.
=15	=15	=15	=15	=15	=15	=15	=15	=15	=15	=15	=15	=15	=15	=15	=15	=15	=15	=15	=15	=15	=15	=15	=15	=15	=15	=15	=15	=15	=15	=15	=15	=15	=15	=15	=15	=15	=15	=15	=15	=15	=15	=15	=15	=15	=15	=15	=15	=15	=15	=15	=15	=15	=15	=15	=15
2BB-/]	.	2BB-/]	.	(16en\LL	.	(16en/LL	.	(>16en/LL	.	2r	2r	.	[4en\	-hei!	2ryy	.	2r	.	2r	.	2r	.	2ryy	.	2r	.	2Rg-XTTT/	.	2r	.	2r	.	2ryy	.	2ryy	.	2r	.	8enX/	2r	.	2r	.	2r	.	2r	.	2r	.	2r	.	2r	.	2r	.
.	.	.	.	16d\J	.	16d/J	.	16d/J	.	.	.	.	.	.	.	.	.	.	.	.	.	.	.	.	.	.	.	.	.	.	.	.	.	.	.	.	.	.	.	.	.	.	.	.	.	.	.	.	.	.	.	.	.	.	.
.	.	.	.	[8c\J	.	[8c/J	.	[8c/J	.	.	.	.	.	.	.	.	.	.	.	.	.	.	.	.	.	.	.	.	.	.	.	.	.	.	.	.	.	.	4.c/	.	.	.	.	.	.	.	.	.	.	.	.	.	.	.	.
.	.	.	.	4c\])	.	4c/])	.	4c/])	.	.	.	.	8e\]	.	.	.	.	.	.	.	.	.	.	.	.	.	.	.	.	.	.	.	.	.	.	.	.	.	.	.	.	.	.	.	.	.	.	.	.	.	.	.	.	.	.
.	.	.	.	.	.	.	.	.	.	.	.	.	8r	.	.	.	.	.	.	.	.	.	.	.	.	.	.	.	.	.	.	.	.	.	.	.	.	.	.	.	.	.	.	.	.	.	.	.	.	.	.	.	.	.	.
=16	=16	=16	=16	=16	=16	=16	=16	=16	=16	=16	=16	=16	=16	=16	=16	=16	=16	=16	=16	=16	=16	=16	=16	=16	=16	=16	=16	=16	=16	=16	=16	=16	=16	=16	=16	=16	=16	=16	=16	=16	=16	=16	=16	=16	=16	=16	=16	=16	=16	=16	=16	=16	=16	=16	=16
16BB-^/LL	.	16BB-^/LL	.	4f\	.	4f/	.	4f/	.	2r	2r	.	4r	.	2ryy	.	2r	.	2r	.	2r	.	2ryy	.	2r	.	2Rg-XTTT/	.	2r	.	2r	.	2ryy	.	2ryy	.	2r	.	4f/	2r	.	2r	.	2r	.	2r	.	2r	.	2r	.	2r	.	2r	.
16AA^/JJ	.	16AA^/JJ	.	.	.	.	.	.	.	.	.	.	.	.	.	.	.	.	.	.	.	.	.	.	.	.	.	.	.	.	.	.	.	.	.	.	.	.	.	.	.	.	.	.	.	.	.	.	.	.	.	.	.	.	.
[4.BB-/	.	[4.BB-/	.	.	.	.	.	.	.	.	.	.	.	.	.	.	.	.	.	.	.	.	.	.	.	.	.	.	.	.	.	.	.	.	.	.	.	.	.	.	.	.	.	.	.	.	.	.	.	.	.	.	.	.	.
.	.	.	.	(8d'\L	.	(8d'/L	.	(8d'/L	.	.	.	.	4f\	Juch-	.	.	.	.	.	.	.	.	.	.	.	.	.	.	.	.	.	.	.	.	.	.	.	.	8d/L	.	.	.	.	.	.	.	.	.	.	.	.	.	.	.	.
.	.	.	.	8f'\J)	.	8f'/J)	.	8f'/J)	.	.	.	.	.	.	.	.	.	.	.	.	.	.	.	.	.	.	.	.	.	.	.	.	.	.	.	.	.	.	8f/J	.	.	.	.	.	.	.	.	.	.	.	.	.	.	.	.
=17	=17	=17	=17	=17	=17	=17	=17	=17	=17	=17	=17	=17	=17	=17	=17	=17	=17	=17	=17	=17	=17	=17	=17	=17	=17	=17	=17	=17	=17	=17	=17	=17	=17	=17	=17	=17	=17	=17	=17	=17	=17	=17	=17	=17	=17	=17	=17	=17	=17	=17	=17	=17	=17	=17	=17
!LO:N:vis=2BB-/]	!	!	!	!	!	!	!	!	!	!	!	!	!	!	!	!	!	!	!	!	!	!	!	!	!	!	!	!	!	!	!	!	!	!	!	!	!	!	!	!	!	!	!	!	!	!	!	!	!	!	!	!	!	!	!
4BB-/]	.	2BB-/]	.	(16en\LL	.	(16en/LL	.	(16en/LL	.	2r	2r	.	4en\	-hei!	2ryy	.	2r	.	2r	.	2r	.	2ryy	.	2r	.	2Rg-XTTT/	.	2r	.	2r	.	2ryy	.	2ryy	.	2r	.	8e/L	2r	.	2r	.	2r	.	2r	.	2r	.	2r	.	2r	.	2r	.
.	.	.	.	16d\J	.	16d/J	.	16d/J	.	.	.	.	.	.	.	.	.	.	.	.	.	.	.	.	.	.	.	.	.	.	.	.	.	.	.	.	.	.	.	.	.	.	.	.	.	.	.	.	.	.	.	.	.	.	.
.	.	.	.	8c\J)	.	8c/J)	.	8c/J)	.	.	.	.	.	.	.	.	.	.	.	.	.	.	.	.	.	.	.	.	.	.	.	.	.	.	.	.	.	.	8c/J	.	.	.	.	.	.	.	.	.	.	.	.	.	.	.	.
!LO:N:vis=2r	!	!	!	!	!	!	!	!	!	!	!	!	!	!	!	!	!	!	!	!	!	!	!	!	!	!	!	!	!	!	!	!	!	!	!	!	!	!	!	!	!	!	!	!	!	!	!	!	!	!	!	!	!	!	!
4r	.	.	.	(8e'\L	.	(8e'/L	.	(8e'/L	.	.	.	.	4c\	Juch-	.	.	.	.	.	.	.	.	.	.	.	.	.	.	.	.	.	.	.	.	.	.	.	.	8e/L	.	.	.	.	.	.	.	.	.	.	.	.	.	.	.	.
.	.	.	.	8g'\J)	.	8g'/J)	.	8g'/J)	.	.	.	.	.	.	.	.	.	.	.	.	.	.	.	.	.	.	.	.	.	.	.	.	.	.	.	.	.	.	8g/J	.	.	.	.	.	.	.	.	.	.	.	.	.	.	.	.
=18	=18	=18	=18	=18	=18	=18	=18	=18	=18	=18	=18	=18	=18	=18	=18	=18	=18	=18	=18	=18	=18	=18	=18	=18	=18	=18	=18	=18	=18	=18	=18	=18	=18	=18	=18	=18	=18	=18	=18	=18	=18	=18	=18	=18	=18	=18	=18	=18	=18	=18	=18	=18	=18	=18	=18
16BB-^/LL	.	16BB-^/LL	.	4e-X\	.	4e-X/	.	4e-X/	.	2r	2r	.	4e-X\	-hei!	2ryy	.	2r	.	2r	.	2r	.	2ryy	.	2r	.	2Rg-XTTT/	.	2r	.	2r	.	2ryy	.	2ryy	.	2r	.	4e-X/	2r	.	2r	.	2r	.	2r	.	2r	.	2r	.	2r	.	2r	.
16AA^/JJ	.	16AA^/JJ	.	.	.	.	.	.	.	.	.	.	.	.	.	.	.	.	.	.	.	.	.	.	.	.	.	.	.	.	.	.	.	.	.	.	.	.	.	.	.	.	.	.	.	.	.	.	.	.	.	.	.	.	.
[4.BB-/	.	[4.BB-/	.	.	.	.	.	.	.	.	.	.	.	.	.	.	.	.	.	.	.	.	.	.	.	.	.	.	.	.	.	.	.	.	.	.	.	.	.	.	.	.	.	.	.	.	.	.	.	.	.	.	.	.	.
.	.	.	.	(8c'\L	.	(>8c'/L	.	(>8c'/L	.	.	.	.	4e-\	Juch-	.	.	.	.	.	.	.	.	.	.	.	.	.	.	.	.	.	.	.	.	.	.	.	.	8e-/L	.	.	.	.	.	.	.	.	.	.	.	.	.	.	.	.
.	.	.	.	8e-'\J)	.	8e-'/J)	.	8e-'/J)	.	.	.	.	.	.	.	.	.	.	.	.	.	.	.	.	.	.	.	.	.	.	.	.	.	.	.	.	.	.	8c/J	.	.	.	.	.	.	.	.	.	.	.	.	.	.	.	.
=19	=19	=19	=19	=19	=19	=19	=19	=19	=19	=19	=19	=19	=19	=19	=19	=19	=19	=19	=19	=19	=19	=19	=19	=19	=19	=19	=19	=19	=19	=19	=19	=19	=19	=19	=19	=19	=19	=19	=19	=19	=19	=19	=19	=19	=19	=19	=19	=19	=19	=19	=19	=19	=19	=19	=19
*	*	*	*	*	*	*	*	*	*	*	*	*	*	*	*	*	*	*	*	*	*	*	*	*	*	*	*	*	*	*	*	*	*	*	*	*	*	*	*	*	*	*	*	*	*	*	*	*	*	*^	*	*	*	*	*
!	!	!	!	!	!	!	!	!	!	!	!	!	!	!	!	!	!	!	!	!	!	!	!	!	!	!	!	!	!	!	!	!	!	!	!	!	!	!	!	!	!	!	!	!	!	!	!	!	!	!LO:TX:a:t=Ob.1.	!	!	!LO:TX:a:t=Fl.:rj	!	!	!
2BB-/]	.	2BB-/]	.	(16d\LL	.	(>16d/LL	.	(>16d/LL	.	2r	2r	.	[4d\	-hei!	2ryy	.	2r	.	2r	.	2r	.	2ryy	.	2r	.	4RgTTT/	.	2r	.	2r	.	2ryy	.	2ryy	.	2r	.	8d/	2r	.	2r	.	2r	.	2r	.	2r	.	4r	2rB	.	4r	.	2r	.
.	.	.	.	16c\J	.	16c/J	.	16c/J	.	.	.	.	.	.	.	.	.	.	.	.	.	.	.	.	.	.	.	.	.	.	.	.	.	.	.	.	.	.	.	.	.	.	.	.	.	.	.	.	.	.	.	.	.	.	.	.
.	.	.	.	[8B-\J	.	[8B-/J	.	[8B-/J	.	.	.	.	.	.	.	.	.	.	.	.	.	.	.	.	.	.	.	.	.	.	.	.	.	.	.	.	.	.	4.B-/	.	.	.	.	.	.	.	.	.	.	.	.	.	.	.	.	.
!	!	!	!	!	!	!	!	!	!	!	!	!	!	!	!	!	!	!	!	!	!	!	!	!	!	!	!	!	!	!	!	!	!	!	!	!	!	!	!	!	!	!	!	!	!	!	!	!	!	!	!	!	!LO:TX:a:t=à2:rj	!	!	!
!	!	!	!	!	!	!	!	!	!	!	!	!	!	!	!	!	!	!	!	!	!	!	!	!	!	!	!	!	!	!	!	!	!	!	!	!	!	!	!	!	!	!	!	!	!	!	!	!	!	!	!	!	!LO:TUP:a	!	!	!
.	.	.	.	4B-/])	.	4B-/])	.	4B-/])	.	.	.	.	8d\]	.	.	.	.	.	.	.	.	.	.	.	.	.	8Rg/	.	.	.	.	.	.	.	.	.	.	.	.	.	.	.	.	.	.	.	.	.	.	(28f/LL	.	<	(28ff\LL	<	.	.
.	.	.	.	.	.	.	.	.	.	.	.	.	.	.	.	.	.	.	.	.	.	.	.	.	.	.	.	.	.	.	.	.	.	.	.	.	.	.	.	.	.	.	.	.	.	.	.	.	.	28g/	.	.	28gg\	.	.	.
.	.	.	.	.	.	.	.	.	.	.	.	.	.	.	.	.	.	.	.	.	.	.	.	.	.	.	.	.	.	.	.	.	.	.	.	.	.	.	.	.	.	.	.	.	.	.	.	.	.	28a/	.	.	28aa\	.	.	.
.	.	.	.	.	.	.	.	.	.	.	.	.	.	.	.	.	.	.	.	.	.	.	.	.	.	.	.	.	.	.	.	.	.	.	.	.	.	.	.	.	.	.	.	.	.	.	.	.	.	28b-/	.	.	28bb-\	.	.	.
.	.	.	.	.	.	.	.	.	.	.	.	.	8r	.	.	.	.	.	.	.	.	.	.	.	.	.	8r	.	.	.	.	.	.	.	.	.	.	.	.	.	.	.	.	.	.	.	.	.	.	.	.	.	.	.	.	.
.	.	.	.	.	.	.	.	.	.	.	.	.	.	.	.	.	.	.	.	.	.	.	.	.	.	.	.	.	.	.	.	.	.	.	.	.	.	.	.	.	.	.	.	.	.	.	.	.	.	28cc/	.	.	28ccc\	.	.	.
.	.	.	.	.	.	.	.	.	.	.	.	.	.	.	.	.	.	.	.	.	.	.	.	.	.	.	.	.	.	.	.	.	.	.	.	.	.	.	.	.	.	.	.	.	.	.	.	.	.	28dd/	.	.	28ddd\	.	.	.
.	.	.	.	.	.	.	.	.	.	.	.	.	.	.	.	.	.	.	.	.	.	.	.	.	.	.	.	.	.	.	.	.	.	.	.	.	.	.	.	.	.	.	.	.	.	.	.	.	.	28ee-/JJ	.	.	28eee-\JJ	[[	.	.
*	*	*	*	*	*	*	*	*	*	*	*	*	*	*	*	*	*	*	*	*	*	*	*	*	*	*	*	*	*	*	*	*	*	*	*	*	*	*	*v	*v	*	*	*	*	*	*	*	*	*	*	*	*	*	*	*	*
=20	=20	=20	=20	=20	=20	=20	=20	=20	=20	=20	=20	=20	=20	=20	=20	=20	=20	=20	=20	=20	=20	=20	=20	=20	=20	=20	=20	=20	=20	=20	=20	=20	=20	=20	=20	=20	=20	=20	=20	=20	=20	=20	=20	=20	=20	=20	=20	=20	=20	=20	=20	=20	=20	=20	=20
.	.	.	.	(16qqF/LL	.	.	.	.	.	.	.	.	.	.	.	.	.	.	.	.	.	.	.	.	.	.	.	.	.	.	.	.	.	.	.	.	.	.	.	.	.	.	.	.	.	.	.	.	.	.	.	.	.	.	.
!	!	!LO:TX:a:t=pizz&colon;	!	!	!	!	!	!	!	!	!	!	!LO:TX:a:t=(Die Tanzenden umringen \n Ulana.)	!	!	!	!	!	!	!	!	!	!	!	!	!	!LO:TX:a:i:t=muta in C.F.H	!	!	!	!	!	!	!	!	!	!	!	!	!	!	!	!	!	!	!	!	!	!	!	!	!	!	!	!
.	.	.	.	16qqG/JJ	.	.	.	.	.	.	.	.	.	.	.	.	.	.	.	.	.	.	.	.	.	.	.	.	.	.	.	.	.	.	.	.	.	.	.	.	.	.	.	.	.	.	.	.	.	.	.	.	.	.	.
*	*	*	*	*	*	*	*	*	*	*	*	*	*	*	*	*	*	*	*	*	*	*	*	*	*	*	*	*	*	*	*	*	*	*	*	*	*	*	*	*	*^	*	*	*	*^	*	*	*	*	*	*	*	*	*	*
!	!	!	!	!	!	!LO:TUP:b	!	!	!	!	!	!	!	!	!	!	!	!	!	!	!	!	!	!	!	!	!	!	!	!	!	!	!	!	!	!	!	!	!	!	!LO:TX:a:i:t=Fag:rj	!	!	!LO:TX:a:i:t=Clar.b.:rj	!	!LO:TX:a:i:t=Clar:rj	!	!	!LO:TX:a:i:t=Cor.ingl.	!	!	!	!	!	!	!	!
(16BB-/LL	.	4r	.	4F/)	.	(12f/L	mf	4ff\	mf	2r	4r	.	2r	.	2ryy	.	2r	.	2r	.	2r	.	2ryy	.	2r	.	2r	.	2r	.	2r	.	2ryy	.	2ryy	.	((2F/ 2d	mf	(>[2B-/ 2f	mf	4F/	(16BB-\LL	p	(16BB-/LL	p	12f/L	2d\	.	(2f\	.	(4ff\)	2rB	[ mf	(4fff\)	mf	2r	.
16AA/JJ	.	.	.	.	.	.	.	.	.	.	.	.	.	.	.	.	.	.	.	.	.	.	.	.	.	.	.	.	.	.	.	.	.	.	.	.	.	.	.	.	.	16AA\J	.	16AA/J	.	.	.	.	.	.	.	.	.	.	.	.	.
.	.	.	.	.	.	12g/	.	.	.	.	.	.	.	.	.	.	.	.	.	.	.	.	.	.	.	.	.	.	.	.	.	.	.	.	.	.	.	.	.	.	.	.	.	.	.	12g/	.	.	.	.	.	.	.	.	.	.	.
[4.BB-/	.	.	.	.	.	.	.	.	.	.	.	.	.	.	.	.	.	.	.	.	.	.	.	.	.	.	.	.	.	.	.	.	.	.	.	.	.	.	.	.	.	8BB-\J)	.	8BB-/J)	.	.	.	.	.	.	.	.	.	.	.	.	.
.	.	.	.	.	.	12b-/J	.	.	.	.	.	.	.	.	.	.	.	.	.	.	.	.	.	.	.	.	.	.	.	.	.	.	.	.	.	.	.	.	.	.	.	.	.	.	.	12b-/J	.	.	.	.	.	.	.	.	.	.	.
.	.	8BB-\ 8F 8d	.	(16d/LL	.	4f/)	.	8dd\L	.	.	8F\	Hö-	.	.	.	.	.	.	.	.	.	.	.	.	.	.	.	.	.	.	.	.	.	.	.	.	.	.	.	.	8F/L	8BB-'\L	.	8BB-'/L	.	4f/	.	.	.	.	8dd/L)	.	.	8ddd\L)	.	.	.
.	.	.	.	16F/	.	.	.	.	.	.	.	.	.	.	.	.	.	.	.	.	.	.	.	.	.	.	.	.	.	.	.	.	.	.	.	.	.	.	.	.	.	.	.	.	.	.	.	.	.	.	.	.	.	.	.	.	.
.	.	8r	.	16d/	.	.	.	8ff\J	.	.	8d\	-re,	.	.	.	.	.	.	.	.	.	.	.	.	.	.	.	.	.	.	.	.	.	.	.	.	.	.	.	.	8F/J	8BB-'\J	.	8BB-'/J	.	.	.	.	.	.	8ff/J	.	.	8fff\J	.	.	.
.	.	.	.	16F/JJ	.	.	.	.	.	.	.	.	.	.	.	.	.	.	.	.	.	.	.	.	.	.	.	.	.	.	.	.	.	.	.	.	.	.	.	.	.	.	.	.	.	.	.	.	.	.	.	.	.	.	.	.	.
=21	=21	=21	=21	=21	=21	=21	=21	=21	=21	=21	=21	=21	=21	=21	=21	=21	=21	=21	=21	=21	=21	=21	=21	=21	=21	=21	=21	=21	=21	=21	=21	=21	=21	=21	=21	=21	=21	=21	=21	=21	=21	=21	=21	=21	=21	=21	=21	=21	=21	=21	=21	=21	=21	=21	=21	=21	=21
2BB-/])	.	8c\	.	8C'>/L) 8c	.	(>4g/	.	(16een\LL	.	2r	[4c\	Du!	2r	.	2ryy	.	2r	.	2r	.	2r	.	2ryy	.	2r	.	2r	.	2r	.	2r	.	2ryy	.	2ryy	.	4G^>/)) 4c	.	4B-^>/]) 4e	.	8G/	2BB-\	.	2BB-/	.	4g/	2c\	.	2e\	.	(16een/LL	2rd	.	(16eeen\LL	.	2r	.
.	.	.	.	.	.	.	.	16dd\J	.	.	.	.	.	.	.	.	.	.	.	.	.	.	.	.	.	.	.	.	.	.	.	.	.	.	.	.	.	.	.	.	.	.	.	.	.	.	.	.	.	.	16dd/J	.	.	16ddd\J	.	.	.
.	.	8r	.	8C'>/J 8en	.	.	.	8cc\J)	.	.	.	.	.	.	.	.	.	.	.	.	.	.	.	.	.	.	.	.	.	.	.	.	.	.	.	.	.	.	.	.	8r	.	.	.	.	.	.	.	.	.	8cc/J)	.	.	8ccc\J)	.	.	.
!	!	!	!	!	!	!LO:TUP:b	!	!	!	!	!	!	!	!	!	!	!	!	!	!	!	!	!	!	!	!	!	!	!	!	!	!	!	!	!	!	!	!	!	!	!	!	!	!	!	!	!	!	!	!	!	!	!	!	!	!	!
.	.	4r	.	8C'>/L 8g	.	12g/L	.	(8ee'\L	.	.	8c\]	.	.	.	.	.	.	.	.	.	.	.	.	.	.	.	.	.	.	.	.	.	.	.	.	.	8G/L 8c	.	8B-/L 8e	.	4r	.	.	.	.	12g/L	.	.	.	.	8ee/L	.	.	8eee\L	.	.	.
.	.	.	.	.	.	12a/	.	.	.	.	.	.	.	.	.	.	.	.	.	.	.	.	.	.	.	.	.	.	.	.	.	.	.	.	.	.	.	.	.	.	.	.	.	.	.	12a/	.	.	.	.	.	.	.	.	.	.	.
.	.	.	.	8C'>/J 8e	.	.	.	8gg'\J)	.	.	8r	.	.	.	.	.	.	.	.	.	.	.	.	.	.	.	.	.	.	.	.	.	.	.	.	.	8G/J 8c	.	8B-/J 8e	.	.	.	.	.	.	.	.	.	.	.	8gg/J	.	.	8ggg\J	.	.	.
.	.	.	.	.	.	12g/J)	.	.	.	.	.	.	.	.	.	.	.	.	.	.	.	.	.	.	.	.	.	.	.	.	.	.	.	.	.	.	.	.	.	.	.	.	.	.	.	12g/J	.	.	.	.	.	.	.	.	.	.	.
!!LO:PB:g=original  
=22	=22	=22	=22	=22	=22	=22	=22	=22	=22	=22	=22	=22	=22	=22	=22	=22	=22	=22	=22	=22	=22	=22	=22	=22	=22	=22	=22	=22	=22	=22	=22	=22	=22	=22	=22	=22	=22	=22	=22	=22	=22	=22	=22	=22	=22	=22	=22	=22	=22	=22	=22	=22	=22	=22	=22	=22	=22
.	.	.	.	(16qqd/LL	.	.	.	.	.	.	.	.	.	.	.	.	.	.	.	.	.	.	.	.	.	.	.	.	.	.	.	.	.	.	.	.	.	.	.	.	.	.	.	.	.	.	.	.	.	.	.	.	.	.	.	.	.
!	!	!LO:TX:a:t=arco	!	!	!	!	!	!	!	!	!	!	!	!	!	!	!	!	!	!	!	!	!	!	!	!	!	!	!	!	!	!	!	!	!	!	!	!	!	!	!	!	!	!	!	!	!	!	!	!	!	!	!	!	!	!	!
!	!	!LO:TX:a:t=div.	!	!	!	!	!	!	!	!	!LO:TX:a:t=Bass I	!	!	!	!	!	!	!	!	!	!	!	!	!	!	!	!	!	!	!	!	!	!	!	!	!	!	!	!	!	!	!	!	!	!	!	!	!	!	!	!	!	!	!	!	!	!
.	.	.	.	16qqe-X/JJ	.	.	.	.	.	.	.	.	.	.	.	.	.	.	.	.	.	.	.	.	.	.	.	.	.	.	.	.	.	.	.	.	.	.	.	.	.	.	.	.	.	.	.	.	.	.	.	.	.	.	.	.	.
*	*	*^	*	*	*	*	*	*	*	*	*^	*	*	*	*	*	*	*	*	*	*	*	*	*	*	*	*	*	*	*	*	*	*	*	*	*	*	*	*	*	*	*	*	*	*	*	*	*	*	*	*	*	*	*	*	*	*
!	!	!	!	!	!	!	!	!	!	!	!	!	!	!	!	!	!	!	!	!	!	!	!	!	!	!	!	!	!	!	!	!	!	!	!	!	!	!	!	!LO:DY:a:rj	!	!	!	!	!	!	!	!	!	!	!	!	!	!	!	!	!	!	!
(16BB-/LL	.	2f/	4r	.	4d\)	.	[2b-\	.	4ff\	.	2r	4r	2r	.	2r	.	2ryy	.	2r	.	2r	.	2r	.	2ryy	.	2r	.	2ryy	.	2r	.	2r	.	2ryy	.	2r	.	((2F/ 2d	sf	(>[2B-/ 2f	.	4F/	(>16BB-\LL	.	(16BB-/LL	.	2f/	2d\	.	2f\)	.	(4ff/	2r	.	(4fff\	.	2r	.
16AA/JJ	.	.	.	.	.	.	.	.	.	.	.	.	.	.	.	.	.	.	.	.	.	.	.	.	.	.	.	.	.	.	.	.	.	.	.	.	.	.	.	.	.	.	.	16AA\J	.	16AA/J	.	.	.	.	.	.	.	.	.	.	.	.	.
[>4.BB-/	.	.	.	.	.	.	.	.	.	.	.	.	.	.	.	.	.	.	.	.	.	.	.	.	.	.	.	.	.	.	.	.	.	.	.	.	.	.	.	.	.	.	.	8BB-\J)	.	8BB-/J)	.	.	.	.	.	.	.	.	.	.	.	.	.
!	!	!LO:TX:b:i:t=pizz&colon;	!	!	!	!	!	!	!	!	!	!	!	!	!	!	!	!	!	!	!	!	!	!	!	!	!	!	!	!	!	!	!	!	!	!	!	!	!	!	!	!	!	!	!	!	!	!	!	!	!	!	!	!	!	!	!	!	!
.	.	.	8BB-\ 8F 8d	.	(16d/LL	.	.	.	(8dd'\L	.	.	8F/	.	Kom(m)	.	.	.	.	.	.	.	.	.	.	.	.	.	.	.	.	.	.	.	.	.	.	.	.	.	.	.	.	8F'/L	8BB-'\L	.	8BB-'/L	.	.	.	.	.	.	8dd/L)	.	.	8ddd\L)	.	.	.
.	.	.	.	.	16F/	.	.	.	.	.	.	.	.	.	.	.	.	.	.	.	.	.	.	.	.	.	.	.	.	.	.	.	.	.	.	.	.	.	.	.	.	.	.	.	.	.	.	.	.	.	.	.	.	.	.	.	.	.	.
.	.	.	8r	.	16d/	.	.	.	8ff'\J)	.	.	8d/	.	her-	.	.	.	.	.	.	.	.	.	.	.	.	.	.	.	.	.	.	.	.	.	.	.	.	.	.	.	.	8F'/J	8BB-'\J	.	8BB-'/J	.	.	.	.	.	.	8ff/J	.	.	8fff\J	.	.	.
.	.	.	.	.	16F/JJ	.	.	.	.	.	.	.	.	.	.	.	.	.	.	.	.	.	.	.	.	.	.	.	.	.	.	.	.	.	.	.	.	.	.	.	.	.	.	.	.	.	.	.	.	.	.	.	.	.	.	.	.	.	.
=23	=23	=23	=23	=23	=23	=23	=23	=23	=23	=23	=23	=23	=23	=23	=23	=23	=23	=23	=23	=23	=23	=23	=23	=23	=23	=23	=23	=23	=23	=23	=23	=23	=23	=23	=23	=23	=23	=23	=23	=23	=23	=23	=23	=23	=23	=23	=23	=23	=23	=23	=23	=23	=23	=23	=23	=23	=23	=23	=23
.	.	.	.	.	.	.	.	.	.	.	.	.	.	.	.	.	.	.	.	.	.	.	.	.	.	.	.	.	.	.	.	.	.	.	.	.	.	.	.	.	.	.	.	.	.	.	.	(<16qqb-/LL	.	.	(16qqb-/LL	.	.	.	.	.	.	.	.
.	.	.	.	.	.	.	.	.	.	.	.	.	.	.	.	.	.	.	.	.	.	.	.	.	.	.	.	.	.	.	.	.	.	.	.	.	.	.	.	.	.	.	.	.	.	.	.	16qqcc/JJ	.	.	16qqcc/JJ	.	.	.	.	.	.	.	.
2BB-/])	.	4b-/	4r	.	8c\)	.	8b-\]	.	(16een\LL	.	2r	[4c/	2r	-zu!	2r	.	2ryy	.	2r	.	2r	.	2r	.	2ryy	.	2r	.	2ryy	.	2r	.	2r	.	2ryy	.	2r	.	2G/)) 2c	.	2B-/]) 2e	sf	8G/	2BB-\	.	2BB-/	.	(4b-/)	2c\	.	(4b-\)	.	(16een/LL	2r	.	(16eeen\LL	.	2r	.
.	.	.	.	.	.	.	.	.	16dd\J	.	.	.	.	.	.	.	.	.	.	.	.	.	.	.	.	.	.	.	.	.	.	.	.	.	.	.	.	.	.	.	.	.	.	.	.	.	.	.	.	.	.	.	16dd/J	.	.	16ddd\J	.	.	.
.	.	.	.	.	8r	.	8r	.	[8cc\J	.	.	.	.	.	.	.	.	.	.	.	.	.	.	.	.	.	.	.	.	.	.	.	.	.	.	.	.	.	.	.	.	.	8r	.	.	.	.	.	.	.	.	.	[8cc/J)	.	.	[8ccc\J	.	.	.
.	.	.	.	.	(16qqc/LL	.	.	.	.	.	.	.	.	.	.	.	.	.	.	.	.	.	.	.	.	.	.	.	.	.	.	.	.	.	.	.	.	.	.	.	.	.	.	.	.	.	.	.	.	.	.	.	.	.	.	.	.	.	.
.	.	.	.	.	16qqd/JJ	.	.	.	.	.	.	.	.	.	.	.	.	.	.	.	.	.	.	.	.	.	.	.	.	.	.	.	.	.	.	.	.	.	.	.	.	.	.	.	.	.	.	.	.	.	.	.	.	.	.	.	.	.	.
.	.	8a/L	8c\	.	4c\)	.	4en/	.	4cc\])	.	.	8c/]	.	.	.	.	.	.	.	.	.	.	.	.	.	.	.	.	.	.	.	.	.	.	.	.	.	.	.	.	.	.	4r	.	.	.	.	8a/L	.	.	8a\L	.	4cc/]	.	.	4ccc\])	.	.	.
.	.	8g/J	8r	.	.	.	.	.	.	.	.	8r	.	.	.	.	.	.	.	.	.	.	.	.	.	.	.	.	.	.	.	.	.	.	.	.	.	.	.	.	.	.	.	.	.	.	.	8g/J)	.	.	8g\J)	.	.	.	.	.	.	.	.
=24	=24	=24	=24	=24	=24	=24	=24	=24	=24	=24	=24	=24	=24	=24	=24	=24	=24	=24	=24	=24	=24	=24	=24	=24	=24	=24	=24	=24	=24	=24	=24	=24	=24	=24	=24	=24	=24	=24	=24	=24	=24	=24	=24	=24	=24	=24	=24	=24	=24	=24	=24	=24	=24	=24	=24	=24	=24	=24	=24
.	.	.	.	.	(16qqd/LL	.	.	.	.	.	.	.	.	.	.	.	.	.	.	.	.	.	.	.	.	.	.	.	.	.	.	.	.	.	.	.	.	.	.	.	.	.	.	.	.	.	.	.	.	.	.	.	.	.	.	.	.	.	.
.	.	.	.	.	16qqe-/JJ	.	.	.	.	.	.	.	.	.	.	.	.	.	.	.	.	.	.	.	.	.	.	.	.	.	.	.	.	.	.	.	.	.	.	.	.	.	.	.	.	.	.	.	.	.	.	.	.	.	.	.	.	.	.
*	*	*	*	*	*	*	*	*	*	*	*	*	*	*	*^	*	*	*	*	*	*	*	*	*	*	*	*	*	*	*	*	*	*	*	*	*	*	*	*	*	*	*	*	*	*	*	*	*	*	*	*	*	*	*	*	*	*	*	*
(16BB-/LL	.	2f/	4r	.	4d\)	.	(12f/L	.	4ff\	.	2r	4r	4r	.	4r	4ryy	.	2ryy	.	2r	.	2r	.	2r	.	2ryy	.	2r	.	2ryy	.	2r	.	2r	.	2ryy	.	2r	.	((2F/ 2d	.	(>[2B-/ 2f	.	4F/	(>16BB-\LL	.	(16BB-/LL	.	(12f/L	2d\	.	2f\	.	(4ff/	2r	.	(4fff\	.	2r	.
16AA/JJ	.	.	.	.	.	.	.	.	.	.	.	.	.	.	.	.	.	.	.	.	.	.	.	.	.	.	.	.	.	.	.	.	.	.	.	.	.	.	.	.	.	.	.	.	16AA\J	.	16AA/J	.	.	.	.	.	.	.	.	.	.	.	.	.
.	.	.	.	.	.	.	12g/	.	.	.	.	.	.	.	.	.	.	.	.	.	.	.	.	.	.	.	.	.	.	.	.	.	.	.	.	.	.	.	.	.	.	.	.	.	.	.	.	.	12g/	.	.	.	.	.	.	.	.	.	.	.
[>4.BB-/	.	.	.	.	.	.	.	.	.	.	.	.	.	.	.	.	.	.	.	.	.	.	.	.	.	.	.	.	.	.	.	.	.	.	.	.	.	.	.	.	.	.	.	.	8BB-\J)	.	8BB-/J)	.	.	.	.	.	.	.	.	.	.	.	.	.
.	.	.	.	.	.	.	12b-/J	.	.	.	.	.	.	.	.	.	.	.	.	.	.	.	.	.	.	.	.	.	.	.	.	.	.	.	.	.	.	.	.	.	.	.	.	.	.	.	.	.	12b-/J	.	.	.	.	.	.	.	.	.	.	.
!	!	!	!	!	!	!	!	!	!	!	!	!LO:TX:b:t=BassII.	!	!	!	!	!	!	!	!	!	!	!	!	!	!	!	!	!	!	!	!	!	!	!	!	!	!	!	!	!	!	!	!	!	!	!	!	!	!	!	!	!	!	!	!	!	!	!	!
.	.	.	8BB-\ 8F 8d	.	(>16d/LL	.	4f/)	.	(8dd'\L	.	.	4B-/	4B-\	.	4f/	4d\	Tritt	.	.	.	.	.	.	.	.	.	.	.	.	.	.	.	.	.	.	.	.	.	.	.	.	.	.	8F'/L	8BB-'\L	.	8BB-'/L	.	4f/)	.	.	.	.	8dd/L)	.	.	8ddd\L)	.	.	.
.	.	.	.	.	16F/	.	.	.	.	.	.	.	.	.	.	.	.	.	.	.	.	.	.	.	.	.	.	.	.	.	.	.	.	.	.	.	.	.	.	.	.	.	.	.	.	.	.	.	.	.	.	.	.	.	.	.	.	.	.	.
.	.	.	8r	.	16d/	.	.	.	8ff'\J)	.	.	.	.	.	.	.	.	.	.	.	.	.	.	.	.	.	.	.	.	.	.	.	.	.	.	.	.	.	.	.	.	.	.	8F'/J	8BB-'\J	.	8BB-'/J	.	.	.	.	.	.	8ff/J	.	.	8fff\J	.	.	.
.	.	.	.	.	16F/JJ	.	.	.	.	.	.	.	.	.	.	.	.	.	.	.	.	.	.	.	.	.	.	.	.	.	.	.	.	.	.	.	.	.	.	.	.	.	.	.	.	.	.	.	.	.	.	.	.	.	.	.	.	.	.	.
=25	=25	=25	=25	=25	=25	=25	=25	=25	=25	=25	=25	=25	=25	=25	=25	=25	=25	=25	=25	=25	=25	=25	=25	=25	=25	=25	=25	=25	=25	=25	=25	=25	=25	=25	=25	=25	=25	=25	=25	=25	=25	=25	=25	=25	=25	=25	=25	=25	=25	=25	=25	=25	=25	=25	=25	=25	=25	=25	=25	=25
*	*	*	*	*	*	*	*	*	*	*	*	*	*	*	*	*	*	*	*	*	*	*	*	*	*	*	*	*	*	*	*	*	*	*	*	*	*	*	*	*^	*	*	*	*	*	*	*	*	*	*	*	*	*	*	*	*	*	*	*	*
2BB-/])	.	4g/	4r	.	8C/L) 8c	.	4g/	.	(16een\LL	.	2r	2B-/	2B-\	.	2c/	2G\	nur	2ryy	.	2r	.	2r	.	2r	.	2ryy	.	2r	.	2ryy	.	2r	.	2r	.	2ryy	.	2r	.	4c/))	4G\	.	4B-/]) 4e	.	8G/	2BB-\	.	2BB-/	.	(4g/	[2c\	.	4g\	.	(<16een/LL	2r	.	(16eeen\LL	.	2r	.
.	.	.	.	.	.	.	.	.	16dd\J	.	.	.	.	.	.	.	.	.	.	.	.	.	.	.	.	.	.	.	.	.	.	.	.	.	.	.	.	.	.	.	.	.	.	.	.	.	.	.	.	.	.	.	.	.	16dd/J	.	.	16ddd\J	.	.	.
.	.	.	.	.	8C'/J 8en	.	.	.	8cc\J)	.	.	.	.	.	.	.	.	.	.	.	.	.	.	.	.	.	.	.	.	.	.	.	.	.	.	.	.	.	.	.	.	.	.	.	8r	.	.	.	.	.	.	.	.	.	8cc/J)	.	.	8ccc\J)	.	.	.
.	.	8c/	8B-\	.	8C'/L 8g	.	(12g/L	.	(8ee'\L	.	.	.	.	.	.	.	.	.	.	.	.	.	.	.	.	.	.	.	.	.	.	.	.	.	.	.	.	.	.	8c/L	8G\L	.	8B-/L 8e	.	4r	.	.	.	.	12g/L	.	.	4c/	.	8ee/L	.	.	8eee\L	.	.	.
.	.	.	.	.	.	.	12a/	.	.	.	.	.	.	.	.	.	.	.	.	.	.	.	.	.	.	.	.	.	.	.	.	.	.	.	.	.	.	.	.	.	.	.	.	.	.	.	.	.	.	12a/	.	.	.	.	.	.	.	.	.	.	.
.	.	8r	8ryy	.	8C'/J 8e	.	.	.	8gg'\J)	.	.	.	.	.	.	.	.	.	.	.	.	.	.	.	.	.	.	.	.	.	.	.	.	.	.	.	.	.	.	8c/J	8G\J	.	8B-/J 8e	.	.	.	.	.	.	.	.	.	.	.	8gg/J	.	.	8ggg\J	.	.	.
.	.	.	.	.	.	.	12g/J)	.	.	.	.	.	.	.	.	.	.	.	.	.	.	.	.	.	.	.	.	.	.	.	.	.	.	.	.	.	.	.	.	.	.	.	.	.	.	.	.	.	.	12g/J	.	.	.	.	.	.	.	.	.	.	.
=26	=26	=26	=26	=26	=26	=26	=26	=26	=26	=26	=26	=26	=26	=26	=26	=26	=26	=26	=26	=26	=26	=26	=26	=26	=26	=26	=26	=26	=26	=26	=26	=26	=26	=26	=26	=26	=26	=26	=26	=26	=26	=26	=26	=26	=26	=26	=26	=26	=26	=26	=26	=26	=26	=26	=26	=26	=26	=26	=26	=26	=26
*	*	*	*	*	*	*	*	*	*	*	*	*	*	*	*	*	*	*	*	*	*	*	*	*	*	*	*	*	*	*	*	*	*	*	*	*	*	*	*	*	*	*	*^	*	*	*	*	*	*	*	*	*	*	*	*	*	*	*	*	*	*
!	!	!	!	!	!	!	!	!	!	!	!	!	!	!	!	!	!	!	!	!	!	!	!	!	!	!	!	!LO:TX:a:t=(will sich entwinden)	!	!	!	!	!	!	!	!	!	!	!	!	!	!	!	!	!	!	!	!	!	!	!	!	!	!	!	!	!	!	!	!	!	!
(16BB-/LL	.	4B-/	8F\ 8e-X	.	8c\	.	[2f/	.	(4ee-X\	.	2r	(4B-/	(4B-\	.	4.e-/	4.c\	hier	2ryy	.	2r	.	2r	.	2r	.	2ryy	.	4cc\	Laßt	2ryy	.	2r	.	2r	.	2ryy	.	2r	.	2c/	4F\	.	(2e-X/	4B-\	.	4F/	(>16BB-\LL	.	(16BB-/LL	p	[2f/	4c\]	.	[2f\	.	(4ee-X/	2r	.	(4eee-X\	.	2r	.
16AA/J	.	.	.	.	.	.	.	.	.	.	.	.	.	.	.	.	.	.	.	.	.	.	.	.	.	.	.	.	.	.	.	.	.	.	.	.	.	.	.	.	.	.	.	.	.	.	16AA\J	.	16AA/J	.	.	.	.	.	.	.	.	.	.	.	.	.
[8BB-/J	.	.	8r	.	8r	.	.	.	.	.	.	.	.	.	.	.	.	.	.	.	.	.	.	.	.	.	.	.	.	.	.	.	.	.	.	.	.	.	.	.	.	.	.	.	.	.	8BB-\J)	.	8BB-/J)	.	.	.	.	.	.	.	.	.	.	.	.	.
.	.	.	.	.	(16qqc/LL	.	.	.	.	.	.	.	.	.	.	.	.	.	.	.	.	.	.	.	.	.	.	.	.	.	.	.	.	.	.	.	.	.	.	.	.	.	.	.	.	.	.	.	.	.	.	.	.	.	.	.	.	.	.	.	.	.
.	.	.	.	.	16qqd/JJ	.	.	.	.	.	.	.	.	.	.	.	.	.	.	.	.	.	.	.	.	.	.	.	.	.	.	.	.	.	.	.	.	.	.	.	.	.	.	.	.	.	.	.	.	.	.	.	.	.	.	.	.	.	.	.	.	.
8BB-/L_	.	8A/L	4r	.	4c\)	.	.	.	(8cc'\L)	.	.	8A/)	8A\)	.	.	.	.	.	.	.	.	.	.	.	.	.	.	8cc\	mich	.	.	.	.	.	.	.	.	.	.	.	8A\L	.	.	4A\	.	8A/L	8BB-'\L	.	8BB-'/L	.	.	4e-\	.	.	.	8cc/L)	.	.	8ccc\L)	.	.	.
8BB-/J_	.	8G/J	.	.	.	.	.	.	8ee-'\J)	.	.	8G/	8G\	.	8e-/	8c\	he-	.	.	.	.	.	.	.	.	.	.	8cc\	al-	.	.	.	.	.	.	.	.	.	.	.	8G\J	.	.	.	.	8F/J	8BB-'\J	.	8BB-'/J	.	.	.	.	.	.	8ee-/J	.	.	8eee-\J	.	.	.
=27	=27	=27	=27	=27	=27	=27	=27	=27	=27	=27	=27	=27	=27	=27	=27	=27	=27	=27	=27	=27	=27	=27	=27	=27	=27	=27	=27	=27	=27	=27	=27	=27	=27	=27	=27	=27	=27	=27	=27	=27	=27	=27	=27	=27	=27	=27	=27	=27	=27	=27	=27	=27	=27	=27	=27	=27	=27	=27	=27	=27	=27	=27
2BB-/])	.	[4F/	8BB-\ 8F 8d	.	4B-/	.	4f/_	.	(16dd\LL	.	2r	4F/	4F\	.	4d/	4d\	-rein!	2ryy	.	2r	.	2r	.	2r	.	2ryy	.	[4ff\	-lein!	2ryy	.	2r	.	2r	.	2ryy	.	2r	.	[4B-/	[4F\	.	[4d/)	[4B-\	.	[4F/	[4BB-\	.	[4BB-/	.	4f/])	4d\	.	4f\_	.	(16dd/LL	2r	.	(16ddd\LL	.	2r	.
.	.	.	.	.	.	.	.	.	16cc\J	.	.	.	.	.	.	.	.	.	.	.	.	.	.	.	.	.	.	.	.	.	.	.	.	.	.	.	.	.	.	.	.	.	.	.	.	.	.	.	.	.	.	.	.	.	.	16cc/J	.	.	16ccc\J	.	.	.
.	.	.	8r	.	.	.	.	.	[8b-\J)	.	.	.	.	.	.	.	.	.	.	.	.	.	.	.	.	.	.	.	.	.	.	.	.	.	.	.	.	.	.	.	.	.	.	.	.	.	.	.	.	.	.	.	.	.	.	[8b-/J	.	.	[8bb-\J	.	.	.
!	!	!	!	!	!	!	!	!	!	!	!	!	!	!	!	!	!	!	!	!	!	!	!	!	!	!	!	!	!	!	!	!	!	!	!	!	!	!	!	!	!	!	!	!	!	!	!	!	!	!	!LO:TX:a:t=a2	!	!	!	!	!	!	!	!	!	!	!
.	.	8F/]	4r	.	8d/L	.	8f/]	.	8b-\]	.	.	4r	4ryy	.	4r	4ryy	.	.	.	.	.	.	.	.	.	.	.	4ff\]	.	.	.	.	.	.	.	.	.	.	.	8B-/]	8F\]	.	8d/]	8B-\]	.	8F/]	8BB-\]	.	8BB-/]	.	(16f\LL	4ryy	<	8f\]	.	8b-/])	.	.	8bb-\])	.	.	.
.	.	.	.	.	.	.	.	.	.	.	.	.	.	.	.	.	.	.	.	.	.	.	.	.	.	.	.	.	.	.	.	.	.	.	.	.	.	.	.	.	.	.	.	.	.	.	.	.	.	.	16b-\	.	.	.	.	.	.	.	.	.	.	.
.	.	8r	.	.	8F/J	.	8r	.	8r	.	.	.	.	.	.	.	.	.	.	.	.	.	.	.	.	.	.	.	.	.	.	.	.	.	.	.	.	.	.	8r	8r	.	8r	8r	.	8r	8r	.	8r	.	16dd\	.	.	8r	.	8r	.	.	8r	.	.	.
.	.	.	.	.	.	.	.	.	.	.	.	.	.	.	.	.	.	.	.	.	.	.	.	.	.	.	.	.	.	.	.	.	.	.	.	.	.	.	.	.	.	.	.	.	.	.	.	.	.	.	16ff\JJ)	.	[	.	.	.	.	.	.	.	.	.
*	*	*	*	*	*	*	*	*	*	*	*	*	*	*	*	*	*	*	*	*	*	*	*	*	*	*	*	*	*	*	*	*	*	*	*	*	*	*	*	*v	*v	*	*	*	*	*	*	*	*	*	*v	*v	*	*	*	*v	*v	*	*	*	*	*
*	*	*v	*v	*	*	*	*	*	*	*	*	*	*	*	*v	*v	*	*	*	*	*	*	*	*	*	*	*	*	*	*	*	*	*	*	*	*	*	*	*	*	*	*v	*v	*	*	*	*	*	*	*	*	*	*	*	*	*	*	*	*
=28	=28	=28	=28	=28	=28	=28	=28	=28	=28	=28	=28	=28	=28	=28	=28	=28	=28	=28	=28	=28	=28	=28	=28	=28	=28	=28	=28	=28	=28	=28	=28	=28	=28	=28	=28	=28	=28	=28	=28	=28	=28	=28	=28	=28	=28	=28	=28	=28	=28	=28	=28	=28	=28	=28	=28	=28
*	*	*	*	*	*	*	*	*	*	*	*	*	*	*	*	*	*	*	*	*	*	*	*	*	*	*	*	*	*	*^	*	*	*	*	*	*	*	*	*	*	*	*	*	*	*	*	*	*	*	*	*	*	*	*	*	*
!!LO:TX:a:i:B:t=74
!LO:TX:b:i:B:t=74	!LO:DY:rj	!LO:TX:a:t=pizz&colon;	!LO:DY:rj	!	!LO:DY:rj	!	!LO:DY:a:rj	!LO:TX:a:B:t=74.	!LO:DY:a:rj	!	!	!	!	!	!	!	!	!	!	!	!	!LO:TX:a:i:t=Urok.	!	!	!	!LO:TX:a:B:t=74	!	!	!	!LO:TX:a:t=III.	!	!LO:DY:a	!	!	!	!	!	!	!	!	!	!	!	!	!	!	!	!	!	!	!	!	!	!	!LO:DY:rj	!	!
8B-\	p <	8C/	f	8E-'/L	mf	8G'/L	mf	(16cu/LL	mf	2r	4C/	4C\	Hop	2r	.	2ryy	.	2r	.	2r	.	8r	.	2ryy	.	2r	.	2ryy	.	[2BB-/	2r	p	2r	.	2ryy	.	2r	.	2r	.	2r	.	8G'/L	[2BB-\	p	4E-\	p	(16gg\LL	.	8b-\	p	8cc\ 8ee-	p	8gg\ 8eee-	p	2r	.
.	.	.	.	.	.	.	.	16Bn/J	.	.	.	.	.	.	.	.	.	.	.	.	.	.	.	.	.	.	.	.	.	.	.	.	.	.	.	.	.	.	.	.	.	.	.	.	.	.	.	16aa\	.	.	.	.	.	.	.	.	.
4B-\	.	8r	.	8E-'/J	.	8G'/J	.	8c/J)	.	.	.	.	.	.	.	.	.	.	.	.	.	8G\	Wie	.	.	.	.	.	.	.	.	.	.	.	.	.	.	.	.	.	.	.	8G'/J	.	.	.	.	16gg\	.	4b-\	.	4cc\ 4ee-	.	4gg\ 4eee-	.	.	.
.	.	.	.	.	.	.	.	.	.	.	.	.	.	.	.	.	.	.	.	.	.	.	.	.	.	.	.	.	.	.	.	.	.	.	.	.	.	.	.	.	.	.	.	.	.	.	.	16aa\JJ	.	.	.	.	.	.	.	.	.
.	.	8E-\	.	8c'/L	.	8e-'/L	.	4e-/	.	.	4E-/	4E-\	hop	.	.	.	.	.	.	.	.	[4e-\	dumm,	.	.	.	.	.	.	.	.	.	.	.	.	.	.	.	.	.	.	.	8e-/L	.	.	8c\L	.	16gg\LL	.	.	.	.	.	.	.	.	.
.	.	.	.	.	.	.	.	.	.	.	.	.	.	.	.	.	.	.	.	.	.	.	.	.	.	.	.	.	.	.	.	.	.	.	.	.	.	.	.	.	.	.	.	.	.	.	.	16aa\	.	.	.	.	.	.	.	.	.
[8B-\	.	8r	.	8E-'/J	.	8G'/J	.	.	.	.	.	.	.	.	.	.	.	.	.	.	.	.	.	.	.	.	.	.	.	.	.	.	.	.	.	.	.	.	.	.	.	.	8G/J	.	.	8E-\J	.	16gg\	.	[8b-\	.	[8cc\ [8ee-	.	[8gg\ [8eee-	.	.	.
.	.	.	.	.	.	.	.	.	.	.	.	.	.	.	.	.	.	.	.	.	.	.	.	.	.	.	.	.	.	.	.	.	.	.	.	.	.	.	.	.	.	.	.	.	.	.	.	16aa\JJ	.	.	.	.	.	.	.	.	.
=29	=29	=29	=29	=29	=29	=29	=29	=29	=29	=29	=29	=29	=29	=29	=29	=29	=29	=29	=29	=29	=29	=29	=29	=29	=29	=29	=29	=29	=29	=29	=29	=29	=29	=29	=29	=29	=29	=29	=29	=29	=29	=29	=29	=29	=29	=29	=29	=29	=29	=29	=29	=29	=29	=29	=29	=29	=29
8B-\]	.	8G\	.	8c/L	.	8e-/L	.	(16g/LL	.	2r	4G/	4G\	hop!	4G/	Hop	2ryy	.	2r	.	2r	.	8e-\]	.	2ryy	.	2r	.	2ryy	.	2BB-/_	2r	.	2r	.	2ryy	.	2r	.	2r	.	2r	.	8e-/L	2BB-\_	.	8c\L	.	16gg\LL	.	8b-\]	.	8cc\] 8ee-]	.	8gg\] 8eee-]	.	2r	.
.	.	.	.	.	.	.	.	16f#X/J	.	.	.	.	.	.	.	.	.	.	.	.	.	.	.	.	.	.	.	.	.	.	.	.	.	.	.	.	.	.	.	.	.	.	.	.	.	.	.	16aa\	.	.	.	.	.	.	.	.	.
4B-\	.	8r	.	8E-/J	.	8G/J	.	8g/J)	.	.	.	.	.	.	.	.	.	.	.	.	.	8e-\	wie	.	.	.	.	.	.	.	.	.	.	.	.	.	.	.	.	.	.	.	8G/J	.	.	8E-\J	.	16gg\	.	4b-\	.	4cc\ 4ee-	.	4gg\ 4eee-	.	.	.
.	.	.	.	.	.	.	.	.	.	.	.	.	.	.	.	.	.	.	.	.	.	.	.	.	.	.	.	.	.	.	.	.	.	.	.	.	.	.	.	.	.	.	.	.	.	.	.	16aa\JJ	.	.	.	.	.	.	.	.	.
.	.	8B-\	.	8c/L	.	8e-/L	.	(8b-'/L	.	.	4r	4ryy	.	4B-\	hop!	.	.	.	.	.	.	[4e-\	dumm!	.	.	.	.	.	.	.	.	.	.	.	.	.	.	.	.	.	.	.	8e-/L	.	.	8c\L	.	16gg\LL	.	.	.	.	.	.	.	.	.
.	.	.	.	.	.	.	.	.	.	.	.	.	.	.	.	.	.	.	.	.	.	.	.	.	.	.	.	.	.	.	.	.	.	.	.	.	.	.	.	.	.	.	.	.	.	.	.	16aa\	.	.	.	.	.	.	.	.	.
[8B-\	[[	8r	.	8E-/J	.	8G/J	.	8b-'/J)	.	.	.	.	.	.	.	.	.	.	.	.	.	.	.	.	.	.	.	.	.	.	.	.	.	.	.	.	.	.	.	.	.	.	8G/J	.	.	8E-\J	.	16gg\	.	8b-\	.	[8cc\ [8ee-	.	(<8gg\ [>8eee-	.	.	.
.	.	.	.	.	.	.	.	.	.	.	.	.	.	.	.	.	.	.	.	.	.	.	.	.	.	.	.	.	.	.	.	.	.	.	.	.	.	.	.	.	.	.	.	.	.	.	.	16aa\JJ)	.	.	.	.	.	.	.	.	.
*	*	*	*	*	*	*	*	*	*	*	*v	*v	*	*	*	*	*	*	*	*	*	*	*	*	*	*	*	*	*	*	*	*	*	*	*	*	*	*	*	*	*	*	*	*	*	*	*	*	*	*	*	*	*	*	*	*	*
!!LO:PB:g=original  
=30	=30	=30	=30	=30	=30	=30	=30	=30	=30	=30	=30	=30	=30	=30	=30	=30	=30	=30	=30	=30	=30	=30	=30	=30	=30	=30	=30	=30	=30	=30	=30	=30	=30	=30	=30	=30	=30	=30	=30	=30	=30	=30	=30	=30	=30	=30	=30	=30	=30	=30	=30	=30	=30	=30	=30	=30
!	!	!	!	!	!	!	!	!	!LO:HP:a	!	!	!	!	!	!	!	!	!	!	!	!	!	!	!	!	!	!	!	!	!	!	!	!	!	!	!	!	!	!	!	!	!	!	!	!	!	!	!	!	!	!	!	!	!	!	!
8B-\]	.	8A\	.	8c'/L	.	8e-/L	.	(16a/LL	<	2ryy	(16A\LL	.	(16A/LL	Sei	2ryy	.	2r	.	2r	.	4e-\]	.	2ryy	.	4r	.	2ryy	.	2BB-/_	2r	.	2r	.	2ryy	.	2r	.	2r	.	2r	.	8e-/L	2BB-\]	.	8c\L	.	(16ff\LL	.	8a\	.	8cc\] 8ee-]	.	8ff\) 8eee-]	.	2r	.
.	.	.	.	.	.	.	.	16g/J	.	.	16G\JJ)	.	16G/JJ)	.	.	.	.	.	.	.	.	.	.	.	.	.	.	.	.	.	.	.	.	.	.	.	.	.	.	.	.	.	.	.	.	.	16gg\	.	.	.	.	.	.	.	.	.
4B-\	.	8r	.	8E-'/J	.	8A/J	.	8fn/J)	.	.	8F\	.	8F/	nicht	.	.	.	.	.	.	.	.	.	.	.	.	.	.	.	.	.	.	.	.	.	.	.	.	.	.	.	8A/J	.	.	8F\J	.	16ff\	.	4a\	.	4cc\ 4ee-	.	4ff\ 4eee-	.	.	.
.	.	.	.	.	.	.	.	.	.	.	.	.	.	.	.	.	.	.	.	.	.	.	.	.	.	.	.	.	.	.	.	.	.	.	.	.	.	.	.	.	.	.	.	.	.	.	16gg\JJ	.	.	.	.	.	.	.	.	.
!	!	!	!	!	!	!	!	!	!	!	!	!	!	!	!	!	!	!	!	!	!	!	!	!	!LO:TX:a:t=Ulana.	!	!	!	!	!	!	!	!	!	!	!	!	!	!	!	!	!	!	!	!	!	!	!	!	!	!	!	!	!	!	!
.	.	8F\	.	8c'/L	.	8e-/L	.	(>8a'/L	.	.	4c\	.	4c\	grob!	.	.	.	.	.	.	8r	.	.	.	4cc\	O	.	.	.	.	.	.	.	.	.	.	.	.	.	.	.	8e-/L	.	.	8c\L	.	16ff\LL	.	.	.	.	.	.	.	.	.
.	.	.	.	.	.	.	.	.	.	.	.	.	.	.	.	.	.	.	.	.	.	.	.	.	.	.	.	.	.	.	.	.	.	.	.	.	.	.	.	.	.	.	.	.	.	.	16gg\	.	.	.	.	.	.	.	.	.
[8B-\	.	8r	.	8E-'/J	.	8A/J	.	8cc'/J)	.	.	.	.	.	.	.	.	.	.	.	.	8F\	O	.	.	.	.	.	.	.	.	.	.	.	.	.	.	.	.	.	.	.	8A/J	.	.	8F\J	.	16ff\	.	8a\	.	8cc\ 8ee-	.	8ff\ 8eee-	.	.	.
.	.	.	.	.	.	.	.	.	.	.	.	.	.	.	.	.	.	.	.	.	.	.	.	.	.	.	.	.	.	.	.	.	.	.	.	.	.	.	.	.	.	.	.	.	.	.	16gg\JJ)	.	.	.	.	.	.	.	.	.
=31	=31	=31	=31	=31	=31	=31	=31	=31	=31	=31	=31	=31	=31	=31	=31	=31	=31	=31	=31	=31	=31	=31	=31	=31	=31	=31	=31	=31	=31	=31	=31	=31	=31	=31	=31	=31	=31	=31	=31	=31	=31	=31	=31	=31	=31	=31	=31	=31	=31	=31	=31	=31	=31	=31	=31	=31
.	.	.	.	.	.	.	.	(>16qqdd/LL	.	.	.	.	.	.	.	.	.	.	.	.	.	.	.	.	.	.	.	.	.	.	.	.	.	.	.	.	.	.	.	.	.	.	.	.	.	.	.	.	.	.	(16qqdd/LL	.	(16qqddd/LL	.	.	.
!	!	!	!	!	!	!	!	!	!	!	!	!	!	!	!	!	!	!	!	!	!	!	!	!	!	!	!	!	!LO:TX:b:i:t=Tuba	!	!	!	!	!	!	!	!	!	!	!	!	!	!	!	!	!	!	!	!	!	!	!	!	!	!	!
.	.	.	.	.	.	.	.	16qqcc#X/JJ	.	.	.	.	.	.	.	.	.	.	.	.	.	.	.	.	.	.	.	.	.	.	.	.	.	.	.	.	.	.	.	.	.	.	.	.	.	.	.	.	.	.	16qqcc#X/JJ	.	16qqccc#X/JJ)	.	.	.
!	!	!	!	!	!	!	!	!	!	!	!	!	!	!	!	!	!	!	!	!	!	!	!	!	!	!	!	!	!	!	!	!	!	!	!	!	!	!	!	!	!	!	!	!LO:HP:a	!	!LO:HP:t=cresc&colon;	!	!	!	!	!	!	!	!	!	!
4B-\]	<	8BB-\ 8F 8d	<	4F/ 4d	<	8B-/ 8d	.	4dd\)	.	2ryy	4B-\	.	4d\	Darfst	2ryy	.	2r	.	2r	.	8d\	wärt	2ryy	.	4dd\	hö-	2ryy	.	8BB-/]	4BB-\	mf	2r	.	2ryy	.	2r	.	4F/ 4d	f	4B-/ 4d	f	4F/	4BB-\	<	4d\	<	4f\ 4ff	.	4b-\	.	4b-\) 4dd	.	4ff\ 4ddd	.	2r	.
.	.	8r	.	.	.	8r	<	.	.	.	.	.	.	.	.	.	.	.	.	.	8d\	Ihr	.	.	.	.	.	.	8r	.	.	.	.	.	.	.	.	.	.	.	.	.	.	.	.	.	.	.	.	.	.	.	.	.	.	.
!	!	!	!	!	!	!LO:TX:a:t=pizz&colon;	!	!	!	!	!	!	!	!	!	!	!	!	!	!	!	!	!	!	!	!	!	!	!	!	!	!	!	!	!	!	!	!	!	!	!	!	!	!	!	!	!	!LO:HP:a:t=cresc&colon;	!	!	!	!	!	!	!	!
4A\	.	8AA\ 8F 8c	.	4f\	.	8f\ 8cc 8ff	.	4ff\	<	.	4F\	.	4c\	Dich	.	.	.	.	.	.	8c\	al-	.	.	4ff\	-ret	.	.	4r	4AA\	.	.	.	.	.	.	.	((4F/ 4c	.	((4c/ 4f	.	(4F/	(4AA\	.	(4c\	.	((4f\ 4cc	<	(4cc\	<	4f\ 4ff	<	4ff\ 4fff	<	.	.
.	.	8r	.	.	.	8r	.	.	.	.	.	.	.	.	.	.	.	.	.	.	8c\	-le	.	.	.	.	.	.	.	.	.	.	.	.	.	.	.	.	.	.	.	.	.	.	.	.	.	.	.	.	.	.	.	.	.	.
=32	=32	=32	=32	=32	=32	=32	=32	=32	=32	=32	=32	=32	=32	=32	=32	=32	=32	=32	=32	=32	=32	=32	=32	=32	=32	=32	=32	=32	=32	=32	=32	=32	=32	=32	=32	=32	=32	=32	=32	=32	=32	=32	=32	=32	=32	=32	=32	=32	=32	=32	=32	=32	=32	=32	=32	=32
.	.	.	.	(16qqg/LL	.	.	.	(16qqgg/LL	.	.	.	.	.	.	.	.	.	.	.	.	.	.	.	.	.	.	.	.	.	.	.	.	.	.	.	.	.	.	.	.	.	.	.	.	.	.	.	.	.	.	(16qqg/LL 16qqgg	.	(16qqgg/LL 16qqggg	.	.	.
.	.	.	.	16qqf#X/JJ	.	.	.	16qqff#X/JJ	.	.	.	.	.	.	.	.	.	.	.	.	.	.	.	.	.	.	.	.	.	.	.	.	.	.	.	.	.	.	.	.	.	.	.	.	.	.	.	.	.	.	16qqf#X/JJ 16qqff#X	.	16qqff#X/JJ 16qqfff#X	.	.	.
*	*	*	*	*	*	*	*	*	*	*	*^	*	*	*	*	*	*	*	*	*	*	*	*	*	*	*	*	*	*	*	*	*	*	*	*	*	*	*	*	*	*	*	*	*	*	*	*	*	*	*	*	*	*	*	*	*
4G\	.	8GG\ 8D 8B-	.	4g\)	.	8G/ 8d 8b- 8gg	.	4gg\)	[	2ryy	8B-/	8B-\	.	8d\	mit	2ryy	.	2r	.	2r	.	8d\	lahm	2ryy	.	4gg\	mein	2ryy	.	2r	4GG\	.	2r	.	2ryy	.	2r	.	4D/)) 4B-	.	4G/)) 4g	.	4D/)	4GG\)	.	4B-\)	.	4d/)) 4b-	.	4b-\)	.	4g\) 4gg	.	4gg\) 4ggg	.	2r	.
.	.	8r	.	.	.	8r	.	.	.	.	8B-/	8B-\	.	8d\	uns	.	.	.	.	.	.	8d\	und	.	.	.	.	.	.	.	.	.	.	.	.	.	.	.	.	.	.	.	.	.	.	.	.	.	.	.	.	.	.	.	.	.	.
!	!	!	!	!	!	!	!	!	!LO:DY:a	!	!	!	!	!	!	!	!	!	!	!	!	!	!	!	!	!	!	!	!	!	!	!	!	!	!	!	!	!	!	!	!	!	!	!	!	!	!	!	!	!	!	!	!	!	!	!	!
.	.	.	.	(16qqb-/LL	f	.	.	(16qqbb-/LL	f	.	.	.	.	.	.	.	.	.	.	.	.	.	.	.	.	.	.	.	.	.	.	.	.	.	.	.	.	.	.	.	.	.	.	.	.	.	.	.	.	.	.	(16qqb-/LL 16qqbb-	f	(16qqbb-/LL 16qqbbb-	f	.	.
.	.	.	.	16qqa/JJ	.	.	.	16qqaa/JJ	.	.	.	.	.	.	.	.	.	.	.	.	.	.	.	.	.	.	.	.	.	.	.	.	.	.	.	.	.	.	.	.	.	.	.	.	.	.	.	.	.	.	.	16qqa/JJ 16qqaa	.	16qqaa/JJ 16qqaaa	.	.	.
!	!LO:DY:rj	!	!LO:DY:rj	!	!	!	!	!	!	!	!	!	!	!	!	!	!	!	!	!	!	!	!	!	!	!	!	!	!	!	!	!	!	!	!	!	!	!	!	!LO:DY:a:rj	!	!LO:DY:rj	!	!	!LO:DY:a	!	!	!	!	!	!	!	!	!	!	!	!
4E-\	f	8GG\ 8E- 8B-	ff	4b-\)	.	8G/ 8e- 8b- 8bb-	ff	4bb-\)	.	.	4B-/	4E-\	.	[4g\	freu'n!	.	.	.	.	.	.	4G\	krumm!	.	.	[4bb-\	Wort!	.	.	.	4EE-\	.	.	.	.	.	.	.	4E-X/ 4B-	sf	4G\ 4b-	sf	4EE-/ 4E-	4ryy	fz	4G\	f	4e-/ 4g	sf	4g\	sf	4b-\) 4bb-	.	4bb-\) 4bbb-	.	.	.
.	.	8r	.	.	.	8r	.	.	.	.	.	.	.	.	.	.	.	.	.	.	.	.	.	.	.	.	.	.	.	.	.	.	.	.	.	.	.	.	.	.	.	.	.	.	.	.	.	.	.	.	.	.	.	.	.	.	.
=33	=33	=33	=33	=33	=33	=33	=33	=33	=33	=33	=33	=33	=33	=33	=33	=33	=33	=33	=33	=33	=33	=33	=33	=33	=33	=33	=33	=33	=33	=33	=33	=33	=33	=33	=33	=33	=33	=33	=33	=33	=33	=33	=33	=33	=33	=33	=33	=33	=33	=33	=33	=33	=33	=33	=33	=33	=33
!	!	!	!	!	!	!LO:TX:a:t=arco	!	!	!LO:DY:a	!	!	!	!	!	!	!	!	!	!	!	!	!	!	!	!	!	!	!	!	!LO:TX:a:t=III.	!	!LO:DY:a	!	!	!	!	!	!	!	!	!	!	!	!	!	!	!	!LO:TX:a:t=à2	!	!	!	!	!	!	!	!	!
8B-\	p	8C/	f	8E-/L	mf	8r	.	(16c/LL	mf	2ryy	4C/	4C\	Hop	8g\]	.	2ryy	.	4r	.	4r	.	8r	.	2ryy	.	4bb-\]	.	2ryy	.	[2BB-/	2r	p	2r	.	2ryy	.	2r	.	2r	.	2r	.	8E-/L	[2BB-\	p	8G\L	p	(16gg\LL	p	8b-\	p	8cc\ 8ee-	p	8gg\ 8eee-	p	2r	.
.	.	.	.	.	.	.	.	16Bn/J	.	.	.	.	.	.	.	.	.	.	.	.	.	.	.	.	.	.	.	.	.	.	.	.	.	.	.	.	.	.	.	.	.	.	.	.	.	.	.	16aa\	.	.	.	.	.	.	.	.	.
4B-\	.	8r	.	8E-/J	.	8G/L	mf	8c/J)	.	.	.	.	.	8r	.	.	.	.	.	.	.	8G\	Zu-	.	.	.	.	.	.	.	.	.	.	.	.	.	.	.	.	.	.	.	8E-/J	.	.	8G\J	.	16gg\	.	4b-\	.	4cc\ 4ee-	.	4gg\ 4eee-	.	.	.
.	.	.	.	.	.	.	.	.	.	.	.	.	.	.	.	.	.	.	.	.	.	.	.	.	.	.	.	.	.	.	.	.	.	.	.	.	.	.	.	.	.	.	.	.	.	.	.	16aa\JJ	.	.	.	.	.	.	.	.	.
.	.	8E-\	.	8c/L	.	8e-/	.	4e-/	.	.	4E-/	4E-\	hop	4r	.	.	.	8g/	.	8ee-\	's ist	4e-\	-rück,	.	.	4r	.	.	.	.	.	.	.	.	.	.	.	.	.	.	.	.	8c/L	.	.	8e-\L	.	16gg\LL	.	.	.	.	.	.	.	.	.
.	.	.	.	.	.	.	.	.	.	.	.	.	.	.	.	.	.	.	.	.	.	.	.	.	.	.	.	.	.	.	.	.	.	.	.	.	.	.	.	.	.	.	.	.	.	.	.	16aa\	.	.	.	.	.	.	.	.	.
[8B-\	.	8r	.	8E-/J	.	8G/J	.	.	.	.	.	.	.	.	.	.	.	8g/	.	8ee-\	'ne	.	.	.	.	.	.	.	.	.	.	.	.	.	.	.	.	.	.	.	.	.	8E-/J	.	.	8G\J	.	16gg\	.	[8b-\	.	[8cc\ [8ee-	.	[8gg\ [8eee-	.	.	.
.	.	.	.	.	.	.	.	.	.	.	.	.	.	.	.	.	.	.	.	.	.	.	.	.	.	.	.	.	.	.	.	.	.	.	.	.	.	.	.	.	.	.	.	.	.	.	.	16aa\JJ	.	.	.	.	.	.	.	.	.
=34	=34	=34	=34	=34	=34	=34	=34	=34	=34	=34	=34	=34	=34	=34	=34	=34	=34	=34	=34	=34	=34	=34	=34	=34	=34	=34	=34	=34	=34	=34	=34	=34	=34	=34	=34	=34	=34	=34	=34	=34	=34	=34	=34	=34	=34	=34	=34	=34	=34	=34	=34	=34	=34	=34	=34	=34	=34
8B-\]	.	8G\	.	8c/L	.	8e-/L	.	(16g/LL	.	2ryy	4G/	4G\	hop!	4G/	Hop	2ryy	.	4g/	.	4ee-\	Frau	8r	.	2ryy	.	2r	.	2ryy	.	2BB-/_	2r	.	2r	.	2ryy	.	2r	.	2r	.	2r	.	8c/L	2BB-\_	.	8e-\L	.	16gg\LL	.	8b-\]	.	8cc\] 8ee-]	.	8gg\] 8eee-]	.	2r	.
.	.	.	.	.	.	.	.	16f#X/J	.	.	.	.	.	.	.	.	.	.	.	.	.	.	.	.	.	.	.	.	.	.	.	.	.	.	.	.	.	.	.	.	.	.	.	.	.	.	.	16aa\	.	.	.	.	.	.	.	.	.
4B-\	.	8r	.	8E-/J	.	8G/J	.	8g/J)	.	.	.	.	.	.	.	.	.	.	.	.	.	8G\	Zu-	.	.	.	.	.	.	.	.	.	.	.	.	.	.	.	.	.	.	.	8E-/J	.	.	8G\J	.	16gg\	.	4b-\	.	4cc\ 4ee-	.	4gg\ 4eee-	.	.	.
.	.	.	.	.	.	.	.	.	.	.	.	.	.	.	.	.	.	.	.	.	.	.	.	.	.	.	.	.	.	.	.	.	.	.	.	.	.	.	.	.	.	.	.	.	.	.	.	16aa\JJ	.	.	.	.	.	.	.	.	.
.	.	8B-\	.	8c/L	.	8e-/L	.	(8b-'\L	.	.	4r	4ryy	.	4B-\	hop	.	.	4g/	.	4ee-\	von	4e-\	-rück!	.	.	.	.	.	.	.	.	.	.	.	.	.	.	.	.	.	.	.	8c/L	.	.	8e-\L	.	16gg\LL	.	.	.	.	.	.	.	.	.
.	.	.	.	.	.	.	.	.	.	.	.	.	.	.	.	.	.	.	.	.	.	.	.	.	.	.	.	.	.	.	.	.	.	.	.	.	.	.	.	.	.	.	.	.	.	.	.	16aa\	.	.	.	.	.	.	.	.	.
[8B-\	.	8r	.	8E-/J	.	8G/J	.	8b-'\J)	.	.	.	.	.	.	.	.	.	.	.	.	.	.	.	.	.	.	.	.	.	.	.	.	.	.	.	.	.	.	.	.	.	.	8E-/J	.	.	8G\J	.	16gg\	.	8b-\	.	[8cc\ [8ee-	.	[8ff\ [8eee-	.	.	.
.	.	.	.	.	.	.	.	.	.	.	.	.	.	.	.	.	.	.	.	.	.	.	.	.	.	.	.	.	.	.	.	.	.	.	.	.	.	.	.	.	.	.	.	.	.	.	.	16aa\JJ)	.	.	.	.	.	.	.	.	.
*	*	*	*	*	*	*	*	*	*	*	*v	*v	*	*	*	*	*	*	*	*	*	*	*	*	*	*	*	*	*	*	*	*	*	*	*	*	*	*	*	*	*	*	*	*	*	*	*	*	*	*	*	*	*	*	*	*	*
=35	=35	=35	=35	=35	=35	=35	=35	=35	=35	=35	=35	=35	=35	=35	=35	=35	=35	=35	=35	=35	=35	=35	=35	=35	=35	=35	=35	=35	=35	=35	=35	=35	=35	=35	=35	=35	=35	=35	=35	=35	=35	=35	=35	=35	=35	=35	=35	=35	=35	=35	=35	=35	=35	=35	=35	=35
!	!	!	!	!	!	!	!	!	!LO:HP:a	!	!	!	!	!	!	!	!	!	!	!	!	!	!	!	!	!	!	!	!	!	!	!	!	!	!	!	!	!	!	!	!	!	!	!	!	!	!	!	!	!	!	!	!	!	!	!
8B-\]	.	8A\	.	8c/L	.	8e-/L	.	(16a/LL	<	2ryy	16A\LL	.	(16A/LL	Sei	2ryy	.	2f/	.	2ee-\	Stein,	8r	.	2ryy	.	2r	.	2ryy	.	2BB-/_	2r	.	2r	.	2ryy	.	2r	.	2r	.	2r	.	8c/L	2BB-\]	.	8e-\L	.	(16ff\LL	.	8a\	.	8cc\] 8ee-]	.	8ff\] 8eee-]	.	2r	.
.	.	.	.	.	.	.	.	16g/J	.	.	16G\JJ	.	16G/JJ)	.	.	.	.	.	.	.	.	.	.	.	.	.	.	.	.	.	.	.	.	.	.	.	.	.	.	.	.	.	.	.	.	.	16gg\	.	.	.	.	.	.	.	.	.
4B-\	.	8r	.	8E-/J	.	8A/J	.	8fn/J)	.	.	8F\	.	8F/	nicht	.	.	.	.	.	.	8F\	ver-	.	.	.	.	.	.	.	.	.	.	.	.	.	.	.	.	.	.	.	8F/J	.	.	8A\J	.	16ff\	.	4a\	.	4cc\ 4ee-	.	4ff\ 4eee-	.	.	.
.	.	.	.	.	.	.	.	.	.	.	.	.	.	.	.	.	.	.	.	.	.	.	.	.	.	.	.	.	.	.	.	.	.	.	.	.	.	.	.	.	.	.	.	.	.	.	16gg\JJ	.	.	.	.	.	.	.	.	.
.	.	8F\	.	8c/L	.	8e-/L	.	(8a'/L	.	.	4c\	.	4c\	grob!	.	.	.	.	.	.	8c\	-damm-	.	.	.	.	.	.	.	.	.	.	.	.	.	.	.	.	.	.	.	8c/L	.	.	8e-\L	.	24ff\LL	.	.	.	.	.	.	.	.	.
.	.	.	.	.	.	.	.	.	.	.	.	.	.	.	.	.	.	.	.	.	.	.	.	.	.	.	.	.	.	.	.	.	.	.	.	.	.	.	.	.	.	.	.	.	.	.	24gg\	.	.	.	.	.	.	.	.	.
.	.	.	.	.	.	.	.	.	.	.	.	.	.	.	.	.	.	.	.	.	.	.	.	.	.	.	.	.	.	.	.	.	.	.	.	.	.	.	.	.	.	.	.	.	.	.	24ff\	.	.	.	.	.	.	.	.	.
8B-\	.	8r	.	8E-/J	.	8A/J	.	8cc'/J)	.	.	.	.	.	.	.	.	.	.	.	.	8F\	-te	.	.	.	.	.	.	.	.	.	.	.	.	.	.	.	.	.	.	.	8F/J	.	.	8A\J	.	16gg\	.	8a\	.	8cc\ 8ee-	.	8ff\ 8eee-	.	.	.
.	.	.	.	.	.	.	.	.	.	.	.	.	.	.	.	.	.	.	.	.	.	.	.	.	.	.	.	.	.	.	.	.	.	.	.	.	.	.	.	.	.	.	.	.	.	.	16ff\JJ)	.	.	.	.	.	.	.	.	.
*	*	*	*	*	*	*	*	*	*	*	*	*	*	*	*	*	*	*	*	*	*	*	*	*	*	*	*	*	*	*	*	*	*	*	*	*	*	*	*	*	*	*v	*v	*	*	*	*	*	*	*	*	*	*	*	*	*
=36	=36	=36	=36	=36	=36	=36	=36	=36	=36	=36	=36	=36	=36	=36	=36	=36	=36	=36	=36	=36	=36	=36	=36	=36	=36	=36	=36	=36	=36	=36	=36	=36	=36	=36	=36	=36	=36	=36	=36	=36	=36	=36	=36	=36	=36	=36	=36	=36	=36	=36	=36	=36	=36	=36	=36
*	*	*	*	*	*	*	*	*	*^	*	*	*	*	*	*	*	*	*	*	*	*	*	*	*	*	*	*	*	*	*	*	*	*	*	*	*	*	*	*	*	*	*	*	*	*	*	*	*	*	*	*	*	*	*	*
.	.	.	.	.	.	.	.	(16qqdd/LL	.	.	.	.	.	.	.	.	.	.	.	.	.	.	.	.	.	.	.	.	.	.	.	.	.	.	.	.	.	.	.	.	.	.	.	.	.	.	.	.	.	.	(16qqdd/LL	<	(16qqddd/LL	<	.	.
!	!	!	!	!	!	!	!	!	!	!	!	!	!	!	!	!	!	!	!	!	!	!	!	!	!	!	!	!	!	!LO:TX:b:i:t=Tuba	!	!	!	!	!	!	!	!	!	!	!	!	!	!	!	!	!	!	!	!	!	!	!	!	!	!
.	.	.	.	.	.	.	.	16qqcc#X/JJ	.	.	.	.	.	.	.	.	.	.	.	.	.	.	.	.	.	.	.	.	.	.	.	.	.	.	.	.	.	.	.	.	.	.	.	.	.	.	.	.	.	.	16qqcc#X/JJ	.	16qqccc#X/JJ)	.	.	.
!	!	!	!	!	!	!	!	!	!	!	!	!	!	!	!	!	!	!	!	!	!	!	!	!	!	!	!	!	!	!	!	!	!	!	!	!	!	!	!	!	!	!	!	!	!	!	!	!LO:HP:a	!	!	!	!	!	!	!	!
*	*	*	*	*	*	*	*	*	*	*	*	*	*	*	*	*	*	*	*	*	*	*	*	*	*	*	*	*	*	*	*	*	*	*	*	*	*	*	*	*	*	*	*	*	*	*	*	*	*	*	*	*	*	*	*	*
4B-\	.	8BB-\ 8F 8d	.	8F/ 8d	.	8B-/ 8d	.	4dd\)	.	.	2ryy	4B-\	.	4d\	Darfst	2ryy	.	8r	.	8r	.	[4f\	brut!	2ryy	.	2r	.	2ryy	.	8BB-/]	4BB-\	mf	2r	.	2ryy	.	2r	.	4F/ 4d	mf	4B-/ 4d	mf	4BB-\ 4B-	<	4d\	<	4f\ 4ff	<	4b-\	<	4b-\) 4dd	.	4ff\ 4ddd	.	2r	.
.	.	8r	.	8r	.	8r	.	.	.	.	.	.	.	.	.	.	.	8b-\	.	8dd\	Die	.	.	.	.	.	.	.	.	8r	.	.	.	.	.	.	.	.	.	.	.	.	.	.	.	.	.	.	.	.	.	.	.	.	.	.
!	!	!	!	!	!	!LO:TX:a:t=pizz&colon;	!	!	!	!	!	!	!	!	!	!	!	!	!	!	!	!	!	!	!	!	!	!	!	!	!	!	!	!	!	!	!	!	!	!	!	!	!	!	!	!	!	!	!	!	!	!	!	!	!	!
4A\	.	8AA\ 8F 8c	.	4f\	.	8f\ 8cc 8ff	<	4ff\	.	<	.	4F\	.	4c\	Dich	.	.	8f/	.	8cc\	macht	8f\]	.	.	.	.	.	.	.	4r	4AA\	.	.	.	.	.	.	.	4F/ 4c	.	4c/ 4f	.	((4FF/ 4F	[	(4c\	[	((4f\ 4cc	[[	(4cc\	[[	4f\ 4ff	[[	4ff\ 4fff	[[	.	.
.	.	8r	.	.	.	8r	.	.	.	.	.	.	.	.	.	.	.	8f/	.	8cc\	Ihr	8r	.	.	.	.	.	.	.	.	.	.	.	.	.	.	.	.	.	.	.	.	.	.	.	.	.	.	.	.	.	.	.	.	.	.
=37	=37	=37	=37	=37	=37	=37	=37	=37	=37	=37	=37	=37	=37	=37	=37	=37	=37	=37	=37	=37	=37	=37	=37	=37	=37	=37	=37	=37	=37	=37	=37	=37	=37	=37	=37	=37	=37	=37	=37	=37	=37	=37	=37	=37	=37	=37	=37	=37	=37	=37	=37	=37	=37	=37	=37	=37
!	!	!	!	!	!	!	!	!	!	!	!	!	!	!	!	!	!	!	!	!	!	!	!	!	!	!	!	!	!	!	!	!	!	!	!	!	!	!	!	!	!	!	!	!	!	!	!	!	!	!	!	!	!	!	!LO:TX:a:i:t=Piccolo:rj	!
.	.	.	.	(16qqg/LL	<	.	.	(16qqgg/LL	.	.	.	.	.	.	.	.	.	.	.	.	.	.	.	.	.	.	.	.	.	.	.	.	.	.	.	.	.	.	.	.	.	.	.	.	.	.	.	.	.	.	(16qqg/LL 16qqgg	.	(16qqgg/LL 16qqggg	.	(16qqgg/LL	<
.	.	.	.	16qqf#X/JJ	.	.	.	16qqff#X/JJ	.	.	.	.	.	.	.	.	.	.	.	.	.	.	.	.	.	.	.	.	.	.	.	.	.	.	.	.	.	.	.	.	.	.	.	.	.	.	.	.	.	.	16qqf#X/JJ 16qqff#X	.	16qqff#X/JJ 16qqfff#X	.	16qqff#X/JJ	.
*	*	*	*	*	*	*	*	*	*	*	*	*^	*	*	*	*	*	*	*	*	*	*	*	*	*	*	*	*	*	*	*	*	*	*	*	*	*	*	*	*	*	*	*	*	*	*	*	*	*	*	*	*	*^	*	*	*
!	!	!	!	!	!	!	!	!	!	!	!	!	!	!	!	!	!	!	!	!	!	!	!	!	!	!	!	!	!	!	!	!	!	!	!	!	!	!	!	!	!LO:DY:rj	!	!LO:DY:rj	!	!	!	!	!	!	!	!	!	!	!	!	!	!	!
4G\	<	8GG\ 8D 8B-	<	4g\)	.	8G/ 8d 8b- 8gg	[	4gg\)	.	[	2ryy	8G/	8G\	.	8B-\	mit	2ryy	.	4d/	.	4b-\	nicht	2r	.	2ryy	.	2r	.	2ryy	.	2r	4GG\	.	2r	.	2ryy	.	2r	.	2D/ 2B-	sf	2G/ 2g	sf	4GG/)) 4G	.	4B-\)	.	4d/)) 4b-	.	4b-\)	.	4g\) 4gg	.	4gg\) 4ggg	4ryy	.	4gg\)	[
.	.	8r	.	.	.	8r	.	.	.	.	.	8G/	8G\	.	8B-\	uns	.	.	.	.	.	.	.	.	.	.	.	.	.	.	.	.	.	.	.	.	.	.	.	.	.	.	.	.	.	.	.	.	.	.	.	.	.	.	.	.	.	.
.	.	.	.	(16qqdd/LL	[	.	.	(16qqddd/LL	.	.	.	.	.	.	.	.	.	.	.	.	.	.	.	.	.	.	.	.	.	.	.	.	.	.	.	.	.	.	.	.	.	.	.	.	.	.	.	.	.	.	.	(16qqdd/LL 16qqddd	.	(16qqddd/LL	.	.	(16qqddd/LL	ff
.	.	.	.	16qqcc#X/JJ	.	.	.	16qqccc#X/JJ	[	.	.	.	.	.	.	.	.	.	.	.	.	.	.	.	.	.	.	.	.	.	.	.	.	.	.	.	.	.	.	.	.	.	.	.	.	.	.	.	.	.	.	16qqcc#X/JJ 16qqccc#X	.	16qqccc#X/JJ	.	.	16qqccc#X/JJ	.
4BB-/	[	8BB-\ 8G	[	4dd\)	.	8G\ 8d 8dd 8ddd	.	4ddd\)	.	.	.	4B-/	4G\	.	[4g\	freu'n!	.	.	4d/	.	4dd\	heiß!	.	.	.	.	.	.	.	.	.	4BBB-\	.	.	.	.	.	.	.	.	.	.	.	4BB-\ 4B-	.	4G\	.	4d^>/ 4g	.	4g\	.	4dd\) 4ddd	.	4ddd/)	4ddd\	.	4ddd\)	.
.	.	8r	.	.	.	8r	.	.	.	.	.	.	.	.	.	.	.	.	.	.	.	.	.	.	.	.	.	.	.	.	.	.	.	.	.	.	.	.	.	.	.	.	.	.	.	.	.	.	.	.	.	.	.	.	.	.	.	.
*	*	*	*	*	*	*	*	*	*v	*v	*	*	*	*	*	*	*	*	*	*	*	*	*	*	*	*	*	*	*	*	*	*	*	*	*	*	*	*	*	*	*	*	*	*	*	*	*	*	*	*	*	*	*	*	*	*	*	*
*	*	*	*	*	*	*	*	*	*	*	*	*	*	*	*	*	*	*	*	*	*	*	*	*	*	*	*	*	*	*	*	*	*	*	*	*	*	*	*	*	*	*	*	*	*	*	*	*	*	*	*	*	*v	*v	*	*	*
!!LO:PB:g=original  
=38	=38	=38	=38	=38	=38	=38	=38	=38	=38	=38	=38	=38	=38	=38	=38	=38	=38	=38	=38	=38	=38	=38	=38	=38	=38	=38	=38	=38	=38	=38	=38	=38	=38	=38	=38	=38	=38	=38	=38	=38	=38	=38	=38	=38	=38	=38	=38	=38	=38	=38	=38	=38	=38	=38	=38	=38
*	*	*	*	*^	*	*	*	*	*	*	*	*	*	*	*	*	*	*	*	*	*	*	*	*	*	*	*	*	*	*	*	*	*	*	*	*	*	*	*	*	*	*	*	*	*	*	*	*	*	*	*	*	*	*	*	*
*	*	*	*	*	*	*	*	*	*	*	*	*	*	*	*	*	*	*	*	*	*	*	*	*	*	*	*	*	*	*	*	*	*	*	*	*	*	*	*	*	*	*	*	*	*	*	*	*	*	*	*	*	*	*	*^	*	*
*	*	*	*	*	*	*	*	*	*	*	*	*	*	*	*	*	*	*	*	*	*	*	*	*	*	*	*	*	*	*	*	*	*	*	*	*	*	*	*	*	*	*	*	*	*^	*	*	*	*	*	*	*	*^	*	*	*	*	*
!!LO:TX:a:i:B:t=75
!LO:TX:b:i:t=75	!	!	!	!	!	!	!	!	!LO:TX:a:B:t=75	!	!	!	!	!	!	!	!	!	!	!	!	!	!	!	!	!	!LO:TX:a:t=75.	!	!	!	!	!	!LO:DY:a	!	!	!	!	!	!	!	!LO:DY:rj	!	!LO:DY:rj	!	!LO:DY:a	!LO:DY:b	!	!LO:DY:rj	!	!LO:DY:rj	!	!LO:DY:a:rj	!	!LO:DY:a	!	!	!LO:DY:a	!	!LO:TX:a:B:t=75	!
8B-\	mf	8C/	mf	8r	4ryy	.	8r	.	(>16c/LL	mf	2ryy	4C/	4C\	hop	8g\]	.	2ryy	.	4r	.	4r	.	8r	.	2r	.	2r	.	2r	.	[2BB-/	2r	p	2r	.	2ryy	.	2r	.	8E-X/ 8c	pp	8G/ 8e-X	pp	8E-\L 8G	p	p	[2BB-/	p	(16gg\LL	p	8b-\	p	8cc\ 8ee-	p	p	8gg\ 8eee-	p	p	2r	.
.	.	.	.	.	.	.	.	.	16Bn/J	.	.	.	.	.	.	.	.	.	.	.	.	.	.	.	.	.	.	.	.	.	.	.	.	.	.	.	.	.	.	.	.	.	.	.	.	.	.	.	16aa\	.	.	.	.	.	.	.	.	.	.	.
!	!	!	!	!	!	!LO:DY:a	!LO:TX:a:t=arco	!LO:DY:rj	!	!	!	!	!	!	!	!	!	!	!	!	!	!	!	!	!	!	!	!	!	!	!	!	!	!	!	!	!	!	!	!	!	!	!	!	!	!	!	!	!	!	!	!	!	!	!	!	!	!	!	!
4B-\	.	8r	.	8G/	.	mf	(16G/LL	mf	8c/J)	.	.	.	.	.	8r	.	.	.	.	.	.	.	8G\	Ein	.	.	.	.	.	.	.	.	.	.	.	.	.	.	.	4E-/ 4c	.	4G/ 4e-	.	8E-\J 8G	.	.	.	.	16gg\	.	4b-\	.	4cc\ 4ee-	.	.	4gg\ 4eee-	.	.	.	.
.	.	.	.	.	.	.	16c/JJ	.	.	.	.	.	.	.	.	.	.	.	.	.	.	.	.	.	.	.	.	.	.	.	.	.	.	.	.	.	.	.	.	.	.	.	.	.	.	.	.	.	16aa\JJ	.	.	.	.	.	.	.	.	.	.	.
.	.	8E-\	.	4e-/	(>16c\LL	.	4e-/)	.	4e-/	.	.	4E-/	4E-\	hop	4r	.	.	.	8g/	.	8ee-\	's ist	8e-\	schwa-	.	.	.	.	.	.	.	.	.	.	.	.	.	.	.	.	.	.	.	8c\L 8e-	.	.	.	.	16gg\LL	.	.	.	.	.	.	.	.	.	.	.
.	.	.	.	.	16G\	.	.	.	.	.	.	.	.	.	.	.	.	.	.	.	.	.	.	.	.	.	.	.	.	.	.	.	.	.	.	.	.	.	.	.	.	.	.	.	.	.	.	.	16aa\	.	.	.	.	.	.	.	.	.	.	.
[8B-\	.	8r	.	.	16c\	.	.	.	.	.	.	.	.	.	.	.	.	.	8g/	.	8ee-\	'ne	8e-\	-ches	.	.	.	.	.	.	.	.	.	.	.	.	.	.	.	[8E-/ [8c	.	[8G/ [8e-	.	8E-\J 8G	.	.	.	.	16gg\	.	[8b-\	.	[8cc\ [8ee-	.	.	[8gg\ [8eee-	.	.	.	.
.	.	.	.	.	16G\JJ)	.	.	.	.	.	.	.	.	.	.	.	.	.	.	.	.	.	.	.	.	.	.	.	.	.	.	.	.	.	.	.	.	.	.	.	.	.	.	.	.	.	.	.	16aa\JJ	.	.	.	.	.	.	.	.	.	.	.
*	*	*	*	*	*	*	*	*	*	*	*	*	*	*	*	*	*	*	*	*	*	*	*	*	*	*	*	*	*	*	*	*	*	*	*	*	*	*	*	*	*	*	*	*	*v	*v	*	*	*	*	*	*	*	*v	*v	*	*v	*v	*	*
=39	=39	=39	=39	=39	=39	=39	=39	=39	=39	=39	=39	=39	=39	=39	=39	=39	=39	=39	=39	=39	=39	=39	=39	=39	=39	=39	=39	=39	=39	=39	=39	=39	=39	=39	=39	=39	=39	=39	=39	=39	=39	=39	=39	=39	=39	=39	=39	=39	=39	=39	=39	=39	=39	=39	=39	=39	=39
8B-\]	.	8G\	.	4e-/	(>16c\LL	.	(16g/LL	.	(16g/LL	.	2ryy	4G/	4G\	hop!	4G/	Hop,	2ryy	.	4g/	.	4ee-\	Frau	[4e-\	weib	2r	.	2r	.	2r	.	2BB-/_	2r	.	2r	.	2ryy	.	2r	.	8E-/] 8c]	.	8G/] 8e-X]	.	8c\L 8e-	.	2BB-/_	.	16gg\LL	.	8b-\]	.	8cc\] 8ee-]	.	8gg\] 8eee-]	.	2r	.
.	.	.	.	.	16G\	.	16f#X/J	.	16f#X/J	.	.	.	.	.	.	.	.	.	.	.	.	.	.	.	.	.	.	.	.	.	.	.	.	.	.	.	.	.	.	.	.	.	.	.	.	.	.	16aa\	.	.	.	.	.	.	.	.	.
4B-\	.	8r	.	.	16c\	.	8g/J)	.	8g/J)	.	.	.	.	.	.	.	.	.	.	.	.	.	.	.	.	.	.	.	.	.	.	.	.	.	.	.	.	.	.	4E-y/ 4c	.	4G/ 4e-	.	8E-\J 8G	.	.	.	16gg\	.	4b-\	.	4cc\ 4ee-	.	4gg\ 4eee-	.	.	.
.	.	.	.	.	16G\JJ)	.	.	.	.	.	.	.	.	.	.	.	.	.	.	.	.	.	.	.	.	.	.	.	.	.	.	.	.	.	.	.	.	.	.	.	.	.	.	.	.	.	.	16aa\JJ	.	.	.	.	.	.	.	.	.
.	.	8B-\	.	4g/	(>16e-\LL	.	(8b-'/L	.	(8b-'/L	.	.	4r	4ryy	.	4B-\	hop!	.	.	4g/	.	4ee-\	von	8e-\]	.	.	.	.	.	.	.	.	.	.	.	.	.	.	.	.	.	.	.	.	8c\L 8e-	.	.	.	16gg\LL	.	.	.	.	.	.	.	.	.
.	.	.	.	.	16G\	.	.	.	.	.	.	.	.	.	.	.	.	.	.	.	.	.	.	.	.	.	.	.	.	.	.	.	.	.	.	.	.	.	.	.	.	.	.	.	.	.	.	16aa\	.	.	.	.	.	.	.	.	.
[8B-\	.	8r	.	.	16e-\	.	8b-'/J)	.	8b-'/J)	.	.	.	.	.	.	.	.	.	.	.	.	.	8r	.	.	.	.	.	.	.	.	.	.	.	.	.	.	.	.	[8F/ [8c	.	8G/ [8e-	.	8E-\J 8G	.	.	.	16gg\	.	(8b-\	.	[8cc\ [8ee-	.	(<8gg\ [8eee-	.	.	.
.	.	.	.	.	16G\JJ)	.	.	.	.	.	.	.	.	.	.	.	.	.	.	.	.	.	.	.	.	.	.	.	.	.	.	.	.	.	.	.	.	.	.	.	.	.	.	.	.	.	.	16aa\JJ)	.	.	.	.	.	.	.	.	.
*	*	*	*	*v	*v	*	*	*	*	*	*	*v	*v	*	*	*	*	*	*	*	*	*	*	*	*	*	*	*	*	*	*	*	*	*	*	*	*	*	*	*	*	*	*	*	*	*	*	*	*	*	*	*	*	*	*	*	*
=40	=40	=40	=40	=40	=40	=40	=40	=40	=40	=40	=40	=40	=40	=40	=40	=40	=40	=40	=40	=40	=40	=40	=40	=40	=40	=40	=40	=40	=40	=40	=40	=40	=40	=40	=40	=40	=40	=40	=40	=40	=40	=40	=40	=40	=40	=40	=40	=40	=40	=40	=40	=40	=40	=40	=40
8B-\]	.	8A\	.	8e-\ 8cc	.	(16a/LL	.	(16a/LL	.	2ryy	(16A\LL	.	(16A/LL	Nur	2ryy	.	2f/	.	2ee-\	Stein,	8r	.	2r	.	2r	.	2r	.	2BB-/]	2r	.	2r	.	2ryy	.	2r	.	8F/] 8c]	.	8A/ 8e-X]	.	8c\L 8e-	.	2BB-/_	.	(16ff\LL	.	8a\)	.	8cc\] 8ee-]	.	8ff\) 8eee-]	.	2r	.
.	.	.	.	.	.	16g/J	.	16g/J	.	.	16G\JJ)	.	16G/JJ)	.	.	.	.	.	.	.	.	.	.	.	.	.	.	.	.	.	.	.	.	.	.	.	.	.	.	.	.	.	.	.	.	16gg\	.	.	.	.	.	.	.	.	.
4B-\	.	8r	.	8r	.	8fn/J)	.	8fn/J)	.	.	8F\	.	8F/	ein	.	.	.	.	.	.	8F\	das	.	.	.	.	.	.	.	.	.	.	.	.	.	.	.	4F/ 4c	.	4A/ 4e-	.	8E-\J 8G	.	.	.	16ff\	.	4a\	.	4cc\ 4ee-	.	4ff\ 4eee-	.	.	.
.	.	.	.	.	.	.	.	.	.	.	.	.	.	.	.	.	.	.	.	.	.	.	.	.	.	.	.	.	.	.	.	.	.	.	.	.	.	.	.	.	.	.	.	.	.	16gg\JJ	.	.	.	.	.	.	.	.	.
.	.	8F\	.	8r	.	(8a'/L	.	(8a'/L	.	.	4c\	.	4c\	Tanz!	.	.	.	.	.	.	8c\	nenn'	.	.	.	.	.	.	.	.	.	.	.	.	.	.	.	.	.	.	.	8c\L 8e-	.	.	.	16ff\LL	.	.	.	.	.	.	.	.	.
.	.	.	.	.	.	.	.	.	.	.	.	.	.	.	.	.	.	.	.	.	.	.	.	.	.	.	.	.	.	.	.	.	.	.	.	.	.	.	.	.	.	.	.	.	.	16gg\	.	.	.	.	.	.	.	.	.
!	!	!	!	!LO:TUP:b	!	!	!	!	!	!	!	!	!	!	!	!	!	!	!	!	!	!	!	!	!	!	!	!	!	!	!	!	!	!	!	!	!	!	!	!	!	!	!	!	!	!	!	!	!	!	!	!	!	!	!
[8B-\	.	8r	.	(24F/LL	.	8cc'/J)	.	8cc'/J)	.	.	.	.	.	.	.	.	.	.	.	.	8F\	ich	.	.	.	.	.	.	.	.	.	.	.	.	.	.	.	8F/ 8c	.	8A/ 8e-	.	8E-\J 8G	.	.	.	16ff\	.	8a\	.	8cc\ 8ee-	.	8ff\ 8eee-	.	.	.
.	.	.	.	24G/	.	.	.	.	.	.	.	.	.	.	.	.	.	.	.	.	.	.	.	.	.	.	.	.	.	.	.	.	.	.	.	.	.	.	.	.	.	.	.	.	.	.	.	.	.	.	.	.	.	.	.
.	.	.	.	.	.	.	.	.	.	.	.	.	.	.	.	.	.	.	.	.	.	.	.	.	.	.	.	.	.	.	.	.	.	.	.	.	.	.	.	.	.	.	.	.	.	16gg\JJ)	.	.	.	.	.	.	.	.	.
.	.	.	.	24A/JJ	.	.	.	.	.	.	.	.	.	.	.	.	.	.	.	.	.	.	.	.	.	.	.	.	.	.	.	.	.	.	.	.	.	.	.	.	.	.	.	.	.	.	.	.	.	.	.	.	.	.	.
*	*	*	*	*	*	*	*	*	*	*	*	*	*	*	*	*	*	*	*	*	*	*	*	*	*	*	*	*	*v	*v	*	*	*	*	*	*	*	*	*	*	*	*	*	*	*	*	*	*	*	*	*	*	*	*	*
=41	=41	=41	=41	=41	=41	=41	=41	=41	=41	=41	=41	=41	=41	=41	=41	=41	=41	=41	=41	=41	=41	=41	=41	=41	=41	=41	=41	=41	=41	=41	=41	=41	=41	=41	=41	=41	=41	=41	=41	=41	=41	=41	=41	=41	=41	=41	=41	=41	=41	=41	=41	=41	=41	=41
.	.	.	.	.	.	(16qqdd/LL	.	(16qqdd/LL	.	.	.	.	.	.	.	.	.	.	.	.	.	.	.	.	.	.	.	.	.	.	.	.	.	.	.	.	.	.	.	.	.	.	.	.	.	.	.	.	(16qqdd/LL	.	(16qqddd/LL	.	.	.
!	!	!	!	!	!	!	!	!	!	!	!	!	!	!	!	!	!	!	!	!	!	!	!	!	!LO:TX:a:t=Ulana (wie oben.)	!	!	!	!	!	!	!	!	!	!	!	!	!	!	!	!	!	!	!	!	!	!	!	!	!	!	!	!	!
.	.	.	.	.	.	16qqcc#X/JJ	.	16qqcc#X/JJ	.	.	.	.	.	.	.	.	.	.	.	.	.	.	.	.	.	.	.	.	.	.	.	.	.	.	.	.	.	.	.	.	.	.	.	.	.	.	.	.	16qqcc#X/JJ	.	16qqccc#X/JJ)	.	.	.
*	*	*	*	*	*	*	*	*	*	*	*^	*	*	*	*	*	*	*	*	*	*	*	*	*	*	*	*	*	*	*	*	*	*	*	*	*	*	*	*	*	*	*	*	*	*	*	*	*	*	*	*	*	*	*
4B-\]	.	4r	.	8B-/)	.	4dd\)	.	4dd\)	.	2ryy	4B-/	4B-\	.	4d\	Das	2ryy	.	4f/	.	4dd\	Die	[4f\	Muth!	2r	.	4dd\	Hö-	2r	.	2r	.	2r	.	2ryy	.	2r	.	4F/ 4d	.	2B-/ 2d	.	4B-\ 4d	.	4BB-/]	.	(16ff\LL	.	4b-\	.	4b-\) 4dd	.	4ff\ 4ddd	.	2r	.
.	.	.	.	.	.	.	.	.	.	.	.	.	.	.	.	.	.	.	.	.	.	.	.	.	.	.	.	.	.	.	.	.	.	.	.	.	.	.	.	.	.	.	.	.	.	16gg\	.	.	.	.	.	.	.	.	.
.	.	.	.	8r	.	.	.	.	.	.	.	.	.	.	.	.	.	.	.	.	.	.	.	.	.	.	.	.	.	.	.	.	.	.	.	.	.	.	.	.	.	.	.	.	.	16ff\	.	.	.	.	.	.	.	.	.
.	.	.	.	.	.	.	.	.	.	.	.	.	.	.	.	.	.	.	.	.	.	.	.	.	.	.	.	.	.	.	.	.	.	.	.	.	.	.	.	.	.	.	.	.	.	16gg\JJ)	.	.	.	.	.	.	.	.	.
!	!	!LO:TX:b:i:t=arco	!	!LO:TUP:b	!	!	!	!	!	!	!	!	!	!	!	!	!	!	!	!	!	!	!	!	!	!	!	!	!	!	!	!	!	!	!	!	!	!	!	!	!	!	!	!	!	!	!	!	!	!	!	!	!	!	!
4r	.	4f\	.	12A/L	.	4ccn\	.	4ff\	.	.	4B-/	4A\	.	4f\	kann	.	.	8f/	.	8ff\	wird	8f\]	.	.	.	4ff\	-ret	.	.	.	.	.	.	.	.	.	.	4A/ 4f	.	.	.	4A\ 4f	.	(4A\	.	(4ff\	.	(4f\	.	4b-\ 4ff	.	4ff\ 4fff	.	.	.
.	.	.	.	12A/	.	.	.	.	.	.	.	.	.	.	.	.	.	.	.	.	.	.	.	.	.	.	.	.	.	.	.	.	.	.	.	.	.	.	.	.	.	.	.	.	.	.	.	.	.	.	.	.	.	.	.
.	.	.	.	.	.	.	.	.	.	.	.	.	.	.	.	.	.	8f/	.	8ff\	nicht	8r	.	.	.	.	.	.	.	.	.	.	.	.	.	.	.	.	.	.	.	.	.	.	.	.	.	.	.	.	.	.	.	.	.
.	.	.	.	12A/J	.	.	.	.	.	.	.	.	.	.	.	.	.	.	.	.	.	.	.	.	.	.	.	.	.	.	.	.	.	.	.	.	.	.	.	.	.	.	.	.	.	.	.	.	.	.	.	.	.	.	.
*	*	*	*	*	*	*	*	*	*	*	*v	*v	*	*	*	*	*	*	*	*	*	*	*	*	*	*	*	*	*	*	*	*	*	*	*	*	*	*	*	*	*	*	*	*	*	*	*	*	*	*	*	*	*	*	*
=42	=42	=42	=42	=42	=42	=42	=42	=42	=42	=42	=42	=42	=42	=42	=42	=42	=42	=42	=42	=42	=42	=42	=42	=42	=42	=42	=42	=42	=42	=42	=42	=42	=42	=42	=42	=42	=42	=42	=42	=42	=42	=42	=42	=42	=42	=42	=42	=42	=42	=42	=42	=42	=42	=42
.	.	.	.	.	.	(16qqgg/LL	.	(16qqgg/LL	.	.	.	.	.	.	.	.	.	.	.	.	.	.	.	.	.	.	.	.	.	.	.	.	.	.	.	.	.	.	.	.	.	.	.	.	.	.	.	.	.	.	(16qqgg/LL	.	.	.
.	.	.	.	.	.	16qqff#X/JJ	.	16qqff#X/JJ	.	.	.	.	.	.	.	.	.	.	.	.	.	.	.	.	.	.	.	.	.	.	.	.	.	.	.	.	.	.	.	.	.	.	.	.	.	.	.	.	.	.	16qqff#X/JJ	.	.	.
*	*	*	*	*	*	*	*	*	*	*	*	*	*	*	*	*	*	*	*	*	*	*	*	*	*	*	*	*	*	*	*	*	*	*	*	*	*	*	*	*	*	*	*	*	*^	*	*	*	*^	*	*	*	*	*
!	!	!	!	!LO:TUP:b	!	!	!	!	!	!	!	!	!	!	!	!	!	!	!	!	!	!	!	!	!	!	!	!	!	!	!	!	!	!	!	!	!	!	!	!	!	!	!	!	!	!	!	!	!	!	!	!	!	!	!	!
2r	.	4en\	.	12G/L	.	4b-\) 4gg	.	4gg\)	.	2ryy	8G\ 8B-	.	8en\ 8g	kei-	2ryy	.	8en/	.	8een\	lu-	2r	.	2r	.	4gg\	mein	2r	.	2r	.	2r	.	2ryy	.	2r	.	4G/ 4e	.	[2B-\ [2b-	<	4G\ 4en	.	4G\	.	4eeX/	[2b-\	.	4e\	.	(4een/	[2b-\	.	4gg\)	.	2r	.
.	.	.	.	12G/	.	.	.	.	.	.	.	.	.	.	.	.	.	.	.	.	.	.	.	.	.	.	.	.	.	.	.	.	.	.	.	.	.	.	.	.	.	.	.	.	.	.	.	.	.	.	.	.	.	.	.	.
.	.	.	.	.	.	.	.	.	.	.	8G\ 8B-	.	8e\ 8g	-ne	.	.	8e/	.	8ee\	-stig	.	.	.	.	.	.	.	.	.	.	.	.	.	.	.	.	.	.	.	.	.	.	.	.	.	.	.	.	.	.	.	.	.	.	.	.
.	.	.	.	12G/J	.	.	.	.	.	.	.	.	.	.	.	.	.	.	.	.	.	.	.	.	.	.	.	.	.	.	.	.	.	.	.	.	.	.	.	.	.	.	.	.	.	.	.	.	.	.	.	.	.	.	.	.
!	!	!	!	!	!	!	!LO:HP:t=cresc&colon;	!	!	!	!	!	!	!	!	!	!	!	!	!	!	!	!	!	!	!	!	!	!	!	!	!	!	!	!	!	!	!	!	!	!	!	!	!	!	!	!	!	!	!	!	!	!	!LO:HP:a	!	!
.	.	.	.	.	.	(16qqb-/LL	<	(16qqbb-/LL	<	.	.	.	.	.	.	.	.	.	.	.	.	.	.	.	.	.	.	.	.	.	.	.	.	.	.	.	.	.	.	.	.	.	.	.	.	.	.	.	.	.	.	.	16qqddd/LL	<	.	.
.	.	.	.	.	.	16qqa/JJ	.	16qqaa/JJ	.	.	.	.	.	.	.	.	.	.	.	.	.	.	.	.	.	.	.	.	.	.	.	.	.	.	.	.	.	.	.	.	.	.	.	.	.	.	.	.	.	.	.	.	16qqccc#X/JJ	.	.	.
!	!	!	!LO:HP:a:t=cresc&colon;	!LO:TUP:b	!	!	!	!	!	!	!	!	!	!	!	!	!	!	!	!	!	!	!	!	!	!	!	!	!	!	!	!	!	!	!	!	!	!	!	!	!	!	!	!	!	!	!	!	!	!	!	!	!	!	!	!
.	.	4e-X\	<	12G-X/L	<	4b-\)	.	4bb-\)	.	.	4G-X\ 4B-	.	4e\ [4b-	reu'n!	.	.	4e-XTT</	.	4ee-X\	sein	.	.	.	.	[4bb-\	Wort!-	.	.	.	.	.	.	.	.	.	.	4G-X/ 4e-X	<	.	.	4G-X\ 4e-X	<	4G-X\	<	4ee-/	.	<	4e-X\	<	4ee-X/	.	<	4ddd\	.	.	.
.	.	.	.	12G-/	.	.	.	.	.	.	.	.	.	.	.	.	.	.	.	.	.	.	.	.	.	.	.	.	.	.	.	.	.	.	.	.	.	.	.	.	.	.	.	.	.	.	.	.	.	.	.	.	.	.	.	.
.	.	.	.	12G-/J	.	.	.	.	.	.	.	.	.	.	.	.	.	.	.	.	.	.	.	.	.	.	.	.	.	.	.	.	.	.	.	.	.	.	.	.	.	.	.	.	.	.	.	.	.	.	.	.	.	.	.	.
=43	=43	=43	=43	=43	=43	=43	=43	=43	=43	=43	=43	=43	=43	=43	=43	=43	=43	=43	=43	=43	=43	=43	=43	=43	=43	=43	=43	=43	=43	=43	=43	=43	=43	=43	=43	=43	=43	=43	=43	=43	=43	=43	=43	=43	=43	=43	=43	=43	=43	=43	=43	=43	=43	=43	=43	=43
.	.	.	.	.	.	(16qqdd/LL	.	(16qqddd/LL	.	.	.	.	.	.	.	.	.	.	.	.	.	.	.	.	.	.	.	.	.	.	.	.	.	.	.	.	.	.	.	.	.	.	.	.	.	.	.	.	.	.	.	.	(16qqddd/LL	.	.	.
!	!	!	!	!	!	!	!	!	!	!	!	!	!	!	!	!	!	!	!LO:TX:t=P:problem:nieczytelne słowo/niedopasowane do libretta	!	!	!	!	!	!	!	!	!	!	!	!	!	!	!	!	!	!	!	!	!	!	!	!	!	!	!	!	!	!	!	!	!	!	!	!	!
.	.	.	.	.	.	16qqcc#X/JJ	.	16qqccc#X/JJ	.	.	.	.	.	.	.	.	.	.	.	.	.	.	.	.	.	.	.	.	.	.	.	.	.	.	.	.	.	.	.	.	.	.	.	.	.	.	.	.	.	.	.	.	16qqccc#X/JJ	.	.	.
*	*	*	*	*	*	*	*	*	*	*	*	*	*^	*	*	*	*	*	*	*	*	*	*	*	*	*	*	*	*	*	*	*	*	*	*	*	*^	*	*^	*	*	*	*	*	*	*	*	*	*	*	*	*	*	*	*	*
4f\	<	4d\	.	4F/	.	4dd\)	.	4ddd\)	.	2ryy	4F\ 4B-	.	4d\ 4b-]	4ryy	Das	2ryy	.	4d/	.	4dd\	nein,	2r	.	2r	.	8bb-\]	.	2r	.	2r	.	2r	.	2ryy	.	2r	.	4d/	[2F\	.	4B-\] 4b-]	4ryy	.	4F\ 4d	.	4F\)	.	4dd/)	4b-\]	.	4d/)	.	4dd/)	4b-\]	.	4ddd\)	.	2r	.
.	.	.	.	.	.	.	.	.	.	.	.	.	.	.	.	.	.	.	.	.	.	.	.	.	.	8r	.	.	.	.	.	.	.	.	.	.	.	.	.	.	.	.	.	.	.	.	.	.	.	.	.	.	.	.	.	.	.	.	.
*	*	*	*	*	*	*	*	*8va	*	*	*	*	*	*	*	*	*	*	*	*	*	*	*	*	*	*	*	*	*	*	*	*	*	*	*	*	*	*	*	*	*	*	*	*	*	*	*	*	*	*	*	*	*	*	*	*8va	*	*	*
.	.	.	.	.	.	16qqff/LL	.	(16qqfff/LL	.	.	.	.	.	.	.	.	.	.	.	.	.	.	.	.	.	.	.	.	.	.	.	.	.	.	.	.	.	.	.	.	.	.	.	.	.	.	.	.	.	.	.	.	.	.	.	(16qqfff/LL	ff	.	.
!	!	!	!	!	!	!	!	!	!	!	!	!	!	!	!	!	!	!	!	!LO:TX:t=P:problem:nieczytelne słowo/niedopasowane do libretta	!	!	!	!	!	!	!	!	!	!	!	!	!	!	!	!	!	!	!	!	!	!	!	!	!	!	!	!	!	!	!	!	!	!	!	!LO:TX:a:t=a2	!	!	!
.	.	.	.	.	.	16qqeen/JJ	.	16qqeeen/JJ	.	.	.	.	.	.	.	.	.	.	.	.	.	.	.	.	.	.	.	.	.	.	.	.	.	.	.	.	.	.	.	.	.	.	.	.	.	.	.	.	.	.	.	.	.	.	.	16qqeee#/JJ	.	.	.
*	*	*	*	*	*	*	*	*	*	*	*	*	*	*	*	*	*	*	*	*	*	*	*	*	*	*	*	*	*	*	*	*	*	*	*	*	*	*	*	*	*v	*v	*	*	*	*	*	*v	*v	*	*	*	*v	*v	*	*	*	*	*
*	*	*	*	*	*	*	*	*	*	*	*	*	*v	*v	*	*	*	*	*	*	*	*	*	*	*	*	*	*	*	*	*	*	*	*	*	*	*	*	*	*	*	*	*	*	*	*	*	*	*	*	*	*	*	*	*	*
*	*	*	*	*	*	*	*	*	*	*	*	*	*	*	*	*	*	*	*	*	*	*	*	*	*	*	*	*	*	*	*	*	*	*	*	*	*	*	*	*	*	*	*	*	*	*	*	*	*	*	*	*	*	*	*
*	*	*	*	*	*	*	*	*	*	*	*	*	*^	*	*	*	*	*	*	*	*	*	*	*	*	*	*	*	*	*	*	*	*	*	*	*	*	*	*	*^	*	*	*	*	*	*^	*	*	*	*^	*	*	*	*	*
4e-\	.	4c\	.	4E-/	.	[4ff\	.	[4fff\)	.	.	4E-\ 4A	.	4c\	4ra	kann	.	.	[4f/	.	4cc\	nein,	.	.	.	.	4r	.	.	.	.	.	.	.	.	.	.	.	4c/	.	.	4a/	[4f\	.	4E-\ 4A	.	(4E-\	.	([4f\ 4cc	4ryy	.	(4c/	.	(>[4f/ 4cc	4ryy	.	[4fff\)	.	.	.
*	*	*	*	*	*	*	*	*	*	*	*	*	*	*	*	*	*	*	*	*	*	*	*	*	*	*	*	*	*	*	*	*	*	*	*	*	*	*	*	*	*	*	*	*	*	*	*	*v	*v	*	*	*	*v	*v	*	*	*	*	*
*	*	*	*	*	*	*	*	*	*	*	*	*	*v	*v	*	*	*	*	*	*	*	*	*	*	*	*	*	*	*	*	*	*	*	*	*	*	*	*	*	*	*	*	*	*	*	*	*	*	*	*	*	*	*	*	*	*	*
=44	=44	=44	=44	=44	=44	=44	=44	=44	=44	=44	=44	=44	=44	=44	=44	=44	=44	=44	=44	=44	=44	=44	=44	=44	=44	=44	=44	=44	=44	=44	=44	=44	=44	=44	=44	=44	=44	=44	=44	=44	=44	=44	=44	=44	=44	=44	=44	=44	=44	=44	=44	=44	=44	=44	=44	=44
*	*	*	*	*	*	*	*	*	*	*	*	*	*	*	*	*	*	*	*	*	*	*	*	*	*	*	*	*	*^	*	*	*	*	*	*	*	*	*	*	*	*	*	*^	*	*	*	*	*	*	*	*	*	*	*	*	*
!	!	!	!	!	!	!	!	!	!	!	!	!	!	!	!	!	!	!	!LO:TX:t=P:problem:nieczytelne słowo/niedopasowane do libretta	!	!	!	!	!	!	!	!LO:TX:a:i:t=Timp in C.F.H.	!	!	!	!LO:HP:a	!	!	!	!	!	!	!	!	!	!	!	!	!	!	!	!	!	!	!	!	!	!	!	!	!	!	!
4d\	.	4B-\	.	4D/	.	4ff\]	.	4fff\]	.	2ryy	8D\ 8B-	.	8f\	kei-	2ryy	.	8f/]	.	4ff\	nein!	2r	.	2r	.	2r	.	2r	.	4D/	2r	<	2r	.	2ryy	.	2r	.	4f/	4F\]	.	2b-/	4f\]	.	[2B-/	4D\	.	4D\)	.	4f/]) 4b-	.	4B-/)	.	4f/]) 4b-	.	4fff\]	.	2r	.
.	.	.	.	.	.	.	.	.	.	.	8D\ 8B-	.	8f\	-ne	.	.	8r	.	.	.	.	.	.	.	.	.	.	.	.	.	.	.	.	.	.	.	.	.	.	.	.	.	.	.	.	.	.	.	.	.	.	.	.	.	.	.	.	.
.	.	.	.	.	.	(16qqff/LL	ff	(16qqfff/LL	ff	.	.	.	.	.	.	.	.	.	.	.	.	.	.	.	.	.	.	.	.	.	.	.	.	.	.	.	.	.	.	.	.	.	.	.	.	.	.	.	.	.	.	.	.	.	(16qqfff/LL	.	.	.
.	.	.	.	.	.	16qqeen/JJ	.	16qqeeen/JJ	.	.	.	.	.	.	.	.	.	.	.	.	.	.	.	.	.	.	.	.	.	.	.	.	.	.	.	.	.	.	.	.	.	.	.	.	.	.	.	.	.	.	.	.	.	.	16qqeeen/JJ	.	.	.
4d-X\	.	4D-X\	.	4B-/	.	[4ff\)	.	[4fff\)	.	.	4D-X\ 4B-	.	4en\	reu'n!	.	.	4g/	.	4een\	die	.	.	.	.	.	.	.	.	4D-X/	.	.	.	.	.	.	.	.	4B-/ 4g	4ryy	.	.	4enX\	.	.	4D-X\	.	(4D-X\	.	(4eX/ [4g	.	(4e\	.	[4g/ [4b-	.	[4fff\)	.	.	.
*	*	*	*	*	*	*	*	*	*	*	*	*	*	*	*	*	*	*	*	*	*	*	*	*	*	*	*	*	*	*	*	*	*	*	*	*	*	*v	*v	*	*	*	*	*	*	*	*	*	*	*	*	*	*	*	*	*	*	*
*	*	*	*	*	*	*	*	*	*	*	*	*	*	*	*	*	*	*	*	*	*	*	*	*	*	*	*	*	*	*	*	*	*	*	*	*	*	*	*	*v	*v	*	*	*	*	*	*	*	*	*	*	*	*	*	*	*	*
=45	=45	=45	=45	=45	=45	=45	=45	=45	=45	=45	=45	=45	=45	=45	=45	=45	=45	=45	=45	=45	=45	=45	=45	=45	=45	=45	=45	=45	=45	=45	=45	=45	=45	=45	=45	=45	=45	=45	=45	=45	=45	=45	=45	=45	=45	=45	=45	=45	=45	=45	=45	=45	=45	=45	=45	=45
*	*	*	*	*	*	*	*	*	*	*	*	*	*^	*	*	*	*	*	*	*	*	*	*	*	*	*	*	*	*	*	*	*	*	*	*	*	*	*	*	*	*	*	*	*	*	*	*	*	*	*	*	*	*	*	*	*
!	!	!	!	!	!LO:DY:rj	!	!	!	!	!	!	!	!	!	!	!	!	!	!	!	!	!	!	!	!	!	!	!	!	!	!	!LO:DY:rj	!	!LO:DY:rj	!	!	!	!LO:DY:rj	!	!LO:DY:rj	!	!LO:DY:rj	!	!	!	!	!	!	!	!	!	!	!	!	!	!	!
4.c\	.	4.C/	.	(16C/LL	ff	4ff\]	.	4fff\]	.	2ryy	4.C\ 4.G	.	4.e-/	4.e-X\	Hop	2ryy	.	4g/	.	4ee-X\	macht	8r	.	2r	.	2r	.	8Ra/	.	4.C/	4.C\	f	4.G\ 4.e-	f	2ryy	.	4.g\ 4.ee-	f	4.B-/ 4.g	f	4.e-X\ 4.b-	f	4B-/]	4C\	.	4C\)	.	4e-X/) 4g]	.	4e-X\)	.	8g/] 8b-]	.	4fff\]	.	2r	.
.	.	.	.	16G/	.	.	.	.	.	.	.	.	.	.	.	.	.	.	.	.	.	.	.	.	.	.	.	.	.	.	.	.	.	.	.	.	.	.	.	.	.	.	.	.	.	.	.	.	.	.	.	.	.	.	.	.	.
.	.	.	.	16c/	.	.	.	.	.	.	.	.	.	.	.	.	.	.	.	.	.	8G\	zu-	.	.	.	.	8r	.	.	.	.	.	.	.	.	.	.	.	.	.	.	.	.	.	.	.	.	.	.	.	8r	.	.	.	.	.
.	.	.	.	16cc/JJ)	.	.	.	.	.	.	.	.	.	.	.	.	.	.	.	.	.	.	.	.	.	.	.	.	.	.	.	.	.	.	.	.	.	.	.	.	.	.	.	.	.	.	.	.	.	.	.	.	.	.	.	.	.
!	!	!	!	!	!	!	!	!LO:N:head=invis	!	!	!	!	!	!	!	!	!	!	!	!	!	!	!	!	!	!	!	!	!	!	!	!	!	!	!	!	!	!	!	!	!	!	!	!	!	!	!	!	!	!	!	!	!	!	!	!	!
.	.	.	.	.	.	(16qqff/LL	.	(16qqfff/LL	.	.	.	.	.	.	.	.	.	.	.	.	.	.	.	.	.	.	.	.	.	.	.	.	.	.	.	.	.	.	.	.	.	.	.	.	.	.	.	.	.	.	.	(16qqff/LL	f	(16qqfff/LL	.	.	.
!	!	!	!	!	!	!	!	!	!	!	!	!	!	!	!	!	!	!	!	!	!	!	!	!	!	!	!	!	!	!	!	!	!	!	!	!	!	!	!	!	!	!	!	!	!	!	!	!	!	!	!	!LO:TX:a:t=à2:rj	!	!	!	!	!
.	.	.	.	.	.	16qqeen/JJ	.	16qqcccc/JJ	.	.	.	.	.	.	.	.	.	.	.	.	.	.	.	.	.	.	.	.	.	.	.	.	.	.	.	.	.	.	.	.	.	.	.	.	.	.	.	.	.	.	.	16qqeen/JJ	.	16qqeeen/JJ	.	.	.
!	!	!	!	!	!	!	!	!	!	!	!	!	!	!	!	!	!	!	!	!	!	!	!	!	!	!	!	!	!	!	!	!	!	!	!	!	!	!	!	!	!	!	!	!	!	!	!LO:DY:rj	!	!LO:DY:rj	!	!	!	!	!	!	!	!
.	.	.	.	(8cc'/L	.	[4ff\)	.	[4fff\)	.	.	.	.	.	.	.	.	.	8g/	.	8ee-\	ihr	4e-\	-rück!	.	.	.	.	8r	.	.	.	.	.	.	.	.	.	.	.	.	.	.	8C/L 8G	4ryy	f	8B-\L	f	8g/L 8b-	f	8e-/L	f	[4ff\)	.	[4fff\)	.	.	.
8F\	.	8F\	.	8A'/J) 8f	.	.	.	.	.	.	8F\ 8A	.	8c/	8A\	hop	.	.	8a/	.	8cc\	nicht	.	.	.	.	.	.	8Rd/	.	8C/	8FF\	.	8A\ 8c	.	.	.	8f\ 8cc	.	8A/ 8f	.	8c\ 8a	.	8FF/J 8F	.	.	8A\J	.	8f/J 8a	.	8c/J	.	.	.	.	.	.	.
*	*	*	*	*	*	*	*	*	*	*	*	*	*v	*v	*	*	*	*	*	*	*	*	*	*	*	*	*	*	*	*	*	*	*	*	*	*	*	*	*	*	*	*	*v	*v	*	*	*	*	*	*	*	*	*	*	*	*	*
!!LO:PB:g=original  
=46	=46	=46	=46	=46	=46	=46	=46	=46	=46	=46	=46	=46	=46	=46	=46	=46	=46	=46	=46	=46	=46	=46	=46	=46	=46	=46	=46	=46	=46	=46	=46	=46	=46	=46	=46	=46	=46	=46	=46	=46	=46	=46	=46	=46	=46	=46	=46	=46	=46	=46	=46	=46	=46	=46	=46
4.c\	.	4.C/	.	(16G/LL 16e-	.	4ff\]	.	4fff\]	.	2ryy	4.C\ 4.G	.	4.B-\ 4.e-	hop	2ryy	.	[4f/	.	[4ff\	heiß	8r	.	2r	.	2r	.	8Ra/	.	4.C/	8C\	.	4.G\ 4.e-	.	2ryy	.	4.g\ 4.ee-	.	4.B-/ 4.g	.	4.e-X\ 4.b-	.	4C\ 4G	.	4B-\	.	4g\ 4b-	.	4e-\	.	4ff\]	.	4fff\]	.	2r	.
.	.	.	.	16C/	.	.	.	.	.	.	.	.	.	.	.	.	.	.	.	.	.	.	.	.	.	.	.	.	.	.	.	.	.	.	.	.	.	.	.	.	.	.	.	.	.	.	.	.	.	.	.	.	.	.	.
.	.	.	.	16G/ 16e-	.	.	.	.	.	.	.	.	.	.	.	.	.	.	.	.	8G\	zu-	.	.	.	.	8r	.	.	8r	.	.	.	.	.	.	.	.	.	.	.	.	.	.	.	.	.	.	.	.	.	.	.	.	.
.	.	.	.	16cc/JJ)	.	.	.	.	.	.	.	.	.	.	.	.	.	.	.	.	.	.	.	.	.	.	.	.	.	.	.	.	.	.	.	.	.	.	.	.	.	.	.	.	.	.	.	.	.	.	.	.	.	.	.
.	.	.	.	.	.	(16qqff/LL	.	(16qqfff/LL	.	.	.	.	.	.	.	.	.	.	.	.	.	.	.	.	.	.	.	.	.	.	.	.	.	.	.	.	.	.	.	.	.	.	.	.	.	.	.	.	.	(16qqff/LL	.	(16qqfff/LL	.	.	.
.	.	.	.	.	.	16qqeen/JJ	.	16qqcccc/JJ	.	.	.	.	.	.	.	.	.	.	.	.	.	.	.	.	.	.	.	.	.	.	.	.	.	.	.	.	.	.	.	.	.	.	.	.	.	.	.	.	.	16qqeen/JJ	.	16qqeeen/JJ	.	.	.
.	.	.	.	(8cc'/L	.	[4ff\)	.	[<4fff\)	.	.	.	.	.	.	.	.	8f/]	.	8ff\]	.	4e-\	-rück!	.	.	.	.	8r	.	.	8r	.	.	.	.	.	.	.	.	.	.	.	8C\L 8G	.	8B-\L	.	8g/L 8b-	.	8e-/L	.	[4ff\)	.	[4fff\)	.	.	.
8F\	.	8F\	.	8A'/J) 8f	.	.	.	.	.	.	8F\ 8A	.	8A\ 8c	hop	.	.	8r	.	8r	.	.	.	.	.	.	.	8Rd/	.	8C/	8FF\	.	8A\ 8c	.	.	.	8f\ 8cc	.	8A/ 8f	.	8c\ 8a	.	8FF\J 8F	.	8A\J	.	8f/J 8a	.	8c/J	.	.	.	.	.	.	.
=47	=47	=47	=47	=47	=47	=47	=47	=47	=47	=47	=47	=47	=47	=47	=47	=47	=47	=47	=47	=47	=47	=47	=47	=47	=47	=47	=47	=47	=47	=47	=47	=47	=47	=47	=47	=47	=47	=47	=47	=47	=47	=47	=47	=47	=47	=47	=47	=47	=47	=47	=47	=47	=47	=47	=47
4C/	.	4C/	.	(16G/LL 16e-	.	4ff\]	.	4fff\]	.	2ryy	4C\ 4G	.	8B-\ 8e-	hop!	2ryy	.	8g/	.	8ee-\	laßt	2r	.	2r	.	2r	.	8Ra/	.	4C/	8FF\	.	4G\ 4e-	.	2ryy	.	4g\ 4ee-	.	4B-/ 4g	.	4e-X\ 4b-	.	4C\ 4G	.	4B-\	.	4g/ 4b-	.	4e-/	.	4ff\]	.	4fff\]	.	2r	.
.	.	.	.	16C/	.	.	.	.	.	.	.	.	.	.	.	.	.	.	.	.	.	.	.	.	.	.	.	.	.	.	.	.	.	.	.	.	.	.	.	.	.	.	.	.	.	.	.	.	.	.	.	.	.	.	.
.	.	.	.	16G/ 16e-	.	.	.	.	.	.	.	.	8r	.	.	.	8g/	.	8ee-\	sie	.	.	.	.	.	.	8r	.	.	8r	.	.	.	.	.	.	.	.	.	.	.	.	.	.	.	.	.	.	.	.	.	.	.	.	.
.	.	.	.	16cc/JJ)	.	.	.	.	.	.	.	.	.	.	.	.	.	.	.	.	.	.	.	.	.	.	.	.	.	.	.	.	.	.	.	.	.	.	.	.	.	.	.	.	.	.	.	.	.	.	.	.	.	.	.
.	.	.	.	.	.	(16qqff/LL	.	(16qqfff/LL	.	.	.	.	.	.	.	.	.	.	.	.	.	.	.	.	.	.	.	.	.	.	.	.	.	.	.	.	.	.	.	.	.	.	.	.	.	.	.	.	.	(16qqff/LL	.	(16qqfff/LL	.	.	.
.	.	.	.	.	.	16qqeen/JJ	.	16qqcccc/JJ	.	.	.	.	.	.	.	.	.	.	.	.	.	.	.	.	.	.	.	.	.	.	.	.	.	.	.	.	.	.	.	.	.	.	.	.	.	.	.	.	.	16qqeen/JJ	.	16qqeeen/JJ	.	.	.
4F\	.	4F\	.	4Att\ 4f	.	[4ff\)	.	[4fff\)	.	.	4r	.	4r	.	.	.	8a/	.	8cc\	aus	.	.	.	.	.	.	4RdTT/	.	4C/	4FF\	.	4A\ 4c	.	.	.	4f\ 4cc	.	4A/ 4f	.	4c\ 4a	.	4FF/ 4F	.	4A\	.	4f/ 4a	.	4c/	.	[4ff\)	.	[4fff\)	.	.	.
.	.	.	.	.	.	.	.	.	.	.	.	.	.	.	.	.	8a/	.	8cc\	dem	.	.	.	.	.	.	.	.	.	.	.	.	.	.	.	.	.	.	.	.	.	.	.	.	.	.	.	.	.	.	.	.	.	.	.
=48	=48	=48	=48	=48	=48	=48	=48	=48	=48	=48	=48	=48	=48	=48	=48	=48	=48	=48	=48	=48	=48	=48	=48	=48	=48	=48	=48	=48	=48	=48	=48	=48	=48	=48	=48	=48	=48	=48	=48	=48	=48	=48	=48	=48	=48	=48	=48	=48	=48	=48	=48	=48	=48	=48	=48
*	*	*	*	*	*	*	*	*	*	*	*	*	*^	*	*	*	*	*	*	*	*	*	*	*	*	*	*	*	*	*	*	*	*	*	*	*	*	*	*	*	*	*	*	*	*	*	*	*	*	*	*	*	*	*	*
4C/	.	4C/	.	(16G/LL 16e-	.	4ff\]	.	4fff\]	.	2ryy	4r	.	4r	4ryy	.	2ryy	.	[2f/	.	[2ff\	Kreis!-	8r	.	2r	.	2r	.	8Ra/	.	4C/	8C\	.	4G\ 4e-	.	2ryy	.	4g\ 4ee-	.	4B-/ 4g	.	4e-X\ 4b-	.	4C\ 4G	.	4B-\	.	4g/ 4b-	.	4e-/	.	4ff\]	.	4fff\]	.	2r	.
.	.	.	.	16C/	.	.	.	.	.	.	.	.	.	.	.	.	.	.	.	.	.	.	.	.	.	.	.	.	.	.	.	.	.	.	.	.	.	.	.	.	.	.	.	.	.	.	.	.	.	.	.	.	.	.	.	.
.	.	.	.	16G/ 16e-	.	.	.	.	.	.	.	.	.	.	.	.	.	.	.	.	.	8F\	ver-	.	.	.	.	8r	.	.	8r	.	.	.	.	.	.	.	.	.	.	.	.	.	.	.	.	.	.	.	.	.	.	.	.	.
.	.	.	.	16cc/JJ)	.	.	.	.	.	.	.	.	.	.	.	.	.	.	.	.	.	.	.	.	.	.	.	.	.	.	.	.	.	.	.	.	.	.	.	.	.	.	.	.	.	.	.	.	.	.	.	.	.	.	.	.
.	.	.	.	.	.	(16qqff/LL	.	(16qqfff/LL	.	.	.	.	.	.	.	.	.	.	.	.	.	.	.	.	.	.	.	.	.	.	.	.	.	.	.	.	.	.	.	.	.	.	.	.	.	.	.	.	.	.	(16qqff/LL	.	(16qqfff/LL	.	.	.
.	.	.	.	.	.	16qqeen/JJ	.	16qqcccc/JJ	.	.	.	.	.	.	.	.	.	.	.	.	.	.	.	.	.	.	.	.	.	.	.	.	.	.	.	.	.	.	.	.	.	.	.	.	.	.	.	.	.	.	16qqeen/JJ	.	16qqeeen/JJ	.	.	.
4F\	.	4F\	.	4Att\ 4f	.	4ff\)	.	4fff\)	.	.	8F\ 8A	.	8c/	8c\	Rund-	.	.	.	.	.	.	8c\	-damm-	.	.	.	.	4RdTT/	.	4C/	4FF\	.	4A\ 4c	.	.	.	4f\ 4cc	.	4A/ 4f	.	4c\ 4a	.	4FF/ 4F	.	4A\	.	4f/ 4a	.	4c/	.	4ff\)	.	4fff\)	.	.	.
.	.	.	.	.	.	.	.	.	.	.	8F\ 8A	.	8c/	8c\	-he-	.	.	.	.	.	.	8F\	-te	.	.	.	.	.	.	.	.	.	.	.	.	.	.	.	.	.	.	.	.	.	.	.	.	.	.	.	.	.	.	.	.	.
=49	=49	=49	=49	=49	=49	=49	=49	=49	=49	=49	=49	=49	=49	=49	=49	=49	=49	=49	=49	=49	=49	=49	=49	=49	=49	=49	=49	=49	=49	=49	=49	=49	=49	=49	=49	=49	=49	=49	=49	=49	=49	=49	=49	=49	=49	=49	=49	=49	=49	=49	=49	=49	=49	=49	=49	=49
.	.	.	.	.	.	(16qqff/LL	.	(16qqfff/LL	.	.	.	.	.	.	.	.	.	.	.	.	.	.	.	.	.	.	.	.	.	.	.	.	.	.	.	.	.	.	.	.	.	.	.	.	.	.	.	.	.	.	(16qqff/LL	.	(16qqfff/LL	.	.	.
.	.	.	.	.	.	16qqeen/JJ	.	16qqcccc/JJ	.	.	.	.	.	.	.	.	.	.	.	.	.	.	.	.	.	.	.	.	.	.	.	.	.	.	.	.	.	.	.	.	.	.	.	.	.	.	.	.	.	.	16qqeen/JJ	.	16qqeeen/JJ	.	.	.
*	*	*	*	*	*	*	*	*	*	*	*	*	*	*	*	*	*	*	*	*	*	*	*	*	*	*	*	*	*	*	*	*	*	*	*	*	*^	*	*	*	*	*	*	*	*	*	*	*	*	*	*	*	*	*	*	*
!	!	!	!	!	!	!	!	!	!	!	!	!	!	!	!	!	!	!	!	!	!	!	!	!LO:TX:a:t=(Am hügeligen Waldesand ecscheint Manru und blicht zonig afu die Tanzenden)	!	!	!	!	!	!	!	!	!	!	!	!	!	!	!	!	!	!	!	!	!	!	!	!	!	!	!	!	!	!	!	!	!
2C/	.	2C/	.	(16G/LL 16e-	.	4ff\)	.	4fff\)	.	2ryy	[2C\ [2c	.	[2e-/	2e-\	-rum!-	2ryy	.	4f/]	.	4ff\]	.	4e-\	brut!	2r	.	2r	.	4Ra/	.	2C/	2C\	.	[2G\ [2e-	.	2ryy	.	[2ee-/	2g\	.	2B-/ 2g	.	[2e-X\ 2b-	.	2C\ 2G	.	2B-\	.	2g\ 2b-	.	[2e-\	.	4ff\)	.	4fff\)	.	2r	.
.	.	.	.	16C/	.	.	.	.	.	.	.	.	.	.	.	.	.	.	.	.	.	.	.	.	.	.	.	.	.	.	.	.	.	.	.	.	.	.	.	.	.	.	.	.	.	.	.	.	.	.	.	.	.	.	.	.	.
.	.	.	.	16G/ 16e-	.	.	.	.	.	.	.	.	.	.	.	.	.	.	.	.	.	.	.	.	.	.	.	.	.	.	.	.	.	.	.	.	.	.	.	.	.	.	.	.	.	.	.	.	.	.	.	.	.	.	.	.	.
.	.	.	.	16cc/JJ)	.	.	.	.	.	.	.	.	.	.	.	.	.	.	.	.	.	.	.	.	.	.	.	.	.	.	.	.	.	.	.	.	.	.	.	.	.	.	.	.	.	.	.	.	.	.	.	.	.	.	.	.	.
.	.	.	.	.	.	(16qqff/LL	.	(16qqfff/LL	.	.	.	.	.	.	.	.	.	.	.	.	.	.	.	.	.	.	.	.	.	.	.	.	.	.	.	.	.	.	.	.	.	.	.	.	.	.	.	.	.	.	.	(16qqff/LL	.	(16qqfff/LL	.	.	.
.	.	.	.	.	.	16qqee/JJ	.	16qqcccc/JJ	.	.	.	.	.	.	.	.	.	.	.	.	.	.	.	.	.	.	.	.	.	.	.	.	.	.	.	.	.	.	.	.	.	.	.	.	.	.	.	.	.	.	.	16qqeenX/JJ	.	16qqeee/JJ	.	.	.
.	.	.	.	(16G/LL 16e-	.	4ff\)	.	4fff\)	.	.	.	.	.	.	.	.	.	4r	.	4r	.	4r	.	.	.	.	.	4r	.	.	.	.	.	.	.	.	.	.	.	.	.	.	.	.	.	.	.	.	.	.	.	4ff\)	.	4fff\)	.	.	.
.	.	.	.	16C/	.	.	.	.	.	.	.	.	.	.	.	.	.	.	.	.	.	.	.	.	.	.	.	.	.	.	.	.	.	.	.	.	.	.	.	.	.	.	.	.	.	.	.	.	.	.	.	.	.	.	.	.	.
.	.	.	.	16G/ 16e-	.	.	.	.	.	.	.	.	.	.	.	.	.	.	.	.	.	.	.	.	.	.	.	.	.	.	.	.	.	.	.	.	.	.	.	.	.	.	.	.	.	.	.	.	.	.	.	.	.	.	.	.	.
.	.	.	.	16cc/JJ)	.	.	.	.	.	.	.	.	.	.	.	.	.	.	.	.	.	.	.	.	.	.	.	.	.	.	.	.	.	.	.	.	.	.	.	.	.	.	.	.	.	.	.	.	.	.	.	.	.	.	.	.	.
=50	=50	=50	=50	=50	=50	=50	=50	=50	=50	=50	=50	=50	=50	=50	=50	=50	=50	=50	=50	=50	=50	=50	=50	=50	=50	=50	=50	=50	=50	=50	=50	=50	=50	=50	=50	=50	=50	=50	=50	=50	=50	=50	=50	=50	=50	=50	=50	=50	=50	=50	=50	=50	=50	=50	=50	=50	=50
.	.	.	.	.	.	(16qqff/LL	.	(16qqfff/LL	.	.	.	.	.	.	.	.	.	.	.	.	.	.	.	.	.	.	.	.	.	.	.	.	.	.	.	.	.	.	.	.	.	.	.	.	.	.	.	.	.	.	.	(16qqff/LL	.	(16qqfff/LL	.	.	.
!	!	!	!	!	!	!	!	!	!	!	!	!	!	!	!	!	!	!	!	!	!	!	!	!	!	!	!	!	!	!	!	!	!	!	!	!	!	!	!	!	!	!	!	!	!	!	!	!	!	!	!	!	!	!	!	!LO:TX:a:t=IX.Scene.	!
.	.	.	.	.	.	16qqeen/JJ	.	16qqcccc/JJ	.	.	.	.	.	.	.	.	.	.	.	.	.	.	.	.	.	.	.	.	.	.	.	.	.	.	.	.	.	.	.	.	.	.	.	.	.	.	.	.	.	.	.	16qqeen/JJ	.	16qqeeen/JJ	.	.	.
!	!	!	!	!	!	!	!	!	!	!	!	!	!	!	!	!	!	!	!	!	!	!	!	!LO:TX:a:i:t=Manru	!	!	!	!	!	!	!	!LO:HP:a	!	!LO:HP:a	!	!	!	!	!	!	!	!	!	!	!	!	!	!	!	!	!	!	!	!	!	!	!
2F\	.	2F\	.	2Att\ 2f	.	4ff\)	.	4fff\)	.	2ryy	4C\] 4c]	.	4e-/]	4e-\	.	2ryy	.	2r	.	2r	.	2r	.	4r	.	2r	.	4Rd/	f	[2F/	(2FF\	>	(<2G\] 2e-_	>]	2ryy	.	2ee-/_	[2f\	>	2A/ 2f	.	2e-X\] 2a	.	(2FF/ 2F	.	(2A\	.	[2f/ (>2a	.	2e-\_	.	4ff\)	.	4fff\)	.	2r	.
.	.	.	.	.	.	.	.	.	.	.	.	.	.	.	.	.	.	.	.	.	.	.	.	.	.	.	.	.	.	.	.	.	.	.	.	.	.	.	.	.	.	.	.	.	.	.	.	.	.	.	.	(16qqff/LL	.	(16qqfff/LL	.	.	.
.	.	.	.	.	.	.	.	.	.	.	.	.	.	.	.	.	.	.	.	.	.	.	.	.	.	.	.	.	.	.	.	.	.	.	.	.	.	.	.	.	.	.	.	.	.	.	.	.	.	.	.	16qqee/JJ	.	16qqeee/JJ	.	.	.
.	.	.	.	.	.	(16ff\LL	<	(16fff\LL	<	.	4r	.	4r	4ryy	.	.	.	.	.	.	.	.	.	4f\	U-	.	.	4r	.	.	.	.	.	.	.	.	.	.	.	.	.	.	.	.	.	.	.	.	.	.	.	4ff\)	<	4fff\)	<	.	.
.	.	.	.	.	.	16ee\	.	16eeen\	.	.	.	.	.	.	.	.	.	.	.	.	.	.	.	.	.	.	.	.	.	.	.	.	.	.	.	.	.	.	.	.	.	.	.	.	.	.	.	.	.	.	.	.	.	.	.	.	.
.	.	.	.	.	.	16ff\	.	16fff\	.	.	.	.	.	.	.	.	.	.	.	.	.	.	.	.	.	.	.	.	.	.	.	.	.	.	.	.	.	.	.	.	.	.	.	.	.	.	.	.	.	.	.	.	.	.	.	.	.
.	.	.	.	.	.	16gg\JJ	.	16ggg\JJ	.	.	.	.	.	.	.	.	.	.	.	.	.	.	.	.	.	.	.	.	.	.	.	.	.	.	.	.	.	.	.	.	.	.	.	.	.	.	.	.	.	.	.	.	.	.	.	.	.
*	*	*	*	*	*	*	*	*	*	*	*	*	*v	*v	*	*	*	*	*	*	*	*	*	*	*	*	*	*	*	*	*	*	*	*	*	*	*	*	*	*	*	*	*	*	*	*	*	*	*	*	*	*	*	*	*	*	*
=51	=51	=51	=51	=51	=51	=51	=51	=51	=51	=51	=51	=51	=51	=51	=51	=51	=51	=51	=51	=51	=51	=51	=51	=51	=51	=51	=51	=51	=51	=51	=51	=51	=51	=51	=51	=51	=51	=51	=51	=51	=51	=51	=51	=51	=51	=51	=51	=51	=51	=51	=51	=51	=51	=51	=51	=51
*	*	*	*	*	*	*	*	*	*	*	*	*	*	*	*	*	*	*	*	*	*	*	*	*	*	*	*	*	*	*	*	*	*	*	*	*	*	*	*	*	*	*	*^	*	*	*	*	*	*	*	*	*	*^	*	*	*
!!LO:TX:a:i:B:t=76
!LO:TX:b:i:B:t=76	!	!	!	!	!	!	!	!LO:TX:a:B:t=76	!	!	!	!	!	!	!	!	!	!	!	!	!	!	!	!	!LO:TX:a:t=76	!	!	!	!	!	!	!	!	!	!	!	!	!	!	!	!	!	!	!	!	!	!	!	!	!	!	!	!	!	!	!	!LO:TX:a:t=76.	!
[2C-X/	fp	8C-X/	.	8A-Xttt\ 8f	.	8aa-X\)	[	8aaa-X\)	[	2ryy	2r	.	2r	.	2ryy	.	2r	.	2r	.	2r	.	[2a-X\	-la-	2r	.	2RgTT/	fp	8F/]	8C-X\)	]	8A-X\) 8e-]	.	2ryy	.	8ee-/]	8f\]	]	4A-X/ 4f	.	4e-X\ 4a-X	.	4F'/	4C-X\)	.	4A-X\)	.	4f/] 4a-X)	.	4e-\]	.	4ff\ 4aa-X	[	4aaa-X/	4fff\	[ sf	2r	.
*	*	*	*	*	*	*	*	*	*	*	*	*	*	*	*	*	*	*	*	*	*	*	*	*	*	*	*	*	*	*	*	*	*	*	*	*	*	*	*	*	*	*	*	*	*	*	*	*	*	*	*	*	*	*X8va	*	*	*	*
*	*	*	*	*	*	*	*	*	*	*	*	*	*	*	*	*	*	*	*	*	*	*	*	*	*	*	*	*	*v	*v	*	*	*	*	*	*v	*v	*	*	*	*	*	*	*	*	*	*	*	*	*	*	*	*	*	*	*	*	*
*	*	*	*	*	*	*	*	*X8va	*	*	*	*	*	*	*	*	*	*	*	*	*	*	*	*	*	*	*	*	*	*	*	*	*	*	*	*	*	*	*	*	*	*	*	*	*	*	*	*	*	*	*	*	*	*	*	*
*	*	*	*	*	*	*	*	*	*	*	*	*	*	*	*	*	*	*	*	*	*	*	*	*	*	*	*	*	*^	*	*	*	*	*	*^	*	*	*	*	*	*	*	*	*	*	*	*	*	*	*	*	*	*	*	*	*
.	.	8r	.	8r	.	8r	.	8r	.	.	.	.	.	.	.	.	.	.	.	.	.	.	.	.	.	.	.	.	8r	8ryy	.	8r	.	.	.	8r	8r	.	.	.	.	.	.	.	.	.	.	.	.	.	.	.	.	.	.	.	.	.
.	.	4r	.	4r	.	4r	.	4r	.	.	.	.	.	.	.	.	.	.	.	.	.	.	.	.	.	.	.	.	4r	4ryy	.	4r	.	.	.	4r	4r	.	4r	.	4r	.	4r	4ryy	.	4r	.	4r	.	4r	.	4r	.	4r	4ryy	.	.	.
*	*	*	*	*	*	*	*	*	*	*	*	*	*	*	*	*	*	*	*	*	*	*	*	*	*	*	*	*	*v	*v	*	*	*	*	*	*v	*v	*	*	*	*	*	*v	*v	*	*	*	*	*	*	*	*	*	*v	*v	*	*	*
=52	=52	=52	=52	=52	=52	=52	=52	=52	=52	=52	=52	=52	=52	=52	=52	=52	=52	=52	=52	=52	=52	=52	=52	=52	=52	=52	=52	=52	=52	=52	=52	=52	=52	=52	=52	=52	=52	=52	=52	=52	=52	=52	=52	=52	=52	=52	=52	=52	=52	=52	=52	=52	=52	=52
2C-X;/]	.	2r;	.	2r;	.	2r;	.	2r;	.	2ryy	2r;	.	2r;	.	2ryy	.	2r;	.	2r;	.	2r	.	4.a-;\]	.	2r;	.	2RgTTT;/	.	2r;	.	2r;	.	2ryy	.	2r;	.	2r;	.	2r;	.	2r;	.	2r;	.	2r;	.	2r;	.	2r;	.	2r;	.	2r;	.
.	.	.	.	.	.	.	.	.	.	.	.	.	.	.	.	.	.	.	.	.	.	.	8f\	-na!	.	.	.	.	.	.	.	.	.	.	.	.	.	.	.	.	.	.	.	.	.	.	.	.	.	.	.	.	.	.
==	==	==	==	==	==	==	==	==	==	==	==	==	==	==	==	==	==	==	==	==	==	==	==	==	==	==	==	==	==	==	==	==	==	==	==	==	==	==	==	==	==	==	==	==	==	==	==	==	==	==	==	==	==	==
*-	*-	*-	*-	*-	*-	*-	*-	*-	*-	*-	*-	*-	*-	*-	*-	*-	*-	*-	*-	*-	*-	*-	*-	*-	*-	*-	*-	*-	*-	*-	*-	*-	*-	*-	*-	*-	*-	*-	*-	*-	*-	*-	*-	*-	*-	*-	*-	*-	*-	*-	*-	*-	*-	*-
!!!system-decoration: {(s1,s2)}(s3,s4){(s5,s6)}(s7){(s8,s9)}{(s10,s11)}{(s12,s13)}(s14)[(s15)][(s16)][(s17)][(s18,s19,s20)][(s21,s22,s23)]{(s24,s25)}(s26){(s27,s28)}
!!!RDF**kern: < = below
!!!RDF**kern: > = above
!!!ENC: Anastazja Marusiak
!!!END: 2022-12-11
!!!ENC: Marta Chmielewska
!!!END: 2023-07-26
!!!YEC: Copyright 2022 Narodowy Instytut Fryderyka Chopina (https://polishscores.org)
!!!YEM: License CC-BY-4.0 (https://creativecommons.org/licenses/by/4.0)
